{
  "compressionlevel": -1,
  "height": 18,
  "width": 24,
  "infinite": false,
  "orientation": "orthogonal",
  "renderorder": "right-down",
  "tileheight": 32,
  "tilewidth": 32,
  "tiledversion": "1.10.2",
  "type": "map",
  "version": "1.10",
  "nextlayerid": 20,
  "nextobjectid": 4,
  "properties": [
    {
      "name": "mapName",
      "type": "string",
      "value": "Lantern Courtyard \u00b7 Layered animated proof"
    },
    {
      "name": "mapDescription",
      "type": "string",
      "value": "Native-scale furniture, transparent foliage and foot collisions, animated light spill and water, and a covered alcove reveal. Local proof, live Universe acceptance pending."
    },
    {
      "name": "mapCopyright",
      "type": "string",
      "value": "Original map layout and AI-assisted artwork prepared for BAWES Universe. See LICENSE.assets.txt."
    },
    {
      "name": "script",
      "type": "string",
      "value": "scripts/courtyard.js"
    }
  ],
  "layers": [
    {
      "id": 1,
      "name": "collisions",
      "type": "tilelayer",
      "width": 24,
      "height": 18,
      "x": 0,
      "y": 0,
      "opacity": 1,
      "visible": true,
      "data": [
        1,
        1,
        1,
        1,
        1,
        1,
        1,
        1,
        1,
        1,
        1,
        1,
        1,
        1,
        1,
        1,
        1,
        1,
        1,
        1,
        1,
        1,
        1,
        1,
        1,
        1,
        1,
        1,
        1,
        1,
        1,
        1,
        1,
        1,
        1,
        1,
        1,
        1,
        1,
        1,
        1,
        1,
        1,
        1,
        1,
        1,
        1,
        1,
        1,
        1,
        1,
        1,
        1,
        1,
        1,
        1,
        1,
        1,
        1,
        1,
        1,
        1,
        1,
        1,
        1,
        1,
        1,
        1,
        1,
        1,
        1,
        1,
        1,
        1,
        1,
        1,
        1,
        1,
        1,
        1,
        1,
        1,
        1,
        1,
        1,
        1,
        1,
        1,
        1,
        1,
        1,
        1,
        1,
        1,
        1,
        1,
        1,
        1,
        1,
        1,
        1,
        1,
        1,
        1,
        0,
        0,
        0,
        0,
        0,
        0,
        0,
        0,
        1,
        1,
        1,
        1,
        1,
        1,
        1,
        1,
        1,
        0,
        0,
        1,
        0,
        0,
        0,
        1,
        0,
        1,
        1,
        1,
        1,
        1,
        1,
        0,
        0,
        0,
        0,
        0,
        0,
        0,
        0,
        1,
        1,
        0,
        0,
        0,
        0,
        0,
        0,
        0,
        0,
        1,
        1,
        1,
        1,
        1,
        1,
        0,
        0,
        0,
        0,
        0,
        0,
        0,
        0,
        1,
        1,
        0,
        0,
        0,
        0,
        0,
        0,
        0,
        0,
        1,
        1,
        1,
        1,
        1,
        1,
        0,
        0,
        0,
        0,
        0,
        0,
        0,
        0,
        1,
        1,
        0,
        0,
        0,
        0,
        0,
        0,
        0,
        0,
        1,
        1,
        1,
        1,
        1,
        1,
        0,
        0,
        0,
        0,
        0,
        0,
        0,
        0,
        1,
        1,
        0,
        0,
        0,
        0,
        0,
        0,
        0,
        0,
        1,
        1,
        1,
        1,
        1,
        1,
        0,
        0,
        0,
        0,
        0,
        0,
        0,
        0,
        1,
        1,
        0,
        0,
        0,
        0,
        0,
        0,
        0,
        0,
        0,
        0,
        0,
        0,
        0,
        0,
        0,
        0,
        0,
        0,
        0,
        0,
        0,
        0,
        1,
        1,
        0,
        0,
        0,
        0,
        0,
        0,
        0,
        0,
        0,
        0,
        0,
        0,
        0,
        0,
        0,
        0,
        0,
        0,
        0,
        0,
        0,
        0,
        1,
        1,
        0,
        0,
        0,
        0,
        0,
        0,
        0,
        0,
        0,
        0,
        0,
        0,
        0,
        0,
        0,
        0,
        0,
        0,
        0,
        0,
        0,
        0,
        1,
        1,
        0,
        0,
        0,
        0,
        0,
        0,
        0,
        0,
        0,
        0,
        0,
        0,
        0,
        0,
        0,
        0,
        0,
        0,
        0,
        0,
        0,
        0,
        1,
        1,
        1,
        1,
        1,
        1,
        1,
        1,
        1,
        1,
        0,
        0,
        0,
        0,
        0,
        0,
        1,
        1,
        1,
        1,
        1,
        1,
        1,
        1,
        1,
        1,
        1,
        1,
        1,
        1,
        1,
        1,
        1,
        1,
        0,
        0,
        0,
        0,
        0,
        0,
        1,
        1,
        1,
        1,
        1,
        1,
        1,
        1,
        1,
        1,
        1,
        1,
        1,
        1,
        1,
        1,
        1,
        1,
        0,
        0,
        0,
        0,
        0,
        0,
        1,
        1,
        1,
        1,
        1,
        1,
        1,
        1,
        1,
        1,
        1,
        1,
        1,
        1,
        1,
        1,
        1,
        1,
        1,
        1,
        1,
        1,
        1,
        1,
        1,
        1,
        1,
        1,
        1,
        1,
        1,
        1,
        1
      ]
    },
    {
      "id": 2,
      "name": "start",
      "type": "tilelayer",
      "width": 24,
      "height": 18,
      "x": 0,
      "y": 0,
      "opacity": 1,
      "visible": true,
      "data": [
        0,
        0,
        0,
        0,
        0,
        0,
        0,
        0,
        0,
        0,
        0,
        0,
        0,
        0,
        0,
        0,
        0,
        0,
        0,
        0,
        0,
        0,
        0,
        0,
        0,
        0,
        0,
        0,
        0,
        0,
        0,
        0,
        0,
        0,
        0,
        0,
        0,
        0,
        0,
        0,
        0,
        0,
        0,
        0,
        0,
        0,
        0,
        0,
        0,
        0,
        0,
        0,
        0,
        0,
        0,
        0,
        0,
        0,
        0,
        0,
        0,
        0,
        0,
        0,
        0,
        0,
        0,
        0,
        0,
        0,
        0,
        0,
        0,
        0,
        0,
        0,
        0,
        0,
        0,
        0,
        0,
        0,
        0,
        0,
        0,
        0,
        0,
        0,
        0,
        0,
        0,
        0,
        0,
        0,
        0,
        0,
        0,
        0,
        0,
        0,
        0,
        0,
        0,
        0,
        0,
        0,
        0,
        0,
        0,
        0,
        0,
        0,
        0,
        0,
        0,
        0,
        0,
        0,
        0,
        0,
        0,
        0,
        0,
        0,
        0,
        0,
        0,
        0,
        0,
        0,
        0,
        0,
        0,
        0,
        0,
        0,
        0,
        0,
        0,
        0,
        0,
        0,
        0,
        0,
        0,
        0,
        0,
        0,
        0,
        0,
        0,
        0,
        0,
        0,
        0,
        0,
        0,
        0,
        0,
        0,
        0,
        0,
        0,
        0,
        0,
        0,
        0,
        0,
        0,
        0,
        0,
        0,
        0,
        0,
        0,
        0,
        0,
        0,
        0,
        0,
        0,
        0,
        0,
        0,
        0,
        0,
        0,
        0,
        0,
        0,
        0,
        0,
        0,
        0,
        0,
        0,
        0,
        0,
        0,
        0,
        0,
        0,
        0,
        0,
        0,
        0,
        0,
        0,
        0,
        0,
        0,
        0,
        0,
        0,
        0,
        0,
        0,
        0,
        0,
        0,
        0,
        0,
        0,
        0,
        0,
        0,
        0,
        0,
        0,
        0,
        0,
        0,
        0,
        0,
        0,
        0,
        0,
        0,
        0,
        0,
        0,
        0,
        0,
        0,
        0,
        0,
        0,
        0,
        0,
        0,
        0,
        0,
        0,
        0,
        0,
        0,
        0,
        0,
        0,
        0,
        0,
        0,
        0,
        0,
        0,
        0,
        0,
        0,
        0,
        0,
        0,
        0,
        0,
        0,
        0,
        0,
        0,
        0,
        0,
        0,
        0,
        0,
        0,
        0,
        0,
        0,
        0,
        0,
        0,
        0,
        0,
        0,
        0,
        0,
        0,
        0,
        0,
        0,
        0,
        0,
        0,
        0,
        0,
        0,
        0,
        0,
        0,
        0,
        0,
        0,
        0,
        0,
        0,
        0,
        0,
        0,
        0,
        0,
        0,
        0,
        0,
        0,
        0,
        0,
        0,
        0,
        0,
        0,
        0,
        0,
        0,
        0,
        0,
        0,
        0,
        0,
        0,
        0,
        0,
        0,
        0,
        0,
        0,
        0,
        0,
        0,
        0,
        0,
        0,
        0,
        0,
        0,
        0,
        0,
        0,
        0,
        0,
        0,
        0,
        0,
        0,
        0,
        0,
        0,
        0,
        0,
        0,
        0,
        0,
        0,
        0,
        2,
        2,
        0,
        0,
        0,
        0,
        0,
        0,
        0,
        0,
        0,
        0,
        0,
        0,
        0,
        0,
        0,
        0,
        0,
        0,
        0,
        0,
        0,
        0,
        2,
        2,
        0,
        0,
        0,
        0,
        0,
        0,
        0,
        0,
        0,
        0,
        0,
        0,
        0,
        0,
        0,
        0,
        0,
        0,
        0,
        0,
        0,
        0,
        0,
        0,
        0,
        0,
        0,
        0,
        0,
        0,
        0,
        0,
        0,
        0,
        0
      ]
    },
    {
      "id": 3,
      "name": "object-footprints",
      "type": "tilelayer",
      "width": 24,
      "height": 18,
      "x": 0,
      "y": 0,
      "opacity": 1,
      "visible": true,
      "data": [
        0,
        0,
        0,
        0,
        0,
        0,
        0,
        0,
        0,
        0,
        0,
        0,
        0,
        0,
        0,
        0,
        0,
        0,
        0,
        0,
        0,
        0,
        0,
        0,
        0,
        0,
        0,
        0,
        0,
        0,
        0,
        0,
        0,
        0,
        0,
        0,
        0,
        0,
        0,
        0,
        0,
        0,
        0,
        0,
        0,
        0,
        0,
        0,
        0,
        0,
        0,
        0,
        0,
        0,
        0,
        0,
        0,
        0,
        0,
        0,
        0,
        0,
        0,
        0,
        0,
        0,
        0,
        0,
        0,
        0,
        0,
        0,
        0,
        0,
        0,
        0,
        0,
        0,
        0,
        0,
        0,
        0,
        0,
        0,
        0,
        0,
        0,
        0,
        0,
        0,
        0,
        0,
        0,
        0,
        0,
        0,
        0,
        0,
        0,
        0,
        1,
        1,
        1,
        0,
        0,
        0,
        0,
        0,
        0,
        0,
        0,
        0,
        0,
        1,
        1,
        1,
        0,
        0,
        0,
        0,
        0,
        0,
        0,
        0,
        0,
        0,
        0,
        0,
        0,
        0,
        0,
        0,
        0,
        0,
        0,
        0,
        0,
        0,
        0,
        0,
        0,
        0,
        0,
        0,
        0,
        0,
        0,
        0,
        0,
        0,
        0,
        0,
        0,
        0,
        0,
        0,
        0,
        0,
        0,
        0,
        0,
        0,
        0,
        0,
        0,
        0,
        0,
        0,
        0,
        0,
        0,
        0,
        0,
        0,
        0,
        0,
        0,
        0,
        0,
        0,
        0,
        0,
        0,
        0,
        0,
        0,
        0,
        0,
        0,
        0,
        0,
        0,
        0,
        0,
        0,
        0,
        0,
        0,
        0,
        0,
        0,
        0,
        0,
        0,
        0,
        0,
        0,
        0,
        0,
        0,
        0,
        0,
        0,
        0,
        0,
        0,
        0,
        1,
        1,
        0,
        0,
        0,
        0,
        0,
        0,
        0,
        0,
        0,
        0,
        0,
        0,
        0,
        0,
        0,
        0,
        0,
        1,
        1,
        0,
        0,
        0,
        0,
        0,
        0,
        0,
        0,
        0,
        0,
        0,
        0,
        0,
        0,
        0,
        0,
        0,
        0,
        0,
        0,
        0,
        0,
        0,
        0,
        0,
        0,
        0,
        0,
        0,
        0,
        0,
        0,
        0,
        0,
        0,
        0,
        0,
        0,
        0,
        0,
        0,
        0,
        0,
        0,
        0,
        0,
        0,
        0,
        0,
        0,
        0,
        0,
        0,
        0,
        0,
        0,
        0,
        0,
        0,
        0,
        0,
        0,
        0,
        0,
        0,
        0,
        0,
        0,
        0,
        0,
        0,
        0,
        0,
        0,
        0,
        0,
        0,
        0,
        0,
        0,
        0,
        0,
        0,
        0,
        0,
        0,
        0,
        0,
        0,
        0,
        0,
        0,
        0,
        0,
        0,
        0,
        0,
        0,
        0,
        0,
        0,
        0,
        0,
        0,
        0,
        0,
        0,
        0,
        0,
        0,
        0,
        0,
        0,
        0,
        0,
        0,
        0,
        0,
        0,
        0,
        0,
        0,
        0,
        0,
        0,
        0,
        0,
        0,
        0,
        0,
        0,
        0,
        0,
        0,
        0,
        0,
        0,
        0,
        0,
        0,
        0,
        0,
        0,
        0,
        0,
        0,
        0,
        0,
        0,
        0,
        0,
        0,
        0,
        0,
        1,
        1,
        0,
        0,
        0,
        0,
        1,
        1,
        0,
        0,
        0,
        0,
        0,
        0,
        0,
        0,
        0,
        0,
        0,
        0,
        0,
        0,
        0,
        0,
        0,
        0,
        0,
        0,
        0,
        0,
        0,
        0,
        0,
        0,
        0,
        0,
        0,
        0,
        0,
        0
      ]
    },
    {
      "id": 4,
      "name": "coffee-table-footprint",
      "type": "tilelayer",
      "width": 24,
      "height": 18,
      "x": 0,
      "y": 0,
      "opacity": 1,
      "visible": true,
      "data": [
        0,
        0,
        0,
        0,
        0,
        0,
        0,
        0,
        0,
        0,
        0,
        0,
        0,
        0,
        0,
        0,
        0,
        0,
        0,
        0,
        0,
        0,
        0,
        0,
        0,
        0,
        0,
        0,
        0,
        0,
        0,
        0,
        0,
        0,
        0,
        0,
        0,
        0,
        0,
        0,
        0,
        0,
        0,
        0,
        0,
        0,
        0,
        0,
        0,
        0,
        0,
        0,
        0,
        0,
        0,
        0,
        0,
        0,
        0,
        0,
        0,
        0,
        0,
        0,
        0,
        0,
        0,
        0,
        0,
        0,
        0,
        0,
        0,
        0,
        0,
        0,
        0,
        0,
        0,
        0,
        0,
        0,
        0,
        0,
        0,
        0,
        0,
        0,
        0,
        0,
        0,
        0,
        0,
        0,
        0,
        0,
        0,
        0,
        0,
        0,
        0,
        0,
        0,
        0,
        0,
        0,
        0,
        0,
        0,
        0,
        0,
        0,
        0,
        0,
        0,
        0,
        0,
        0,
        0,
        0,
        0,
        0,
        0,
        0,
        0,
        0,
        0,
        0,
        0,
        0,
        0,
        0,
        0,
        0,
        0,
        0,
        0,
        0,
        0,
        0,
        0,
        0,
        0,
        0,
        0,
        0,
        0,
        0,
        0,
        0,
        0,
        0,
        0,
        0,
        0,
        0,
        0,
        0,
        0,
        0,
        0,
        0,
        0,
        0,
        0,
        0,
        0,
        0,
        0,
        0,
        0,
        0,
        0,
        0,
        0,
        0,
        0,
        0,
        0,
        0,
        0,
        0,
        0,
        0,
        0,
        0,
        0,
        0,
        0,
        0,
        0,
        0,
        0,
        0,
        0,
        0,
        0,
        0,
        0,
        0,
        0,
        0,
        0,
        0,
        0,
        0,
        0,
        0,
        0,
        0,
        0,
        0,
        0,
        0,
        0,
        0,
        0,
        0,
        0,
        0,
        0,
        0,
        0,
        0,
        0,
        0,
        0,
        0,
        0,
        0,
        0,
        0,
        0,
        0,
        0,
        0,
        0,
        0,
        0,
        0,
        0,
        0,
        0,
        0,
        0,
        0,
        0,
        0,
        0,
        0,
        0,
        0,
        0,
        0,
        0,
        0,
        0,
        0,
        0,
        0,
        0,
        0,
        0,
        0,
        0,
        0,
        0,
        0,
        0,
        0,
        1,
        1,
        0,
        0,
        0,
        0,
        0,
        0,
        0,
        0,
        0,
        0,
        0,
        0,
        0,
        0,
        0,
        0,
        0,
        0,
        0,
        0,
        0,
        0,
        0,
        0,
        0,
        0,
        0,
        0,
        0,
        0,
        0,
        0,
        0,
        0,
        0,
        0,
        0,
        0,
        0,
        0,
        0,
        0,
        0,
        0,
        0,
        0,
        0,
        0,
        0,
        0,
        0,
        0,
        0,
        0,
        0,
        0,
        0,
        0,
        0,
        0,
        0,
        0,
        0,
        0,
        0,
        0,
        0,
        0,
        0,
        0,
        0,
        0,
        0,
        0,
        0,
        0,
        0,
        0,
        0,
        0,
        0,
        0,
        0,
        0,
        0,
        0,
        0,
        0,
        0,
        0,
        0,
        0,
        0,
        0,
        0,
        0,
        0,
        0,
        0,
        0,
        0,
        0,
        0,
        0,
        0,
        0,
        0,
        0,
        0,
        0,
        0,
        0,
        0,
        0,
        0,
        0,
        0,
        0,
        0,
        0,
        0,
        0,
        0,
        0,
        0,
        0,
        0,
        0,
        0,
        0,
        0,
        0,
        0,
        0,
        0,
        0,
        0,
        0,
        0,
        0,
        0,
        0,
        0,
        0,
        0,
        0,
        0,
        0,
        0,
        0,
        0,
        0,
        0,
        0,
        0,
        0,
        0,
        0,
        0,
        0
      ]
    },
    {
      "id": 5,
      "name": "courtyard-ground",
      "type": "tilelayer",
      "width": 24,
      "height": 18,
      "x": 0,
      "y": 0,
      "opacity": 1,
      "visible": true,
      "data": [
        3,
        4,
        5,
        6,
        7,
        8,
        9,
        10,
        11,
        12,
        13,
        14,
        15,
        16,
        17,
        18,
        19,
        20,
        21,
        22,
        23,
        24,
        25,
        26,
        27,
        28,
        29,
        30,
        31,
        32,
        33,
        34,
        35,
        36,
        37,
        38,
        39,
        40,
        41,
        42,
        43,
        44,
        45,
        46,
        47,
        48,
        49,
        50,
        51,
        52,
        53,
        54,
        55,
        56,
        57,
        58,
        59,
        60,
        61,
        62,
        63,
        64,
        65,
        66,
        67,
        68,
        69,
        70,
        71,
        72,
        73,
        74,
        75,
        76,
        77,
        78,
        79,
        80,
        81,
        82,
        83,
        84,
        85,
        86,
        87,
        88,
        89,
        90,
        91,
        92,
        93,
        94,
        95,
        96,
        97,
        98,
        99,
        100,
        101,
        102,
        103,
        104,
        105,
        106,
        107,
        108,
        109,
        110,
        111,
        112,
        113,
        114,
        115,
        116,
        117,
        118,
        119,
        120,
        121,
        122,
        123,
        124,
        125,
        126,
        127,
        128,
        129,
        130,
        131,
        132,
        133,
        134,
        135,
        136,
        137,
        138,
        139,
        140,
        141,
        142,
        143,
        144,
        145,
        146,
        147,
        148,
        149,
        150,
        151,
        152,
        153,
        154,
        155,
        156,
        157,
        158,
        159,
        160,
        161,
        162,
        163,
        164,
        165,
        166,
        167,
        168,
        169,
        170,
        171,
        172,
        173,
        174,
        175,
        176,
        177,
        178,
        179,
        180,
        181,
        182,
        183,
        184,
        185,
        186,
        187,
        188,
        189,
        190,
        191,
        192,
        193,
        194,
        195,
        196,
        197,
        198,
        199,
        200,
        201,
        202,
        203,
        204,
        205,
        206,
        207,
        208,
        209,
        210,
        211,
        212,
        213,
        214,
        215,
        216,
        217,
        218,
        219,
        220,
        221,
        222,
        223,
        224,
        225,
        226,
        227,
        228,
        229,
        230,
        231,
        232,
        233,
        234,
        235,
        236,
        237,
        238,
        239,
        240,
        241,
        242,
        243,
        244,
        245,
        246,
        247,
        248,
        249,
        250,
        251,
        252,
        253,
        254,
        255,
        256,
        257,
        258,
        259,
        260,
        261,
        262,
        263,
        264,
        265,
        266,
        267,
        268,
        269,
        270,
        271,
        272,
        273,
        274,
        275,
        276,
        277,
        278,
        279,
        280,
        281,
        282,
        283,
        284,
        285,
        286,
        287,
        288,
        289,
        290,
        291,
        292,
        293,
        294,
        295,
        296,
        297,
        298,
        299,
        300,
        301,
        302,
        303,
        304,
        305,
        306,
        307,
        308,
        309,
        310,
        311,
        312,
        313,
        314,
        315,
        316,
        317,
        318,
        319,
        320,
        321,
        322,
        323,
        324,
        325,
        326,
        327,
        328,
        329,
        330,
        331,
        332,
        333,
        334,
        335,
        336,
        337,
        338,
        339,
        340,
        341,
        342,
        343,
        344,
        345,
        346,
        347,
        348,
        349,
        350,
        351,
        352,
        353,
        354,
        355,
        356,
        357,
        358,
        359,
        360,
        361,
        362,
        363,
        364,
        365,
        366,
        367,
        368,
        369,
        370,
        371,
        372,
        373,
        374,
        375,
        376,
        377,
        378,
        379,
        380,
        381,
        382,
        383,
        384,
        385,
        386,
        387,
        388,
        389,
        390,
        391,
        392,
        393,
        394,
        395,
        396,
        397,
        398,
        399,
        400,
        401,
        402,
        403,
        404,
        405,
        406,
        407,
        408,
        409,
        410,
        411,
        412,
        413,
        414,
        415,
        416,
        417,
        418,
        419,
        420,
        421,
        422,
        423,
        424,
        425,
        426,
        427,
        428,
        429,
        430,
        431,
        432,
        433,
        434
      ]
    },
    {
      "id": 6,
      "name": "lantern-steady",
      "type": "tilelayer",
      "width": 24,
      "height": 18,
      "x": 0,
      "y": 0,
      "opacity": 1,
      "visible": true,
      "data": [
        1545,
        1546,
        1547,
        1548,
        1549,
        1550,
        1551,
        1552,
        1553,
        1554,
        1555,
        1556,
        1557,
        1558,
        1559,
        1560,
        1561,
        1562,
        1563,
        1564,
        1565,
        1566,
        1567,
        1568,
        1569,
        1570,
        1571,
        1572,
        1573,
        1574,
        1575,
        1576,
        1577,
        1578,
        1579,
        1580,
        1581,
        1582,
        1583,
        1584,
        1585,
        1586,
        1587,
        1588,
        1589,
        1590,
        1591,
        1592,
        1593,
        1594,
        1595,
        1596,
        1597,
        1598,
        1599,
        1600,
        1601,
        1602,
        1603,
        1604,
        1605,
        1606,
        1607,
        1608,
        1609,
        1610,
        1611,
        1612,
        1613,
        1614,
        1615,
        1616,
        1617,
        1618,
        1619,
        1620,
        1621,
        1622,
        1623,
        1624,
        1625,
        1626,
        1627,
        1628,
        1629,
        1630,
        1631,
        1632,
        1633,
        1634,
        1635,
        1636,
        1637,
        1638,
        1639,
        1640,
        1641,
        1642,
        1643,
        1644,
        1645,
        1646,
        1647,
        1648,
        1649,
        1650,
        1651,
        1652,
        1653,
        1654,
        1655,
        1656,
        1657,
        1658,
        1659,
        1660,
        1661,
        1662,
        1663,
        1664,
        1665,
        1666,
        1667,
        1668,
        1669,
        1670,
        1671,
        1672,
        1673,
        1674,
        1675,
        1676,
        1677,
        1678,
        1679,
        1680,
        1681,
        1682,
        1683,
        1684,
        1685,
        1686,
        1687,
        1688,
        1689,
        1690,
        1691,
        1692,
        1693,
        1694,
        1695,
        1696,
        1697,
        1698,
        1699,
        1700,
        1701,
        1702,
        1703,
        1704,
        1705,
        1706,
        1707,
        1708,
        1709,
        1710,
        1711,
        1712,
        1713,
        1714,
        1715,
        1716,
        1717,
        1718,
        1719,
        1720,
        1721,
        1722,
        1723,
        1724,
        1725,
        1726,
        1727,
        1728,
        1729,
        1730,
        1731,
        1732,
        1733,
        1734,
        1735,
        1736,
        1737,
        1738,
        1739,
        1740,
        1741,
        1742,
        1743,
        1744,
        1745,
        1746,
        1747,
        1748,
        1749,
        1750,
        1751,
        1752,
        1753,
        1754,
        1755,
        1756,
        1757,
        1758,
        1759,
        1760,
        1761,
        1762,
        1763,
        1764,
        1765,
        1766,
        1767,
        1768,
        1769,
        1770,
        1771,
        1772,
        1773,
        1774,
        1775,
        1776,
        1777,
        1778,
        1779,
        1780,
        1781,
        1782,
        1783,
        1784,
        1785,
        1786,
        1787,
        1788,
        1789,
        1790,
        1791,
        1792,
        1793,
        1794,
        1795,
        1796,
        1797,
        1798,
        1799,
        1800,
        1801,
        1802,
        1803,
        1804,
        1805,
        1806,
        1807,
        1808,
        1809,
        1810,
        1811,
        1812,
        1813,
        1814,
        1815,
        1816,
        1817,
        1818,
        1819,
        1820,
        1821,
        1822,
        1823,
        1824,
        1825,
        1826,
        1827,
        1828,
        1829,
        1830,
        1831,
        1832,
        1833,
        1834,
        1835,
        1836,
        1837,
        1838,
        1839,
        1840,
        1841,
        1842,
        1843,
        1844,
        1845,
        1846,
        1847,
        1848,
        1849,
        1850,
        1851,
        1852,
        1853,
        1854,
        1855,
        1856,
        1857,
        1858,
        1859,
        1860,
        1861,
        1862,
        1863,
        1864,
        1865,
        1866,
        1867,
        1868,
        1869,
        1870,
        1871,
        1872,
        1873,
        1874,
        1875,
        1876,
        1877,
        1878,
        1879,
        1880,
        1881,
        1882,
        1883,
        1884,
        1885,
        1886,
        1887,
        1888,
        1889,
        1890,
        1891,
        1892,
        1893,
        1894,
        1895,
        1896,
        1897,
        1898,
        1899,
        1900,
        1901,
        1902,
        1903,
        1904,
        1905,
        1906,
        1907,
        1908,
        1909,
        1910,
        1911,
        1912,
        1913,
        1914,
        1915,
        1916,
        1917,
        1918,
        1919,
        1920,
        1921,
        1922,
        1923,
        1924,
        1925,
        1926,
        1927,
        1928,
        1929,
        1930,
        1931,
        1932,
        1933,
        1934,
        1935,
        1936,
        1937,
        1938,
        1939,
        1940,
        1941,
        1942,
        1943,
        1944,
        1945,
        1946,
        1947,
        1948,
        1949,
        1950,
        1951,
        1952,
        1953,
        1954,
        1955,
        1956,
        1957,
        1958,
        1959,
        1960,
        1961,
        1962,
        1963,
        1964,
        1965,
        1966,
        1967,
        1968,
        1969,
        1970,
        1971,
        1972,
        1973,
        1974,
        1975,
        1976
      ]
    },
    {
      "id": 7,
      "name": "pool-ripples",
      "type": "tilelayer",
      "width": 24,
      "height": 18,
      "x": 0,
      "y": 0,
      "opacity": 1,
      "visible": false,
      "data": [
        0,
        0,
        0,
        0,
        0,
        0,
        0,
        0,
        0,
        0,
        0,
        0,
        0,
        0,
        0,
        0,
        0,
        0,
        0,
        0,
        0,
        0,
        0,
        0,
        0,
        0,
        0,
        0,
        0,
        0,
        0,
        0,
        0,
        0,
        0,
        0,
        0,
        0,
        0,
        0,
        0,
        0,
        0,
        0,
        0,
        0,
        0,
        0,
        0,
        0,
        0,
        0,
        0,
        0,
        0,
        0,
        0,
        0,
        0,
        0,
        0,
        0,
        0,
        0,
        0,
        0,
        0,
        0,
        0,
        0,
        0,
        0,
        0,
        0,
        0,
        0,
        0,
        0,
        0,
        0,
        0,
        0,
        0,
        0,
        0,
        0,
        0,
        0,
        0,
        0,
        0,
        0,
        0,
        0,
        0,
        0,
        0,
        0,
        0,
        0,
        0,
        0,
        0,
        0,
        0,
        0,
        0,
        0,
        0,
        0,
        0,
        0,
        0,
        0,
        0,
        0,
        0,
        0,
        0,
        0,
        0,
        0,
        0,
        0,
        0,
        0,
        0,
        0,
        0,
        0,
        0,
        0,
        0,
        0,
        0,
        0,
        0,
        0,
        0,
        0,
        0,
        0,
        0,
        0,
        0,
        0,
        0,
        0,
        0,
        0,
        0,
        0,
        0,
        0,
        1449,
        1450,
        1451,
        1452,
        1453,
        1454,
        1455,
        1456,
        1457,
        1458,
        1459,
        1460,
        1461,
        1462,
        1463,
        1464,
        1465,
        1466,
        1467,
        1468,
        1469,
        1470,
        1471,
        1472,
        1481,
        1482,
        1483,
        1484,
        1485,
        1486,
        1487,
        1488,
        1489,
        1490,
        1491,
        1492,
        1493,
        1494,
        1495,
        1496,
        1497,
        1498,
        1499,
        1500,
        1501,
        1502,
        1503,
        1504,
        1513,
        1514,
        1515,
        1516,
        1517,
        1518,
        1519,
        1520,
        1521,
        1522,
        1523,
        1524,
        1525,
        1526,
        1527,
        1528,
        1529,
        1530,
        1531,
        1532,
        1533,
        1534,
        1535,
        1536,
        1537,
        1538,
        1539,
        1540,
        1541,
        1542,
        1543,
        1544,
        0,
        0,
        0,
        0,
        0,
        0,
        0,
        0,
        0,
        0,
        0,
        0,
        0,
        0,
        0,
        0,
        0,
        0,
        0,
        0,
        0,
        0,
        0,
        0,
        0,
        0,
        0,
        0,
        0,
        0,
        0,
        0,
        0,
        0,
        0,
        0,
        0,
        0,
        0,
        0,
        0,
        0,
        0,
        0,
        0,
        0,
        0,
        0,
        0,
        0,
        0,
        0,
        0,
        0,
        0,
        0,
        0,
        0,
        0,
        0,
        0,
        0,
        0,
        0,
        0,
        0,
        0,
        0,
        0,
        0,
        0,
        0,
        0,
        0,
        0,
        0,
        0,
        0,
        0,
        0,
        0,
        0,
        0,
        0,
        0,
        0,
        0,
        0,
        0,
        0,
        0,
        0,
        0,
        0,
        0,
        0,
        0,
        0,
        0,
        0,
        0,
        0,
        0,
        0,
        0,
        0,
        0,
        0,
        0,
        0,
        0,
        0,
        0,
        0,
        0,
        0,
        0,
        0,
        0,
        0,
        0,
        0,
        0,
        0,
        0,
        0,
        0,
        0,
        0,
        0,
        0,
        0,
        0,
        0,
        0,
        0,
        0,
        0,
        0,
        0,
        0,
        0,
        0,
        0,
        0,
        0,
        0,
        0,
        0,
        0,
        0,
        0,
        0,
        0,
        0,
        0,
        0,
        0,
        0,
        0,
        0,
        0,
        0,
        0,
        0,
        0,
        0,
        0,
        0,
        0,
        0,
        0,
        0,
        0,
        0,
        0,
        0,
        0,
        0,
        0,
        0,
        0,
        0,
        0,
        0,
        0,
        0,
        0,
        0,
        0,
        0,
        0,
        0,
        0,
        0,
        0,
        0,
        0
      ]
    },
    {
      "id": 8,
      "name": "lantern-flicker",
      "type": "tilelayer",
      "width": 24,
      "height": 18,
      "x": 0,
      "y": 0,
      "opacity": 1,
      "visible": false,
      "data": [
        0,
        0,
        0,
        0,
        0,
        0,
        0,
        0,
        569,
        577,
        585,
        593,
        601,
        609,
        617,
        625,
        0,
        0,
        0,
        0,
        0,
        0,
        0,
        0,
        0,
        0,
        0,
        0,
        0,
        0,
        0,
        0,
        633,
        641,
        649,
        657,
        665,
        673,
        681,
        689,
        0,
        0,
        0,
        0,
        0,
        0,
        0,
        0,
        0,
        697,
        705,
        713,
        0,
        0,
        0,
        0,
        721,
        729,
        737,
        745,
        753,
        761,
        769,
        777,
        0,
        0,
        0,
        0,
        0,
        785,
        793,
        801,
        809,
        817,
        825,
        833,
        0,
        0,
        0,
        0,
        841,
        849,
        857,
        865,
        873,
        881,
        889,
        897,
        0,
        0,
        0,
        0,
        905,
        913,
        921,
        929,
        937,
        945,
        953,
        961,
        0,
        0,
        0,
        0,
        0,
        0,
        0,
        0,
        0,
        0,
        0,
        0,
        0,
        0,
        0,
        0,
        969,
        977,
        985,
        993,
        1001,
        1009,
        1017,
        1025,
        0,
        0,
        0,
        0,
        0,
        0,
        0,
        0,
        0,
        0,
        0,
        0,
        0,
        0,
        0,
        0,
        1033,
        1041,
        1049,
        1057,
        1065,
        1073,
        1081,
        0,
        0,
        0,
        0,
        0,
        0,
        0,
        0,
        1089,
        1097,
        0,
        0,
        0,
        0,
        0,
        0,
        0,
        0,
        1105,
        1113,
        1121,
        1129,
        1137,
        0,
        0,
        0,
        0,
        0,
        0,
        0,
        0,
        0,
        1145,
        1153,
        0,
        0,
        0,
        0,
        0,
        0,
        0,
        0,
        0,
        1161,
        1169,
        1177,
        1185,
        0,
        0,
        0,
        0,
        0,
        0,
        0,
        0,
        0,
        0,
        0,
        0,
        0,
        0,
        0,
        0,
        0,
        0,
        0,
        0,
        1193,
        1201,
        1209,
        1217,
        0,
        0,
        0,
        0,
        0,
        0,
        0,
        0,
        0,
        0,
        0,
        0,
        0,
        0,
        0,
        0,
        0,
        0,
        0,
        0,
        1225,
        1233,
        0,
        0,
        0,
        0,
        0,
        0,
        0,
        0,
        0,
        0,
        0,
        0,
        0,
        0,
        0,
        0,
        0,
        0,
        0,
        0,
        0,
        0,
        0,
        0,
        0,
        0,
        0,
        0,
        0,
        0,
        0,
        0,
        0,
        0,
        0,
        0,
        0,
        0,
        0,
        0,
        0,
        0,
        0,
        0,
        0,
        0,
        0,
        0,
        0,
        0,
        0,
        0,
        0,
        0,
        0,
        0,
        0,
        0,
        0,
        0,
        0,
        0,
        0,
        0,
        0,
        0,
        0,
        0,
        0,
        0,
        0,
        0,
        0,
        0,
        0,
        0,
        0,
        0,
        0,
        0,
        0,
        0,
        0,
        0,
        0,
        0,
        0,
        0,
        0,
        0,
        0,
        0,
        0,
        0,
        0,
        0,
        0,
        0,
        0,
        0,
        0,
        0,
        1241,
        1249,
        1257,
        0,
        0,
        0,
        0,
        0,
        0,
        1265,
        1273,
        1281,
        0,
        0,
        0,
        0,
        0,
        0,
        0,
        0,
        0,
        0,
        0,
        0,
        1289,
        1297,
        1305,
        0,
        0,
        0,
        0,
        0,
        0,
        1313,
        1321,
        1329,
        1337,
        0,
        0,
        0,
        0,
        0,
        0,
        0,
        0,
        0,
        0,
        0,
        1345,
        1353,
        1361,
        0,
        0,
        0,
        0,
        0,
        0,
        1369,
        1377,
        1385,
        1393,
        0,
        0,
        0,
        0,
        0,
        0,
        0,
        0,
        0,
        0,
        0,
        1401,
        1409,
        1417,
        0,
        0,
        0,
        0,
        0,
        0,
        1425,
        1433,
        1441,
        0,
        0,
        0,
        0,
        0,
        0
      ]
    },
    {
      "id": 9,
      "name": "gathering-glow",
      "type": "tilelayer",
      "width": 24,
      "height": 18,
      "x": 0,
      "y": 0,
      "opacity": 1,
      "visible": false,
      "data": [
        0,
        0,
        0,
        0,
        0,
        0,
        0,
        0,
        0,
        0,
        0,
        0,
        0,
        0,
        0,
        0,
        0,
        0,
        0,
        0,
        0,
        0,
        0,
        0,
        0,
        0,
        0,
        0,
        0,
        0,
        0,
        0,
        0,
        0,
        0,
        0,
        0,
        0,
        0,
        0,
        0,
        0,
        0,
        0,
        0,
        0,
        0,
        0,
        0,
        0,
        0,
        0,
        0,
        0,
        0,
        0,
        0,
        0,
        0,
        0,
        0,
        0,
        0,
        0,
        0,
        0,
        0,
        0,
        0,
        0,
        0,
        0,
        0,
        0,
        0,
        0,
        0,
        0,
        0,
        0,
        0,
        0,
        0,
        0,
        0,
        0,
        0,
        0,
        0,
        0,
        0,
        0,
        0,
        0,
        0,
        0,
        0,
        0,
        0,
        0,
        0,
        0,
        0,
        0,
        0,
        0,
        0,
        0,
        0,
        0,
        0,
        0,
        0,
        0,
        0,
        0,
        0,
        0,
        0,
        0,
        0,
        0,
        0,
        0,
        0,
        0,
        0,
        0,
        0,
        0,
        0,
        0,
        0,
        0,
        0,
        0,
        0,
        0,
        0,
        0,
        0,
        0,
        0,
        0,
        0,
        0,
        0,
        0,
        0,
        0,
        0,
        0,
        0,
        0,
        0,
        0,
        0,
        0,
        0,
        0,
        0,
        0,
        0,
        0,
        0,
        0,
        0,
        0,
        0,
        0,
        0,
        0,
        0,
        0,
        0,
        0,
        0,
        0,
        0,
        0,
        0,
        0,
        0,
        0,
        0,
        0,
        0,
        0,
        0,
        0,
        0,
        0,
        0,
        0,
        0,
        0,
        0,
        0,
        0,
        0,
        0,
        0,
        0,
        0,
        0,
        0,
        0,
        0,
        0,
        0,
        0,
        0,
        0,
        0,
        0,
        0,
        0,
        0,
        0,
        0,
        0,
        0,
        0,
        0,
        0,
        0,
        0,
        0,
        0,
        0,
        0,
        0,
        0,
        0,
        0,
        0,
        0,
        0,
        0,
        0,
        0,
        0,
        0,
        0,
        0,
        0,
        0,
        0,
        0,
        0,
        0,
        0,
        0,
        0,
        0,
        0,
        475,
        476,
        477,
        478,
        0,
        0,
        0,
        0,
        0,
        0,
        0,
        0,
        0,
        0,
        0,
        0,
        0,
        0,
        0,
        0,
        0,
        0,
        0,
        0,
        479,
        480,
        481,
        482,
        0,
        0,
        0,
        0,
        0,
        0,
        0,
        0,
        0,
        0,
        0,
        0,
        0,
        0,
        0,
        0,
        0,
        0,
        0,
        0,
        483,
        484,
        485,
        486,
        0,
        0,
        0,
        0,
        0,
        0,
        0,
        0,
        0,
        0,
        0,
        0,
        0,
        0,
        0,
        0,
        0,
        0,
        0,
        0,
        0,
        0,
        0,
        0,
        0,
        0,
        0,
        0,
        0,
        0,
        0,
        0,
        0,
        0,
        0,
        0,
        0,
        0,
        0,
        0,
        0,
        0,
        0,
        0,
        0,
        0,
        0,
        0,
        0,
        0,
        0,
        0,
        0,
        0,
        0,
        0,
        0,
        0,
        0,
        0,
        0,
        0,
        0,
        0,
        0,
        0,
        0,
        0,
        0,
        0,
        0,
        0,
        0,
        0,
        0,
        0,
        0,
        0,
        0,
        0,
        0,
        0,
        0,
        0,
        0,
        0,
        0,
        0,
        0,
        0,
        0,
        0,
        0,
        0,
        0,
        0,
        0,
        0,
        0,
        0,
        0,
        0,
        0,
        0,
        0,
        0,
        0,
        0,
        0,
        0,
        0,
        0,
        0,
        0,
        0,
        0,
        0,
        0,
        0,
        0,
        0,
        0,
        0,
        0
      ]
    },
    {
      "id": 10,
      "name": "object-feet",
      "type": "tilelayer",
      "width": 24,
      "height": 18,
      "x": 0,
      "y": 0,
      "opacity": 1,
      "visible": true,
      "data": [
        0,
        0,
        0,
        0,
        0,
        0,
        0,
        0,
        0,
        0,
        0,
        0,
        0,
        0,
        0,
        0,
        0,
        0,
        0,
        0,
        0,
        0,
        0,
        0,
        0,
        0,
        0,
        0,
        0,
        0,
        0,
        0,
        0,
        0,
        0,
        0,
        0,
        0,
        0,
        0,
        0,
        0,
        0,
        0,
        0,
        0,
        0,
        0,
        0,
        0,
        0,
        0,
        0,
        0,
        0,
        0,
        0,
        0,
        0,
        0,
        0,
        0,
        0,
        0,
        0,
        0,
        0,
        0,
        0,
        0,
        0,
        0,
        0,
        0,
        0,
        0,
        0,
        0,
        0,
        0,
        0,
        0,
        0,
        0,
        0,
        0,
        0,
        0,
        0,
        0,
        0,
        0,
        0,
        0,
        0,
        0,
        0,
        0,
        0,
        0,
        528,
        528,
        528,
        0,
        0,
        0,
        0,
        0,
        0,
        0,
        0,
        0,
        0,
        528,
        528,
        528,
        0,
        0,
        0,
        0,
        0,
        0,
        0,
        0,
        0,
        0,
        0,
        0,
        0,
        0,
        0,
        0,
        0,
        0,
        0,
        0,
        0,
        0,
        0,
        0,
        0,
        0,
        0,
        0,
        0,
        0,
        0,
        0,
        0,
        0,
        0,
        0,
        0,
        0,
        0,
        0,
        0,
        0,
        0,
        0,
        0,
        0,
        0,
        0,
        0,
        0,
        0,
        0,
        0,
        0,
        0,
        0,
        0,
        0,
        0,
        0,
        0,
        0,
        0,
        0,
        0,
        0,
        0,
        0,
        0,
        0,
        0,
        0,
        0,
        0,
        0,
        0,
        0,
        0,
        0,
        0,
        0,
        0,
        0,
        0,
        0,
        0,
        0,
        0,
        0,
        0,
        0,
        0,
        0,
        0,
        0,
        0,
        0,
        0,
        0,
        0,
        507,
        508,
        509,
        510,
        511,
        0,
        0,
        0,
        0,
        0,
        0,
        0,
        0,
        0,
        0,
        0,
        0,
        0,
        0,
        507,
        508,
        509,
        510,
        511,
        512,
        513,
        514,
        515,
        516,
        0,
        0,
        0,
        0,
        0,
        0,
        0,
        0,
        0,
        0,
        0,
        0,
        0,
        0,
        512,
        513,
        514,
        515,
        516,
        0,
        0,
        0,
        0,
        0,
        0,
        0,
        0,
        0,
        0,
        0,
        0,
        0,
        0,
        0,
        0,
        0,
        0,
        0,
        0,
        0,
        0,
        0,
        0,
        0,
        0,
        0,
        0,
        0,
        0,
        0,
        0,
        0,
        0,
        0,
        0,
        0,
        0,
        0,
        0,
        0,
        0,
        0,
        0,
        0,
        0,
        0,
        0,
        0,
        0,
        0,
        0,
        0,
        0,
        0,
        0,
        0,
        0,
        0,
        0,
        0,
        0,
        0,
        0,
        0,
        0,
        0,
        0,
        0,
        0,
        0,
        0,
        0,
        0,
        0,
        0,
        0,
        0,
        0,
        0,
        0,
        0,
        0,
        0,
        0,
        0,
        0,
        0,
        0,
        0,
        0,
        0,
        0,
        0,
        0,
        0,
        0,
        0,
        0,
        0,
        0,
        0,
        0,
        0,
        0,
        0,
        0,
        0,
        0,
        0,
        0,
        0,
        0,
        0,
        0,
        0,
        0,
        0,
        0,
        0,
        0,
        0,
        0,
        0,
        0,
        0,
        0,
        0,
        521,
        522,
        0,
        0,
        0,
        0,
        521,
        522,
        0,
        0,
        0,
        0,
        0,
        0,
        0,
        0,
        0,
        0,
        0,
        0,
        0,
        0,
        0,
        0,
        0,
        0,
        0,
        0,
        0,
        0,
        0,
        0,
        0,
        0,
        0,
        0,
        0,
        0,
        0,
        0
      ]
    },
    {
      "id": 11,
      "name": "coffee-table-base",
      "type": "tilelayer",
      "width": 24,
      "height": 18,
      "x": 0,
      "y": 0,
      "opacity": 1,
      "visible": true,
      "data": [
        0,
        0,
        0,
        0,
        0,
        0,
        0,
        0,
        0,
        0,
        0,
        0,
        0,
        0,
        0,
        0,
        0,
        0,
        0,
        0,
        0,
        0,
        0,
        0,
        0,
        0,
        0,
        0,
        0,
        0,
        0,
        0,
        0,
        0,
        0,
        0,
        0,
        0,
        0,
        0,
        0,
        0,
        0,
        0,
        0,
        0,
        0,
        0,
        0,
        0,
        0,
        0,
        0,
        0,
        0,
        0,
        0,
        0,
        0,
        0,
        0,
        0,
        0,
        0,
        0,
        0,
        0,
        0,
        0,
        0,
        0,
        0,
        0,
        0,
        0,
        0,
        0,
        0,
        0,
        0,
        0,
        0,
        0,
        0,
        0,
        0,
        0,
        0,
        0,
        0,
        0,
        0,
        0,
        0,
        0,
        0,
        0,
        0,
        0,
        0,
        0,
        0,
        0,
        0,
        0,
        0,
        0,
        0,
        0,
        0,
        0,
        0,
        0,
        0,
        0,
        0,
        0,
        0,
        0,
        0,
        0,
        0,
        0,
        0,
        0,
        0,
        0,
        0,
        0,
        0,
        0,
        0,
        0,
        0,
        0,
        0,
        0,
        0,
        0,
        0,
        0,
        0,
        0,
        0,
        0,
        0,
        0,
        0,
        0,
        0,
        0,
        0,
        0,
        0,
        0,
        0,
        0,
        0,
        0,
        0,
        0,
        0,
        0,
        0,
        0,
        0,
        0,
        0,
        0,
        0,
        0,
        0,
        0,
        0,
        0,
        0,
        0,
        0,
        0,
        0,
        0,
        0,
        0,
        0,
        0,
        0,
        0,
        0,
        0,
        0,
        0,
        0,
        0,
        0,
        0,
        0,
        0,
        0,
        0,
        0,
        0,
        0,
        0,
        0,
        0,
        0,
        0,
        0,
        0,
        0,
        0,
        0,
        0,
        0,
        0,
        0,
        0,
        0,
        0,
        0,
        0,
        0,
        0,
        0,
        0,
        0,
        0,
        0,
        0,
        0,
        0,
        0,
        0,
        0,
        0,
        0,
        0,
        0,
        0,
        0,
        0,
        0,
        0,
        0,
        0,
        0,
        0,
        0,
        0,
        0,
        0,
        0,
        0,
        0,
        0,
        0,
        0,
        0,
        0,
        0,
        0,
        0,
        0,
        0,
        0,
        0,
        0,
        0,
        0,
        0,
        525,
        526,
        0,
        0,
        0,
        0,
        0,
        0,
        0,
        0,
        0,
        0,
        0,
        0,
        0,
        0,
        0,
        0,
        0,
        0,
        0,
        0,
        0,
        0,
        0,
        0,
        0,
        0,
        0,
        0,
        0,
        0,
        0,
        0,
        0,
        0,
        0,
        0,
        0,
        0,
        0,
        0,
        0,
        0,
        0,
        0,
        0,
        0,
        0,
        0,
        0,
        0,
        0,
        0,
        0,
        0,
        0,
        0,
        0,
        0,
        0,
        0,
        0,
        0,
        0,
        0,
        0,
        0,
        0,
        0,
        0,
        0,
        0,
        0,
        0,
        0,
        0,
        0,
        0,
        0,
        0,
        0,
        0,
        0,
        0,
        0,
        0,
        0,
        0,
        0,
        0,
        0,
        0,
        0,
        0,
        0,
        0,
        0,
        0,
        0,
        0,
        0,
        0,
        0,
        0,
        0,
        0,
        0,
        0,
        0,
        0,
        0,
        0,
        0,
        0,
        0,
        0,
        0,
        0,
        0,
        0,
        0,
        0,
        0,
        0,
        0,
        0,
        0,
        0,
        0,
        0,
        0,
        0,
        0,
        0,
        0,
        0,
        0,
        0,
        0,
        0,
        0,
        0,
        0,
        0,
        0,
        0,
        0,
        0,
        0,
        0,
        0,
        0,
        0,
        0,
        0,
        0,
        0,
        0,
        0,
        0,
        0
      ]
    },
    {
      "id": 12,
      "name": "alcove-post-feet",
      "type": "tilelayer",
      "width": 24,
      "height": 18,
      "x": 0,
      "y": 0,
      "opacity": 1,
      "visible": true,
      "data": [
        0,
        0,
        0,
        0,
        0,
        0,
        0,
        0,
        0,
        0,
        0,
        0,
        0,
        0,
        0,
        0,
        0,
        0,
        0,
        0,
        0,
        0,
        0,
        0,
        0,
        0,
        0,
        0,
        0,
        0,
        0,
        0,
        0,
        0,
        0,
        0,
        0,
        0,
        0,
        0,
        0,
        0,
        0,
        0,
        0,
        0,
        0,
        0,
        0,
        0,
        0,
        0,
        0,
        0,
        0,
        0,
        0,
        0,
        0,
        0,
        0,
        0,
        0,
        0,
        0,
        0,
        0,
        0,
        0,
        0,
        0,
        0,
        0,
        0,
        0,
        0,
        0,
        0,
        0,
        0,
        0,
        0,
        0,
        0,
        0,
        0,
        0,
        0,
        0,
        0,
        0,
        0,
        0,
        0,
        0,
        0,
        0,
        0,
        0,
        0,
        0,
        0,
        0,
        0,
        0,
        0,
        0,
        0,
        0,
        0,
        0,
        0,
        0,
        0,
        0,
        0,
        0,
        0,
        0,
        0,
        0,
        0,
        0,
        564,
        565,
        566,
        567,
        568,
        0,
        0,
        0,
        0,
        0,
        0,
        0,
        0,
        0,
        0,
        0,
        0,
        0,
        0,
        0,
        0,
        0,
        0,
        0,
        0,
        0,
        0,
        0,
        0,
        0,
        0,
        0,
        0,
        0,
        0,
        0,
        0,
        0,
        0,
        0,
        0,
        0,
        0,
        0,
        0,
        0,
        0,
        0,
        0,
        0,
        0,
        0,
        0,
        0,
        0,
        0,
        0,
        0,
        0,
        0,
        0,
        0,
        0,
        0,
        0,
        0,
        0,
        0,
        0,
        0,
        0,
        0,
        0,
        0,
        0,
        0,
        0,
        0,
        0,
        0,
        0,
        0,
        0,
        0,
        0,
        0,
        0,
        0,
        0,
        0,
        0,
        0,
        0,
        0,
        0,
        0,
        0,
        0,
        0,
        0,
        0,
        0,
        0,
        0,
        0,
        0,
        0,
        0,
        0,
        0,
        0,
        0,
        0,
        0,
        0,
        0,
        0,
        0,
        0,
        0,
        0,
        0,
        0,
        0,
        0,
        0,
        0,
        0,
        0,
        0,
        0,
        0,
        0,
        0,
        0,
        0,
        0,
        0,
        0,
        0,
        0,
        0,
        0,
        0,
        0,
        0,
        0,
        0,
        0,
        0,
        0,
        0,
        0,
        0,
        0,
        0,
        0,
        0,
        0,
        0,
        0,
        0,
        0,
        0,
        0,
        0,
        0,
        0,
        0,
        0,
        0,
        0,
        0,
        0,
        0,
        0,
        0,
        0,
        0,
        0,
        0,
        0,
        0,
        0,
        0,
        0,
        0,
        0,
        0,
        0,
        0,
        0,
        0,
        0,
        0,
        0,
        0,
        0,
        0,
        0,
        0,
        0,
        0,
        0,
        0,
        0,
        0,
        0,
        0,
        0,
        0,
        0,
        0,
        0,
        0,
        0,
        0,
        0,
        0,
        0,
        0,
        0,
        0,
        0,
        0,
        0,
        0,
        0,
        0,
        0,
        0,
        0,
        0,
        0,
        0,
        0,
        0,
        0,
        0,
        0,
        0,
        0,
        0,
        0,
        0,
        0,
        0,
        0,
        0,
        0,
        0,
        0,
        0,
        0,
        0,
        0,
        0,
        0,
        0,
        0,
        0,
        0,
        0,
        0,
        0,
        0,
        0,
        0,
        0,
        0,
        0,
        0,
        0,
        0,
        0,
        0,
        0,
        0,
        0,
        0,
        0,
        0,
        0,
        0,
        0,
        0,
        0,
        0,
        0,
        0,
        0,
        0,
        0,
        0,
        0,
        0,
        0,
        0,
        0,
        0,
        0,
        0,
        0,
        0,
        0,
        0,
        0,
        0,
        0
      ]
    },
    {
      "id": 13,
      "name": "floorLayer",
      "type": "objectgroup",
      "draworder": "topdown",
      "x": 0,
      "y": 0,
      "opacity": 1,
      "visible": true,
      "objects": [
        {
          "id": 1,
          "name": "butterfly-gathering",
          "class": "area",
          "type": "area",
          "x": 480,
          "y": 288,
          "width": 160,
          "height": 160,
          "rotation": 0,
          "visible": true,
          "properties": []
        },
        {
          "id": 2,
          "name": "courtyard-tip-popup",
          "type": "",
          "x": 416,
          "y": 160,
          "width": 288,
          "height": 80,
          "rotation": 0,
          "visible": true,
          "properties": []
        },
        {
          "id": 3,
          "name": "covered-alcove",
          "class": "area",
          "type": "area",
          "x": 128,
          "y": 144,
          "width": 96,
          "height": 80,
          "rotation": 0,
          "visible": true,
          "properties": []
        }
      ]
    },
    {
      "id": 14,
      "name": "object-canopies",
      "type": "tilelayer",
      "width": 24,
      "height": 18,
      "x": 0,
      "y": 0,
      "opacity": 1,
      "visible": true,
      "data": [
        0,
        0,
        0,
        0,
        0,
        0,
        0,
        0,
        0,
        0,
        0,
        0,
        0,
        0,
        0,
        0,
        0,
        0,
        0,
        0,
        0,
        0,
        0,
        0,
        0,
        0,
        0,
        0,
        0,
        0,
        0,
        0,
        0,
        0,
        0,
        0,
        0,
        0,
        0,
        0,
        0,
        0,
        0,
        0,
        0,
        0,
        0,
        0,
        0,
        0,
        0,
        0,
        0,
        0,
        0,
        0,
        0,
        0,
        0,
        0,
        0,
        0,
        0,
        0,
        0,
        0,
        0,
        0,
        0,
        0,
        0,
        0,
        0,
        0,
        0,
        0,
        527,
        527,
        527,
        0,
        0,
        0,
        0,
        0,
        0,
        0,
        0,
        0,
        0,
        527,
        527,
        527,
        0,
        0,
        0,
        0,
        0,
        0,
        0,
        0,
        0,
        0,
        0,
        0,
        0,
        0,
        0,
        0,
        0,
        0,
        0,
        0,
        0,
        0,
        0,
        0,
        0,
        0,
        0,
        0,
        487,
        488,
        489,
        490,
        491,
        0,
        0,
        0,
        0,
        0,
        0,
        0,
        0,
        0,
        0,
        0,
        0,
        0,
        0,
        487,
        488,
        489,
        490,
        491,
        492,
        493,
        494,
        495,
        496,
        0,
        0,
        0,
        0,
        0,
        0,
        0,
        0,
        0,
        0,
        0,
        0,
        0,
        0,
        492,
        493,
        494,
        495,
        496,
        497,
        498,
        499,
        500,
        501,
        0,
        0,
        0,
        0,
        0,
        0,
        0,
        0,
        0,
        0,
        0,
        0,
        0,
        0,
        497,
        498,
        499,
        500,
        501,
        502,
        503,
        504,
        505,
        506,
        0,
        0,
        0,
        0,
        0,
        0,
        0,
        0,
        0,
        0,
        0,
        0,
        0,
        0,
        502,
        503,
        504,
        505,
        506,
        0,
        0,
        0,
        0,
        0,
        0,
        0,
        0,
        0,
        0,
        0,
        0,
        0,
        0,
        0,
        0,
        0,
        0,
        0,
        0,
        0,
        0,
        0,
        0,
        0,
        0,
        0,
        0,
        0,
        0,
        0,
        0,
        0,
        0,
        0,
        0,
        0,
        0,
        0,
        0,
        0,
        0,
        0,
        0,
        0,
        0,
        0,
        0,
        0,
        0,
        0,
        0,
        0,
        0,
        0,
        0,
        0,
        0,
        0,
        0,
        0,
        0,
        0,
        0,
        0,
        0,
        0,
        0,
        0,
        0,
        0,
        0,
        0,
        0,
        0,
        0,
        0,
        0,
        0,
        0,
        0,
        0,
        0,
        0,
        0,
        0,
        0,
        0,
        0,
        0,
        0,
        0,
        0,
        0,
        0,
        0,
        0,
        0,
        0,
        0,
        0,
        0,
        0,
        0,
        0,
        0,
        0,
        0,
        0,
        0,
        0,
        0,
        0,
        0,
        0,
        0,
        0,
        0,
        0,
        0,
        0,
        0,
        0,
        0,
        0,
        0,
        0,
        0,
        517,
        518,
        0,
        0,
        0,
        0,
        517,
        518,
        0,
        0,
        0,
        0,
        0,
        0,
        0,
        0,
        0,
        0,
        0,
        0,
        0,
        0,
        0,
        0,
        519,
        520,
        0,
        0,
        0,
        0,
        519,
        520,
        0,
        0,
        0,
        0,
        0,
        0,
        0,
        0,
        0,
        0,
        0,
        0,
        0,
        0,
        0,
        0,
        0,
        0,
        0,
        0,
        0,
        0,
        0,
        0,
        0,
        0,
        0,
        0,
        0,
        0,
        0,
        0,
        0,
        0,
        0,
        0,
        0,
        0,
        0,
        0,
        0,
        0,
        0,
        0,
        0,
        0,
        0,
        0,
        0,
        0,
        0,
        0,
        0,
        0,
        0,
        0
      ]
    },
    {
      "id": 15,
      "name": "coffee-table-top",
      "type": "tilelayer",
      "width": 24,
      "height": 18,
      "x": 0,
      "y": 0,
      "opacity": 1,
      "visible": true,
      "data": [
        0,
        0,
        0,
        0,
        0,
        0,
        0,
        0,
        0,
        0,
        0,
        0,
        0,
        0,
        0,
        0,
        0,
        0,
        0,
        0,
        0,
        0,
        0,
        0,
        0,
        0,
        0,
        0,
        0,
        0,
        0,
        0,
        0,
        0,
        0,
        0,
        0,
        0,
        0,
        0,
        0,
        0,
        0,
        0,
        0,
        0,
        0,
        0,
        0,
        0,
        0,
        0,
        0,
        0,
        0,
        0,
        0,
        0,
        0,
        0,
        0,
        0,
        0,
        0,
        0,
        0,
        0,
        0,
        0,
        0,
        0,
        0,
        0,
        0,
        0,
        0,
        0,
        0,
        0,
        0,
        0,
        0,
        0,
        0,
        0,
        0,
        0,
        0,
        0,
        0,
        0,
        0,
        0,
        0,
        0,
        0,
        0,
        0,
        0,
        0,
        0,
        0,
        0,
        0,
        0,
        0,
        0,
        0,
        0,
        0,
        0,
        0,
        0,
        0,
        0,
        0,
        0,
        0,
        0,
        0,
        0,
        0,
        0,
        0,
        0,
        0,
        0,
        0,
        0,
        0,
        0,
        0,
        0,
        0,
        0,
        0,
        0,
        0,
        0,
        0,
        0,
        0,
        0,
        0,
        0,
        0,
        0,
        0,
        0,
        0,
        0,
        0,
        0,
        0,
        0,
        0,
        0,
        0,
        0,
        0,
        0,
        0,
        0,
        0,
        0,
        0,
        0,
        0,
        0,
        0,
        0,
        0,
        0,
        0,
        0,
        0,
        0,
        0,
        0,
        0,
        0,
        0,
        0,
        0,
        0,
        0,
        0,
        0,
        0,
        0,
        0,
        0,
        0,
        0,
        0,
        0,
        0,
        0,
        0,
        0,
        0,
        0,
        0,
        0,
        0,
        0,
        0,
        0,
        0,
        0,
        0,
        0,
        0,
        0,
        0,
        0,
        0,
        0,
        0,
        0,
        0,
        0,
        0,
        0,
        0,
        0,
        0,
        0,
        0,
        0,
        0,
        0,
        0,
        0,
        0,
        0,
        0,
        0,
        0,
        0,
        0,
        0,
        0,
        0,
        0,
        0,
        523,
        524,
        0,
        0,
        0,
        0,
        0,
        0,
        0,
        0,
        0,
        0,
        0,
        0,
        0,
        0,
        0,
        0,
        0,
        0,
        0,
        0,
        0,
        0,
        0,
        0,
        0,
        0,
        0,
        0,
        0,
        0,
        0,
        0,
        0,
        0,
        0,
        0,
        0,
        0,
        0,
        0,
        0,
        0,
        0,
        0,
        0,
        0,
        0,
        0,
        0,
        0,
        0,
        0,
        0,
        0,
        0,
        0,
        0,
        0,
        0,
        0,
        0,
        0,
        0,
        0,
        0,
        0,
        0,
        0,
        0,
        0,
        0,
        0,
        0,
        0,
        0,
        0,
        0,
        0,
        0,
        0,
        0,
        0,
        0,
        0,
        0,
        0,
        0,
        0,
        0,
        0,
        0,
        0,
        0,
        0,
        0,
        0,
        0,
        0,
        0,
        0,
        0,
        0,
        0,
        0,
        0,
        0,
        0,
        0,
        0,
        0,
        0,
        0,
        0,
        0,
        0,
        0,
        0,
        0,
        0,
        0,
        0,
        0,
        0,
        0,
        0,
        0,
        0,
        0,
        0,
        0,
        0,
        0,
        0,
        0,
        0,
        0,
        0,
        0,
        0,
        0,
        0,
        0,
        0,
        0,
        0,
        0,
        0,
        0,
        0,
        0,
        0,
        0,
        0,
        0,
        0,
        0,
        0,
        0,
        0,
        0,
        0,
        0,
        0,
        0,
        0,
        0,
        0,
        0,
        0,
        0,
        0,
        0,
        0,
        0,
        0,
        0,
        0,
        0,
        0,
        0,
        0,
        0,
        0,
        0
      ]
    },
    {
      "id": 16,
      "name": "alcove-posts",
      "type": "tilelayer",
      "width": 24,
      "height": 18,
      "x": 0,
      "y": 0,
      "opacity": 1,
      "visible": true,
      "data": [
        0,
        0,
        0,
        0,
        0,
        0,
        0,
        0,
        0,
        0,
        0,
        0,
        0,
        0,
        0,
        0,
        0,
        0,
        0,
        0,
        0,
        0,
        0,
        0,
        0,
        0,
        0,
        0,
        0,
        0,
        0,
        0,
        0,
        0,
        0,
        0,
        0,
        0,
        0,
        0,
        0,
        0,
        0,
        0,
        0,
        0,
        0,
        0,
        0,
        0,
        0,
        549,
        550,
        551,
        552,
        553,
        0,
        0,
        0,
        0,
        0,
        0,
        0,
        0,
        0,
        0,
        0,
        0,
        0,
        0,
        0,
        0,
        0,
        0,
        0,
        554,
        555,
        556,
        557,
        558,
        0,
        0,
        0,
        0,
        0,
        0,
        0,
        0,
        0,
        0,
        0,
        0,
        0,
        0,
        0,
        0,
        0,
        0,
        0,
        559,
        560,
        561,
        562,
        563,
        0,
        0,
        0,
        0,
        0,
        0,
        0,
        0,
        0,
        0,
        0,
        0,
        0,
        0,
        0,
        0,
        0,
        0,
        0,
        0,
        0,
        0,
        0,
        0,
        0,
        0,
        0,
        0,
        0,
        0,
        0,
        0,
        0,
        0,
        0,
        0,
        0,
        0,
        0,
        0,
        0,
        0,
        0,
        0,
        0,
        0,
        0,
        0,
        0,
        0,
        0,
        0,
        0,
        0,
        0,
        0,
        0,
        0,
        0,
        0,
        0,
        0,
        0,
        0,
        0,
        0,
        0,
        0,
        0,
        0,
        0,
        0,
        0,
        0,
        0,
        0,
        0,
        0,
        0,
        0,
        0,
        0,
        0,
        0,
        0,
        0,
        0,
        0,
        0,
        0,
        0,
        0,
        0,
        0,
        0,
        0,
        0,
        0,
        0,
        0,
        0,
        0,
        0,
        0,
        0,
        0,
        0,
        0,
        0,
        0,
        0,
        0,
        0,
        0,
        0,
        0,
        0,
        0,
        0,
        0,
        0,
        0,
        0,
        0,
        0,
        0,
        0,
        0,
        0,
        0,
        0,
        0,
        0,
        0,
        0,
        0,
        0,
        0,
        0,
        0,
        0,
        0,
        0,
        0,
        0,
        0,
        0,
        0,
        0,
        0,
        0,
        0,
        0,
        0,
        0,
        0,
        0,
        0,
        0,
        0,
        0,
        0,
        0,
        0,
        0,
        0,
        0,
        0,
        0,
        0,
        0,
        0,
        0,
        0,
        0,
        0,
        0,
        0,
        0,
        0,
        0,
        0,
        0,
        0,
        0,
        0,
        0,
        0,
        0,
        0,
        0,
        0,
        0,
        0,
        0,
        0,
        0,
        0,
        0,
        0,
        0,
        0,
        0,
        0,
        0,
        0,
        0,
        0,
        0,
        0,
        0,
        0,
        0,
        0,
        0,
        0,
        0,
        0,
        0,
        0,
        0,
        0,
        0,
        0,
        0,
        0,
        0,
        0,
        0,
        0,
        0,
        0,
        0,
        0,
        0,
        0,
        0,
        0,
        0,
        0,
        0,
        0,
        0,
        0,
        0,
        0,
        0,
        0,
        0,
        0,
        0,
        0,
        0,
        0,
        0,
        0,
        0,
        0,
        0,
        0,
        0,
        0,
        0,
        0,
        0,
        0,
        0,
        0,
        0,
        0,
        0,
        0,
        0,
        0,
        0,
        0,
        0,
        0,
        0,
        0,
        0,
        0,
        0,
        0,
        0,
        0,
        0,
        0,
        0,
        0,
        0,
        0,
        0,
        0,
        0,
        0,
        0,
        0,
        0,
        0,
        0,
        0,
        0,
        0,
        0,
        0,
        0,
        0,
        0,
        0,
        0,
        0,
        0,
        0,
        0,
        0,
        0,
        0,
        0,
        0,
        0,
        0,
        0,
        0,
        0,
        0,
        0,
        0
      ]
    },
    {
      "id": 17,
      "name": "alcove-roof",
      "type": "tilelayer",
      "width": 24,
      "height": 18,
      "x": 0,
      "y": 0,
      "opacity": 1,
      "visible": true,
      "data": [
        0,
        0,
        0,
        0,
        0,
        0,
        0,
        0,
        0,
        0,
        0,
        0,
        0,
        0,
        0,
        0,
        0,
        0,
        0,
        0,
        0,
        0,
        0,
        0,
        0,
        0,
        0,
        0,
        0,
        0,
        0,
        0,
        0,
        0,
        0,
        0,
        0,
        0,
        0,
        0,
        0,
        0,
        0,
        0,
        0,
        0,
        0,
        0,
        0,
        0,
        0,
        529,
        530,
        531,
        532,
        533,
        0,
        0,
        0,
        0,
        0,
        0,
        0,
        0,
        0,
        0,
        0,
        0,
        0,
        0,
        0,
        0,
        0,
        0,
        0,
        534,
        535,
        536,
        537,
        538,
        0,
        0,
        0,
        0,
        0,
        0,
        0,
        0,
        0,
        0,
        0,
        0,
        0,
        0,
        0,
        0,
        0,
        0,
        0,
        539,
        540,
        541,
        542,
        543,
        0,
        0,
        0,
        0,
        0,
        0,
        0,
        0,
        0,
        0,
        0,
        0,
        0,
        0,
        0,
        0,
        0,
        0,
        0,
        544,
        545,
        546,
        547,
        548,
        0,
        0,
        0,
        0,
        0,
        0,
        0,
        0,
        0,
        0,
        0,
        0,
        0,
        0,
        0,
        0,
        0,
        0,
        0,
        0,
        0,
        0,
        0,
        0,
        0,
        0,
        0,
        0,
        0,
        0,
        0,
        0,
        0,
        0,
        0,
        0,
        0,
        0,
        0,
        0,
        0,
        0,
        0,
        0,
        0,
        0,
        0,
        0,
        0,
        0,
        0,
        0,
        0,
        0,
        0,
        0,
        0,
        0,
        0,
        0,
        0,
        0,
        0,
        0,
        0,
        0,
        0,
        0,
        0,
        0,
        0,
        0,
        0,
        0,
        0,
        0,
        0,
        0,
        0,
        0,
        0,
        0,
        0,
        0,
        0,
        0,
        0,
        0,
        0,
        0,
        0,
        0,
        0,
        0,
        0,
        0,
        0,
        0,
        0,
        0,
        0,
        0,
        0,
        0,
        0,
        0,
        0,
        0,
        0,
        0,
        0,
        0,
        0,
        0,
        0,
        0,
        0,
        0,
        0,
        0,
        0,
        0,
        0,
        0,
        0,
        0,
        0,
        0,
        0,
        0,
        0,
        0,
        0,
        0,
        0,
        0,
        0,
        0,
        0,
        0,
        0,
        0,
        0,
        0,
        0,
        0,
        0,
        0,
        0,
        0,
        0,
        0,
        0,
        0,
        0,
        0,
        0,
        0,
        0,
        0,
        0,
        0,
        0,
        0,
        0,
        0,
        0,
        0,
        0,
        0,
        0,
        0,
        0,
        0,
        0,
        0,
        0,
        0,
        0,
        0,
        0,
        0,
        0,
        0,
        0,
        0,
        0,
        0,
        0,
        0,
        0,
        0,
        0,
        0,
        0,
        0,
        0,
        0,
        0,
        0,
        0,
        0,
        0,
        0,
        0,
        0,
        0,
        0,
        0,
        0,
        0,
        0,
        0,
        0,
        0,
        0,
        0,
        0,
        0,
        0,
        0,
        0,
        0,
        0,
        0,
        0,
        0,
        0,
        0,
        0,
        0,
        0,
        0,
        0,
        0,
        0,
        0,
        0,
        0,
        0,
        0,
        0,
        0,
        0,
        0,
        0,
        0,
        0,
        0,
        0,
        0,
        0,
        0,
        0,
        0,
        0,
        0,
        0,
        0,
        0,
        0,
        0,
        0,
        0,
        0,
        0,
        0,
        0,
        0,
        0,
        0,
        0,
        0,
        0,
        0,
        0,
        0,
        0,
        0,
        0,
        0,
        0,
        0,
        0,
        0,
        0,
        0,
        0,
        0,
        0,
        0,
        0,
        0,
        0,
        0,
        0,
        0,
        0,
        0,
        0,
        0,
        0,
        0,
        0
      ]
    },
    {
      "id": 18,
      "name": "entrance-arch",
      "type": "tilelayer",
      "width": 24,
      "height": 18,
      "x": 0,
      "y": 0,
      "opacity": 1,
      "visible": true,
      "data": [
        0,
        0,
        0,
        0,
        0,
        0,
        0,
        0,
        0,
        0,
        0,
        0,
        0,
        0,
        0,
        0,
        0,
        0,
        0,
        0,
        0,
        0,
        0,
        0,
        0,
        0,
        0,
        0,
        0,
        0,
        0,
        0,
        0,
        0,
        0,
        0,
        0,
        0,
        0,
        0,
        0,
        0,
        0,
        0,
        0,
        0,
        0,
        0,
        0,
        0,
        0,
        0,
        0,
        0,
        0,
        0,
        0,
        0,
        0,
        0,
        0,
        0,
        0,
        0,
        0,
        0,
        0,
        0,
        0,
        0,
        0,
        0,
        0,
        0,
        0,
        0,
        0,
        0,
        0,
        0,
        0,
        0,
        0,
        0,
        0,
        0,
        0,
        0,
        0,
        0,
        0,
        0,
        0,
        0,
        0,
        0,
        0,
        0,
        0,
        0,
        0,
        0,
        0,
        0,
        0,
        0,
        0,
        0,
        0,
        0,
        0,
        0,
        0,
        0,
        0,
        0,
        0,
        0,
        0,
        0,
        0,
        0,
        0,
        0,
        0,
        0,
        0,
        0,
        0,
        0,
        0,
        0,
        0,
        0,
        0,
        0,
        0,
        0,
        0,
        0,
        0,
        0,
        0,
        0,
        0,
        0,
        0,
        0,
        0,
        0,
        0,
        0,
        0,
        0,
        0,
        0,
        0,
        0,
        0,
        0,
        0,
        0,
        0,
        0,
        0,
        0,
        0,
        0,
        0,
        0,
        0,
        0,
        0,
        0,
        0,
        0,
        0,
        0,
        0,
        0,
        0,
        0,
        0,
        0,
        0,
        0,
        0,
        0,
        0,
        0,
        0,
        0,
        0,
        0,
        0,
        0,
        0,
        0,
        0,
        0,
        0,
        0,
        0,
        0,
        0,
        0,
        0,
        0,
        0,
        0,
        0,
        0,
        0,
        0,
        0,
        0,
        0,
        0,
        0,
        0,
        0,
        0,
        0,
        0,
        0,
        0,
        0,
        0,
        0,
        0,
        0,
        0,
        0,
        0,
        0,
        0,
        0,
        0,
        0,
        0,
        0,
        0,
        0,
        0,
        0,
        0,
        0,
        0,
        0,
        0,
        0,
        0,
        0,
        0,
        0,
        0,
        0,
        0,
        0,
        0,
        0,
        0,
        0,
        0,
        0,
        0,
        0,
        0,
        0,
        0,
        0,
        0,
        0,
        0,
        0,
        0,
        0,
        0,
        0,
        0,
        0,
        0,
        0,
        0,
        0,
        0,
        0,
        0,
        0,
        0,
        0,
        0,
        0,
        0,
        0,
        0,
        0,
        0,
        0,
        0,
        0,
        0,
        0,
        0,
        0,
        0,
        0,
        0,
        0,
        0,
        0,
        0,
        0,
        0,
        0,
        0,
        0,
        0,
        0,
        0,
        435,
        436,
        437,
        438,
        439,
        440,
        441,
        442,
        0,
        0,
        0,
        0,
        0,
        0,
        0,
        0,
        0,
        0,
        0,
        0,
        0,
        0,
        0,
        0,
        443,
        444,
        445,
        446,
        447,
        448,
        449,
        450,
        0,
        0,
        0,
        0,
        0,
        0,
        0,
        0,
        0,
        0,
        0,
        0,
        0,
        0,
        0,
        0,
        451,
        452,
        453,
        454,
        455,
        456,
        457,
        458,
        0,
        0,
        0,
        0,
        0,
        0,
        0,
        0,
        0,
        0,
        0,
        0,
        0,
        0,
        0,
        0,
        0,
        0,
        0,
        0,
        0,
        0,
        0,
        0,
        0,
        0,
        0,
        0,
        0,
        0,
        0,
        0,
        0,
        0,
        0,
        0,
        0,
        0,
        0,
        0,
        0,
        0,
        0,
        0,
        0,
        0,
        0,
        0,
        0,
        0,
        0,
        0,
        0,
        0,
        0,
        0
      ]
    },
    {
      "id": 19,
      "name": "gathering-butterflies",
      "type": "tilelayer",
      "width": 24,
      "height": 18,
      "x": 0,
      "y": 0,
      "opacity": 1,
      "visible": false,
      "data": [
        0,
        0,
        0,
        0,
        0,
        0,
        0,
        0,
        0,
        0,
        0,
        0,
        0,
        0,
        0,
        0,
        0,
        0,
        0,
        0,
        0,
        0,
        0,
        0,
        0,
        0,
        0,
        0,
        0,
        0,
        0,
        0,
        0,
        0,
        0,
        0,
        0,
        0,
        0,
        0,
        0,
        0,
        0,
        0,
        0,
        0,
        0,
        0,
        0,
        0,
        0,
        0,
        0,
        0,
        0,
        0,
        0,
        0,
        0,
        0,
        0,
        0,
        0,
        0,
        0,
        0,
        0,
        0,
        0,
        0,
        0,
        0,
        0,
        0,
        0,
        0,
        0,
        0,
        0,
        0,
        0,
        0,
        0,
        0,
        0,
        0,
        0,
        0,
        0,
        0,
        0,
        0,
        0,
        0,
        0,
        0,
        0,
        0,
        0,
        0,
        0,
        0,
        0,
        0,
        0,
        0,
        0,
        0,
        0,
        0,
        0,
        0,
        0,
        0,
        0,
        0,
        0,
        0,
        0,
        0,
        0,
        0,
        0,
        0,
        0,
        0,
        0,
        0,
        0,
        0,
        0,
        0,
        0,
        0,
        0,
        0,
        0,
        0,
        0,
        0,
        0,
        0,
        0,
        0,
        0,
        0,
        0,
        0,
        0,
        0,
        0,
        0,
        0,
        0,
        0,
        459,
        460,
        0,
        0,
        0,
        0,
        0,
        0,
        0,
        0,
        0,
        0,
        0,
        0,
        0,
        0,
        0,
        0,
        0,
        0,
        0,
        0,
        0,
        0,
        467,
        468,
        0,
        0,
        0,
        0,
        0,
        0,
        0,
        0,
        0,
        0,
        0,
        0,
        0,
        0,
        0,
        0,
        0,
        0,
        0,
        0,
        0,
        0,
        0,
        0,
        0,
        0,
        0,
        0,
        0,
        0,
        0,
        0,
        0,
        0,
        0,
        0,
        0,
        0,
        0,
        0,
        0,
        0,
        0,
        0,
        0,
        0,
        0,
        0,
        0,
        0,
        0,
        0,
        0,
        0,
        0,
        0,
        0,
        0,
        0,
        0,
        0,
        0,
        0,
        0,
        0,
        0,
        0,
        0,
        0,
        0,
        0,
        0,
        0,
        0,
        0,
        0,
        459,
        460,
        0,
        0,
        0,
        0,
        0,
        0,
        0,
        0,
        0,
        0,
        0,
        0,
        0,
        0,
        0,
        0,
        0,
        0,
        0,
        0,
        0,
        0,
        467,
        468,
        0,
        0,
        0,
        0,
        0,
        0,
        0,
        0,
        0,
        0,
        0,
        0,
        0,
        0,
        0,
        0,
        0,
        0,
        0,
        0,
        0,
        0,
        0,
        0,
        0,
        0,
        0,
        0,
        0,
        0,
        0,
        0,
        0,
        0,
        0,
        0,
        0,
        0,
        0,
        0,
        0,
        0,
        0,
        0,
        0,
        0,
        0,
        0,
        0,
        0,
        0,
        0,
        0,
        0,
        0,
        0,
        0,
        0,
        0,
        0,
        0,
        0,
        0,
        0,
        0,
        0,
        0,
        0,
        0,
        0,
        0,
        0,
        0,
        0,
        0,
        0,
        0,
        0,
        0,
        0,
        0,
        0,
        0,
        0,
        0,
        0,
        0,
        0,
        0,
        0,
        0,
        0,
        0,
        0,
        0,
        0,
        0,
        0,
        0,
        0,
        0,
        0,
        0,
        0,
        0,
        0,
        0,
        0,
        0,
        0,
        0,
        0,
        0,
        0,
        0,
        0,
        0,
        0,
        0,
        0,
        0,
        0,
        0,
        0,
        0,
        0,
        0,
        0,
        0,
        0,
        0,
        0,
        0,
        0,
        0,
        0,
        0,
        0,
        0,
        0,
        0,
        0,
        0,
        0,
        0,
        0,
        0,
        0,
        0
      ]
    }
  ],
  "tilesets": [
    {
      "name": "proof-markers",
      "image": "tilesets/markers.png",
      "imagewidth": 64,
      "imageheight": 32,
      "tilewidth": 32,
      "tileheight": 32,
      "columns": 2,
      "tilecount": 2,
      "margin": 0,
      "spacing": 0,
      "firstgid": 1,
      "tiles": [
        {
          "id": 0,
          "properties": [
            {
              "name": "collides",
              "type": "bool",
              "value": true
            }
          ]
        }
      ],
      "properties": [
        {
          "name": "tilesetCopyright",
          "type": "string",
          "value": "Original AI-assisted artwork created for this proof; see LICENSE.assets.txt"
        }
      ]
    },
    {
      "name": "courtyard-scene",
      "image": "tilesets/courtyard.png",
      "imagewidth": 768,
      "imageheight": 576,
      "tilewidth": 32,
      "tileheight": 32,
      "columns": 24,
      "tilecount": 432,
      "margin": 0,
      "spacing": 0,
      "firstgid": 3,
      "tiles": [],
      "properties": [
        {
          "name": "tilesetCopyright",
          "type": "string",
          "value": "Original AI-assisted artwork created for this proof; see LICENSE.assets.txt"
        }
      ]
    },
    {
      "name": "overhead-arch",
      "image": "tilesets/arch.png",
      "imagewidth": 256,
      "imageheight": 96,
      "tilewidth": 32,
      "tileheight": 32,
      "columns": 8,
      "tilecount": 24,
      "margin": 0,
      "spacing": 0,
      "firstgid": 435,
      "tiles": [],
      "properties": [
        {
          "name": "tilesetCopyright",
          "type": "string",
          "value": "Original AI-assisted artwork created for this proof; see LICENSE.assets.txt"
        }
      ]
    },
    {
      "name": "butterfly-animation",
      "image": "tilesets/butterflies.png",
      "imagewidth": 256,
      "imageheight": 64,
      "tilewidth": 32,
      "tileheight": 32,
      "columns": 8,
      "tilecount": 16,
      "margin": 0,
      "spacing": 0,
      "firstgid": 459,
      "tiles": [
        {
          "id": 0,
          "animation": [
            {
              "tileid": 0,
              "duration": 180
            },
            {
              "tileid": 2,
              "duration": 180
            },
            {
              "tileid": 4,
              "duration": 180
            },
            {
              "tileid": 6,
              "duration": 180
            }
          ]
        },
        {
          "id": 1,
          "animation": [
            {
              "tileid": 1,
              "duration": 180
            },
            {
              "tileid": 3,
              "duration": 180
            },
            {
              "tileid": 5,
              "duration": 180
            },
            {
              "tileid": 7,
              "duration": 180
            }
          ]
        },
        {
          "id": 8,
          "animation": [
            {
              "tileid": 8,
              "duration": 180
            },
            {
              "tileid": 10,
              "duration": 180
            },
            {
              "tileid": 12,
              "duration": 180
            },
            {
              "tileid": 14,
              "duration": 180
            }
          ]
        },
        {
          "id": 9,
          "animation": [
            {
              "tileid": 9,
              "duration": 180
            },
            {
              "tileid": 11,
              "duration": 180
            },
            {
              "tileid": 13,
              "duration": 180
            },
            {
              "tileid": 15,
              "duration": 180
            }
          ]
        }
      ],
      "properties": [
        {
          "name": "tilesetCopyright",
          "type": "string",
          "value": "Original AI-assisted artwork created for this proof; see LICENSE.assets.txt"
        }
      ]
    },
    {
      "name": "gathering-light",
      "image": "tilesets/gathering-glow.png",
      "imagewidth": 128,
      "imageheight": 96,
      "tilewidth": 32,
      "tileheight": 32,
      "columns": 4,
      "tilecount": 12,
      "margin": 0,
      "spacing": 0,
      "firstgid": 475,
      "tiles": [],
      "properties": [
        {
          "name": "tilesetCopyright",
          "type": "string",
          "value": "Original AI-assisted artwork created for this proof; see LICENSE.assets.txt"
        }
      ]
    },
    {
      "name": "olive-large",
      "image": "images/olive-large.png",
      "imagewidth": 160,
      "imageheight": 192,
      "tilewidth": 32,
      "tileheight": 32,
      "columns": 5,
      "tilecount": 30,
      "margin": 0,
      "spacing": 0,
      "firstgid": 487,
      "tiles": [],
      "properties": [
        {
          "name": "tilesetCopyright",
          "type": "string",
          "value": "Original AI-assisted artwork and procedural effects; see LICENSE.assets.txt"
        }
      ]
    },
    {
      "name": "olive-small",
      "image": "images/olive-small.png",
      "imagewidth": 64,
      "imageheight": 96,
      "tilewidth": 32,
      "tileheight": 32,
      "columns": 2,
      "tilecount": 6,
      "margin": 0,
      "spacing": 0,
      "firstgid": 517,
      "tiles": [],
      "properties": [
        {
          "name": "tilesetCopyright",
          "type": "string",
          "value": "Original AI-assisted artwork and procedural effects; see LICENSE.assets.txt"
        }
      ]
    },
    {
      "name": "low-coffee-table",
      "image": "images/coffee-table.png",
      "imagewidth": 64,
      "imageheight": 64,
      "tilewidth": 32,
      "tileheight": 32,
      "columns": 2,
      "tilecount": 4,
      "margin": 0,
      "spacing": 0,
      "firstgid": 523,
      "tiles": [],
      "properties": [
        {
          "name": "tilesetCopyright",
          "type": "string",
          "value": "Original AI-assisted artwork and procedural effects; see LICENSE.assets.txt"
        }
      ]
    },
    {
      "name": "alcove-chair",
      "image": "images/alcove-chair.png",
      "imagewidth": 32,
      "imageheight": 64,
      "tilewidth": 32,
      "tileheight": 32,
      "columns": 1,
      "tilecount": 2,
      "margin": 0,
      "spacing": 0,
      "firstgid": 527,
      "tiles": [],
      "properties": [
        {
          "name": "tilesetCopyright",
          "type": "string",
          "value": "Original AI-assisted artwork and procedural effects; see LICENSE.assets.txt"
        }
      ]
    },
    {
      "name": "alcove-canopy",
      "image": "tilesets/alcove-canopy.png",
      "imagewidth": 160,
      "imageheight": 128,
      "tilewidth": 32,
      "tileheight": 32,
      "columns": 5,
      "tilecount": 20,
      "margin": 0,
      "spacing": 0,
      "firstgid": 529,
      "tiles": [],
      "properties": [
        {
          "name": "tilesetCopyright",
          "type": "string",
          "value": "Original AI-assisted artwork and procedural effects; see LICENSE.assets.txt"
        }
      ]
    },
    {
      "name": "alcove-posts",
      "image": "tilesets/alcove-posts.png",
      "imagewidth": 160,
      "imageheight": 128,
      "tilewidth": 32,
      "tileheight": 32,
      "columns": 5,
      "tilecount": 20,
      "margin": 0,
      "spacing": 0,
      "firstgid": 549,
      "tiles": [],
      "properties": [
        {
          "name": "tilesetCopyright",
          "type": "string",
          "value": "Original AI-assisted artwork and procedural effects; see LICENSE.assets.txt"
        }
      ]
    },
    {
      "name": "lantern-cycle",
      "image": "tilesets/lantern-light-cycle.png",
      "imagewidth": 512,
      "imageheight": 1760,
      "tilewidth": 32,
      "tileheight": 32,
      "columns": 16,
      "tilecount": 880,
      "margin": 0,
      "spacing": 0,
      "firstgid": 569,
      "tiles": [
        {
          "id": 0,
          "animation": [
            {
              "tileid": 0,
              "duration": 260
            },
            {
              "tileid": 1,
              "duration": 260
            },
            {
              "tileid": 2,
              "duration": 260
            },
            {
              "tileid": 3,
              "duration": 260
            },
            {
              "tileid": 4,
              "duration": 260
            },
            {
              "tileid": 5,
              "duration": 260
            },
            {
              "tileid": 6,
              "duration": 260
            },
            {
              "tileid": 7,
              "duration": 260
            }
          ]
        },
        {
          "id": 8,
          "animation": [
            {
              "tileid": 8,
              "duration": 260
            },
            {
              "tileid": 9,
              "duration": 260
            },
            {
              "tileid": 10,
              "duration": 260
            },
            {
              "tileid": 11,
              "duration": 260
            },
            {
              "tileid": 12,
              "duration": 260
            },
            {
              "tileid": 13,
              "duration": 260
            },
            {
              "tileid": 14,
              "duration": 260
            },
            {
              "tileid": 15,
              "duration": 260
            }
          ]
        },
        {
          "id": 16,
          "animation": [
            {
              "tileid": 16,
              "duration": 260
            },
            {
              "tileid": 17,
              "duration": 260
            },
            {
              "tileid": 18,
              "duration": 260
            },
            {
              "tileid": 19,
              "duration": 260
            },
            {
              "tileid": 20,
              "duration": 260
            },
            {
              "tileid": 21,
              "duration": 260
            },
            {
              "tileid": 22,
              "duration": 260
            },
            {
              "tileid": 23,
              "duration": 260
            }
          ]
        },
        {
          "id": 24,
          "animation": [
            {
              "tileid": 24,
              "duration": 260
            },
            {
              "tileid": 25,
              "duration": 260
            },
            {
              "tileid": 26,
              "duration": 260
            },
            {
              "tileid": 27,
              "duration": 260
            },
            {
              "tileid": 28,
              "duration": 260
            },
            {
              "tileid": 29,
              "duration": 260
            },
            {
              "tileid": 30,
              "duration": 260
            },
            {
              "tileid": 31,
              "duration": 260
            }
          ]
        },
        {
          "id": 32,
          "animation": [
            {
              "tileid": 32,
              "duration": 260
            },
            {
              "tileid": 33,
              "duration": 260
            },
            {
              "tileid": 34,
              "duration": 260
            },
            {
              "tileid": 35,
              "duration": 260
            },
            {
              "tileid": 36,
              "duration": 260
            },
            {
              "tileid": 37,
              "duration": 260
            },
            {
              "tileid": 38,
              "duration": 260
            },
            {
              "tileid": 39,
              "duration": 260
            }
          ]
        },
        {
          "id": 40,
          "animation": [
            {
              "tileid": 40,
              "duration": 260
            },
            {
              "tileid": 41,
              "duration": 260
            },
            {
              "tileid": 42,
              "duration": 260
            },
            {
              "tileid": 43,
              "duration": 260
            },
            {
              "tileid": 44,
              "duration": 260
            },
            {
              "tileid": 45,
              "duration": 260
            },
            {
              "tileid": 46,
              "duration": 260
            },
            {
              "tileid": 47,
              "duration": 260
            }
          ]
        },
        {
          "id": 48,
          "animation": [
            {
              "tileid": 48,
              "duration": 260
            },
            {
              "tileid": 49,
              "duration": 260
            },
            {
              "tileid": 50,
              "duration": 260
            },
            {
              "tileid": 51,
              "duration": 260
            },
            {
              "tileid": 52,
              "duration": 260
            },
            {
              "tileid": 53,
              "duration": 260
            },
            {
              "tileid": 54,
              "duration": 260
            },
            {
              "tileid": 55,
              "duration": 260
            }
          ]
        },
        {
          "id": 56,
          "animation": [
            {
              "tileid": 56,
              "duration": 260
            },
            {
              "tileid": 57,
              "duration": 260
            },
            {
              "tileid": 58,
              "duration": 260
            },
            {
              "tileid": 59,
              "duration": 260
            },
            {
              "tileid": 60,
              "duration": 260
            },
            {
              "tileid": 61,
              "duration": 260
            },
            {
              "tileid": 62,
              "duration": 260
            },
            {
              "tileid": 63,
              "duration": 260
            }
          ]
        },
        {
          "id": 64,
          "animation": [
            {
              "tileid": 64,
              "duration": 260
            },
            {
              "tileid": 65,
              "duration": 260
            },
            {
              "tileid": 66,
              "duration": 260
            },
            {
              "tileid": 67,
              "duration": 260
            },
            {
              "tileid": 68,
              "duration": 260
            },
            {
              "tileid": 69,
              "duration": 260
            },
            {
              "tileid": 70,
              "duration": 260
            },
            {
              "tileid": 71,
              "duration": 260
            }
          ]
        },
        {
          "id": 72,
          "animation": [
            {
              "tileid": 72,
              "duration": 260
            },
            {
              "tileid": 73,
              "duration": 260
            },
            {
              "tileid": 74,
              "duration": 260
            },
            {
              "tileid": 75,
              "duration": 260
            },
            {
              "tileid": 76,
              "duration": 260
            },
            {
              "tileid": 77,
              "duration": 260
            },
            {
              "tileid": 78,
              "duration": 260
            },
            {
              "tileid": 79,
              "duration": 260
            }
          ]
        },
        {
          "id": 80,
          "animation": [
            {
              "tileid": 80,
              "duration": 260
            },
            {
              "tileid": 81,
              "duration": 260
            },
            {
              "tileid": 82,
              "duration": 260
            },
            {
              "tileid": 83,
              "duration": 260
            },
            {
              "tileid": 84,
              "duration": 260
            },
            {
              "tileid": 85,
              "duration": 260
            },
            {
              "tileid": 86,
              "duration": 260
            },
            {
              "tileid": 87,
              "duration": 260
            }
          ]
        },
        {
          "id": 88,
          "animation": [
            {
              "tileid": 88,
              "duration": 260
            },
            {
              "tileid": 89,
              "duration": 260
            },
            {
              "tileid": 90,
              "duration": 260
            },
            {
              "tileid": 91,
              "duration": 260
            },
            {
              "tileid": 92,
              "duration": 260
            },
            {
              "tileid": 93,
              "duration": 260
            },
            {
              "tileid": 94,
              "duration": 260
            },
            {
              "tileid": 95,
              "duration": 260
            }
          ]
        },
        {
          "id": 96,
          "animation": [
            {
              "tileid": 96,
              "duration": 260
            },
            {
              "tileid": 97,
              "duration": 260
            },
            {
              "tileid": 98,
              "duration": 260
            },
            {
              "tileid": 99,
              "duration": 260
            },
            {
              "tileid": 100,
              "duration": 260
            },
            {
              "tileid": 101,
              "duration": 260
            },
            {
              "tileid": 102,
              "duration": 260
            },
            {
              "tileid": 103,
              "duration": 260
            }
          ]
        },
        {
          "id": 104,
          "animation": [
            {
              "tileid": 104,
              "duration": 260
            },
            {
              "tileid": 105,
              "duration": 260
            },
            {
              "tileid": 106,
              "duration": 260
            },
            {
              "tileid": 107,
              "duration": 260
            },
            {
              "tileid": 108,
              "duration": 260
            },
            {
              "tileid": 109,
              "duration": 260
            },
            {
              "tileid": 110,
              "duration": 260
            },
            {
              "tileid": 111,
              "duration": 260
            }
          ]
        },
        {
          "id": 112,
          "animation": [
            {
              "tileid": 112,
              "duration": 260
            },
            {
              "tileid": 113,
              "duration": 260
            },
            {
              "tileid": 114,
              "duration": 260
            },
            {
              "tileid": 115,
              "duration": 260
            },
            {
              "tileid": 116,
              "duration": 260
            },
            {
              "tileid": 117,
              "duration": 260
            },
            {
              "tileid": 118,
              "duration": 260
            },
            {
              "tileid": 119,
              "duration": 260
            }
          ]
        },
        {
          "id": 120,
          "animation": [
            {
              "tileid": 120,
              "duration": 260
            },
            {
              "tileid": 121,
              "duration": 260
            },
            {
              "tileid": 122,
              "duration": 260
            },
            {
              "tileid": 123,
              "duration": 260
            },
            {
              "tileid": 124,
              "duration": 260
            },
            {
              "tileid": 125,
              "duration": 260
            },
            {
              "tileid": 126,
              "duration": 260
            },
            {
              "tileid": 127,
              "duration": 260
            }
          ]
        },
        {
          "id": 128,
          "animation": [
            {
              "tileid": 128,
              "duration": 260
            },
            {
              "tileid": 129,
              "duration": 260
            },
            {
              "tileid": 130,
              "duration": 260
            },
            {
              "tileid": 131,
              "duration": 260
            },
            {
              "tileid": 132,
              "duration": 260
            },
            {
              "tileid": 133,
              "duration": 260
            },
            {
              "tileid": 134,
              "duration": 260
            },
            {
              "tileid": 135,
              "duration": 260
            }
          ]
        },
        {
          "id": 136,
          "animation": [
            {
              "tileid": 136,
              "duration": 260
            },
            {
              "tileid": 137,
              "duration": 260
            },
            {
              "tileid": 138,
              "duration": 260
            },
            {
              "tileid": 139,
              "duration": 260
            },
            {
              "tileid": 140,
              "duration": 260
            },
            {
              "tileid": 141,
              "duration": 260
            },
            {
              "tileid": 142,
              "duration": 260
            },
            {
              "tileid": 143,
              "duration": 260
            }
          ]
        },
        {
          "id": 144,
          "animation": [
            {
              "tileid": 144,
              "duration": 260
            },
            {
              "tileid": 145,
              "duration": 260
            },
            {
              "tileid": 146,
              "duration": 260
            },
            {
              "tileid": 147,
              "duration": 260
            },
            {
              "tileid": 148,
              "duration": 260
            },
            {
              "tileid": 149,
              "duration": 260
            },
            {
              "tileid": 150,
              "duration": 260
            },
            {
              "tileid": 151,
              "duration": 260
            }
          ]
        },
        {
          "id": 152,
          "animation": [
            {
              "tileid": 152,
              "duration": 260
            },
            {
              "tileid": 153,
              "duration": 260
            },
            {
              "tileid": 154,
              "duration": 260
            },
            {
              "tileid": 155,
              "duration": 260
            },
            {
              "tileid": 156,
              "duration": 260
            },
            {
              "tileid": 157,
              "duration": 260
            },
            {
              "tileid": 158,
              "duration": 260
            },
            {
              "tileid": 159,
              "duration": 260
            }
          ]
        },
        {
          "id": 160,
          "animation": [
            {
              "tileid": 160,
              "duration": 260
            },
            {
              "tileid": 161,
              "duration": 260
            },
            {
              "tileid": 162,
              "duration": 260
            },
            {
              "tileid": 163,
              "duration": 260
            },
            {
              "tileid": 164,
              "duration": 260
            },
            {
              "tileid": 165,
              "duration": 260
            },
            {
              "tileid": 166,
              "duration": 260
            },
            {
              "tileid": 167,
              "duration": 260
            }
          ]
        },
        {
          "id": 168,
          "animation": [
            {
              "tileid": 168,
              "duration": 260
            },
            {
              "tileid": 169,
              "duration": 260
            },
            {
              "tileid": 170,
              "duration": 260
            },
            {
              "tileid": 171,
              "duration": 260
            },
            {
              "tileid": 172,
              "duration": 260
            },
            {
              "tileid": 173,
              "duration": 260
            },
            {
              "tileid": 174,
              "duration": 260
            },
            {
              "tileid": 175,
              "duration": 260
            }
          ]
        },
        {
          "id": 176,
          "animation": [
            {
              "tileid": 176,
              "duration": 260
            },
            {
              "tileid": 177,
              "duration": 260
            },
            {
              "tileid": 178,
              "duration": 260
            },
            {
              "tileid": 179,
              "duration": 260
            },
            {
              "tileid": 180,
              "duration": 260
            },
            {
              "tileid": 181,
              "duration": 260
            },
            {
              "tileid": 182,
              "duration": 260
            },
            {
              "tileid": 183,
              "duration": 260
            }
          ]
        },
        {
          "id": 184,
          "animation": [
            {
              "tileid": 184,
              "duration": 260
            },
            {
              "tileid": 185,
              "duration": 260
            },
            {
              "tileid": 186,
              "duration": 260
            },
            {
              "tileid": 187,
              "duration": 260
            },
            {
              "tileid": 188,
              "duration": 260
            },
            {
              "tileid": 189,
              "duration": 260
            },
            {
              "tileid": 190,
              "duration": 260
            },
            {
              "tileid": 191,
              "duration": 260
            }
          ]
        },
        {
          "id": 192,
          "animation": [
            {
              "tileid": 192,
              "duration": 260
            },
            {
              "tileid": 193,
              "duration": 260
            },
            {
              "tileid": 194,
              "duration": 260
            },
            {
              "tileid": 195,
              "duration": 260
            },
            {
              "tileid": 196,
              "duration": 260
            },
            {
              "tileid": 197,
              "duration": 260
            },
            {
              "tileid": 198,
              "duration": 260
            },
            {
              "tileid": 199,
              "duration": 260
            }
          ]
        },
        {
          "id": 200,
          "animation": [
            {
              "tileid": 200,
              "duration": 260
            },
            {
              "tileid": 201,
              "duration": 260
            },
            {
              "tileid": 202,
              "duration": 260
            },
            {
              "tileid": 203,
              "duration": 260
            },
            {
              "tileid": 204,
              "duration": 260
            },
            {
              "tileid": 205,
              "duration": 260
            },
            {
              "tileid": 206,
              "duration": 260
            },
            {
              "tileid": 207,
              "duration": 260
            }
          ]
        },
        {
          "id": 208,
          "animation": [
            {
              "tileid": 208,
              "duration": 260
            },
            {
              "tileid": 209,
              "duration": 260
            },
            {
              "tileid": 210,
              "duration": 260
            },
            {
              "tileid": 211,
              "duration": 260
            },
            {
              "tileid": 212,
              "duration": 260
            },
            {
              "tileid": 213,
              "duration": 260
            },
            {
              "tileid": 214,
              "duration": 260
            },
            {
              "tileid": 215,
              "duration": 260
            }
          ]
        },
        {
          "id": 216,
          "animation": [
            {
              "tileid": 216,
              "duration": 260
            },
            {
              "tileid": 217,
              "duration": 260
            },
            {
              "tileid": 218,
              "duration": 260
            },
            {
              "tileid": 219,
              "duration": 260
            },
            {
              "tileid": 220,
              "duration": 260
            },
            {
              "tileid": 221,
              "duration": 260
            },
            {
              "tileid": 222,
              "duration": 260
            },
            {
              "tileid": 223,
              "duration": 260
            }
          ]
        },
        {
          "id": 224,
          "animation": [
            {
              "tileid": 224,
              "duration": 260
            },
            {
              "tileid": 225,
              "duration": 260
            },
            {
              "tileid": 226,
              "duration": 260
            },
            {
              "tileid": 227,
              "duration": 260
            },
            {
              "tileid": 228,
              "duration": 260
            },
            {
              "tileid": 229,
              "duration": 260
            },
            {
              "tileid": 230,
              "duration": 260
            },
            {
              "tileid": 231,
              "duration": 260
            }
          ]
        },
        {
          "id": 232,
          "animation": [
            {
              "tileid": 232,
              "duration": 260
            },
            {
              "tileid": 233,
              "duration": 260
            },
            {
              "tileid": 234,
              "duration": 260
            },
            {
              "tileid": 235,
              "duration": 260
            },
            {
              "tileid": 236,
              "duration": 260
            },
            {
              "tileid": 237,
              "duration": 260
            },
            {
              "tileid": 238,
              "duration": 260
            },
            {
              "tileid": 239,
              "duration": 260
            }
          ]
        },
        {
          "id": 240,
          "animation": [
            {
              "tileid": 240,
              "duration": 260
            },
            {
              "tileid": 241,
              "duration": 260
            },
            {
              "tileid": 242,
              "duration": 260
            },
            {
              "tileid": 243,
              "duration": 260
            },
            {
              "tileid": 244,
              "duration": 260
            },
            {
              "tileid": 245,
              "duration": 260
            },
            {
              "tileid": 246,
              "duration": 260
            },
            {
              "tileid": 247,
              "duration": 260
            }
          ]
        },
        {
          "id": 248,
          "animation": [
            {
              "tileid": 248,
              "duration": 260
            },
            {
              "tileid": 249,
              "duration": 260
            },
            {
              "tileid": 250,
              "duration": 260
            },
            {
              "tileid": 251,
              "duration": 260
            },
            {
              "tileid": 252,
              "duration": 260
            },
            {
              "tileid": 253,
              "duration": 260
            },
            {
              "tileid": 254,
              "duration": 260
            },
            {
              "tileid": 255,
              "duration": 260
            }
          ]
        },
        {
          "id": 256,
          "animation": [
            {
              "tileid": 256,
              "duration": 260
            },
            {
              "tileid": 257,
              "duration": 260
            },
            {
              "tileid": 258,
              "duration": 260
            },
            {
              "tileid": 259,
              "duration": 260
            },
            {
              "tileid": 260,
              "duration": 260
            },
            {
              "tileid": 261,
              "duration": 260
            },
            {
              "tileid": 262,
              "duration": 260
            },
            {
              "tileid": 263,
              "duration": 260
            }
          ]
        },
        {
          "id": 264,
          "animation": [
            {
              "tileid": 264,
              "duration": 260
            },
            {
              "tileid": 265,
              "duration": 260
            },
            {
              "tileid": 266,
              "duration": 260
            },
            {
              "tileid": 267,
              "duration": 260
            },
            {
              "tileid": 268,
              "duration": 260
            },
            {
              "tileid": 269,
              "duration": 260
            },
            {
              "tileid": 270,
              "duration": 260
            },
            {
              "tileid": 271,
              "duration": 260
            }
          ]
        },
        {
          "id": 272,
          "animation": [
            {
              "tileid": 272,
              "duration": 260
            },
            {
              "tileid": 273,
              "duration": 260
            },
            {
              "tileid": 274,
              "duration": 260
            },
            {
              "tileid": 275,
              "duration": 260
            },
            {
              "tileid": 276,
              "duration": 260
            },
            {
              "tileid": 277,
              "duration": 260
            },
            {
              "tileid": 278,
              "duration": 260
            },
            {
              "tileid": 279,
              "duration": 260
            }
          ]
        },
        {
          "id": 280,
          "animation": [
            {
              "tileid": 280,
              "duration": 260
            },
            {
              "tileid": 281,
              "duration": 260
            },
            {
              "tileid": 282,
              "duration": 260
            },
            {
              "tileid": 283,
              "duration": 260
            },
            {
              "tileid": 284,
              "duration": 260
            },
            {
              "tileid": 285,
              "duration": 260
            },
            {
              "tileid": 286,
              "duration": 260
            },
            {
              "tileid": 287,
              "duration": 260
            }
          ]
        },
        {
          "id": 288,
          "animation": [
            {
              "tileid": 288,
              "duration": 260
            },
            {
              "tileid": 289,
              "duration": 260
            },
            {
              "tileid": 290,
              "duration": 260
            },
            {
              "tileid": 291,
              "duration": 260
            },
            {
              "tileid": 292,
              "duration": 260
            },
            {
              "tileid": 293,
              "duration": 260
            },
            {
              "tileid": 294,
              "duration": 260
            },
            {
              "tileid": 295,
              "duration": 260
            }
          ]
        },
        {
          "id": 296,
          "animation": [
            {
              "tileid": 296,
              "duration": 260
            },
            {
              "tileid": 297,
              "duration": 260
            },
            {
              "tileid": 298,
              "duration": 260
            },
            {
              "tileid": 299,
              "duration": 260
            },
            {
              "tileid": 300,
              "duration": 260
            },
            {
              "tileid": 301,
              "duration": 260
            },
            {
              "tileid": 302,
              "duration": 260
            },
            {
              "tileid": 303,
              "duration": 260
            }
          ]
        },
        {
          "id": 304,
          "animation": [
            {
              "tileid": 304,
              "duration": 260
            },
            {
              "tileid": 305,
              "duration": 260
            },
            {
              "tileid": 306,
              "duration": 260
            },
            {
              "tileid": 307,
              "duration": 260
            },
            {
              "tileid": 308,
              "duration": 260
            },
            {
              "tileid": 309,
              "duration": 260
            },
            {
              "tileid": 310,
              "duration": 260
            },
            {
              "tileid": 311,
              "duration": 260
            }
          ]
        },
        {
          "id": 312,
          "animation": [
            {
              "tileid": 312,
              "duration": 260
            },
            {
              "tileid": 313,
              "duration": 260
            },
            {
              "tileid": 314,
              "duration": 260
            },
            {
              "tileid": 315,
              "duration": 260
            },
            {
              "tileid": 316,
              "duration": 260
            },
            {
              "tileid": 317,
              "duration": 260
            },
            {
              "tileid": 318,
              "duration": 260
            },
            {
              "tileid": 319,
              "duration": 260
            }
          ]
        },
        {
          "id": 320,
          "animation": [
            {
              "tileid": 320,
              "duration": 260
            },
            {
              "tileid": 321,
              "duration": 260
            },
            {
              "tileid": 322,
              "duration": 260
            },
            {
              "tileid": 323,
              "duration": 260
            },
            {
              "tileid": 324,
              "duration": 260
            },
            {
              "tileid": 325,
              "duration": 260
            },
            {
              "tileid": 326,
              "duration": 260
            },
            {
              "tileid": 327,
              "duration": 260
            }
          ]
        },
        {
          "id": 328,
          "animation": [
            {
              "tileid": 328,
              "duration": 260
            },
            {
              "tileid": 329,
              "duration": 260
            },
            {
              "tileid": 330,
              "duration": 260
            },
            {
              "tileid": 331,
              "duration": 260
            },
            {
              "tileid": 332,
              "duration": 260
            },
            {
              "tileid": 333,
              "duration": 260
            },
            {
              "tileid": 334,
              "duration": 260
            },
            {
              "tileid": 335,
              "duration": 260
            }
          ]
        },
        {
          "id": 336,
          "animation": [
            {
              "tileid": 336,
              "duration": 260
            },
            {
              "tileid": 337,
              "duration": 260
            },
            {
              "tileid": 338,
              "duration": 260
            },
            {
              "tileid": 339,
              "duration": 260
            },
            {
              "tileid": 340,
              "duration": 260
            },
            {
              "tileid": 341,
              "duration": 260
            },
            {
              "tileid": 342,
              "duration": 260
            },
            {
              "tileid": 343,
              "duration": 260
            }
          ]
        },
        {
          "id": 344,
          "animation": [
            {
              "tileid": 344,
              "duration": 260
            },
            {
              "tileid": 345,
              "duration": 260
            },
            {
              "tileid": 346,
              "duration": 260
            },
            {
              "tileid": 347,
              "duration": 260
            },
            {
              "tileid": 348,
              "duration": 260
            },
            {
              "tileid": 349,
              "duration": 260
            },
            {
              "tileid": 350,
              "duration": 260
            },
            {
              "tileid": 351,
              "duration": 260
            }
          ]
        },
        {
          "id": 352,
          "animation": [
            {
              "tileid": 352,
              "duration": 260
            },
            {
              "tileid": 353,
              "duration": 260
            },
            {
              "tileid": 354,
              "duration": 260
            },
            {
              "tileid": 355,
              "duration": 260
            },
            {
              "tileid": 356,
              "duration": 260
            },
            {
              "tileid": 357,
              "duration": 260
            },
            {
              "tileid": 358,
              "duration": 260
            },
            {
              "tileid": 359,
              "duration": 260
            }
          ]
        },
        {
          "id": 360,
          "animation": [
            {
              "tileid": 360,
              "duration": 260
            },
            {
              "tileid": 361,
              "duration": 260
            },
            {
              "tileid": 362,
              "duration": 260
            },
            {
              "tileid": 363,
              "duration": 260
            },
            {
              "tileid": 364,
              "duration": 260
            },
            {
              "tileid": 365,
              "duration": 260
            },
            {
              "tileid": 366,
              "duration": 260
            },
            {
              "tileid": 367,
              "duration": 260
            }
          ]
        },
        {
          "id": 368,
          "animation": [
            {
              "tileid": 368,
              "duration": 260
            },
            {
              "tileid": 369,
              "duration": 260
            },
            {
              "tileid": 370,
              "duration": 260
            },
            {
              "tileid": 371,
              "duration": 260
            },
            {
              "tileid": 372,
              "duration": 260
            },
            {
              "tileid": 373,
              "duration": 260
            },
            {
              "tileid": 374,
              "duration": 260
            },
            {
              "tileid": 375,
              "duration": 260
            }
          ]
        },
        {
          "id": 376,
          "animation": [
            {
              "tileid": 376,
              "duration": 260
            },
            {
              "tileid": 377,
              "duration": 260
            },
            {
              "tileid": 378,
              "duration": 260
            },
            {
              "tileid": 379,
              "duration": 260
            },
            {
              "tileid": 380,
              "duration": 260
            },
            {
              "tileid": 381,
              "duration": 260
            },
            {
              "tileid": 382,
              "duration": 260
            },
            {
              "tileid": 383,
              "duration": 260
            }
          ]
        },
        {
          "id": 384,
          "animation": [
            {
              "tileid": 384,
              "duration": 260
            },
            {
              "tileid": 385,
              "duration": 260
            },
            {
              "tileid": 386,
              "duration": 260
            },
            {
              "tileid": 387,
              "duration": 260
            },
            {
              "tileid": 388,
              "duration": 260
            },
            {
              "tileid": 389,
              "duration": 260
            },
            {
              "tileid": 390,
              "duration": 260
            },
            {
              "tileid": 391,
              "duration": 260
            }
          ]
        },
        {
          "id": 392,
          "animation": [
            {
              "tileid": 392,
              "duration": 260
            },
            {
              "tileid": 393,
              "duration": 260
            },
            {
              "tileid": 394,
              "duration": 260
            },
            {
              "tileid": 395,
              "duration": 260
            },
            {
              "tileid": 396,
              "duration": 260
            },
            {
              "tileid": 397,
              "duration": 260
            },
            {
              "tileid": 398,
              "duration": 260
            },
            {
              "tileid": 399,
              "duration": 260
            }
          ]
        },
        {
          "id": 400,
          "animation": [
            {
              "tileid": 400,
              "duration": 260
            },
            {
              "tileid": 401,
              "duration": 260
            },
            {
              "tileid": 402,
              "duration": 260
            },
            {
              "tileid": 403,
              "duration": 260
            },
            {
              "tileid": 404,
              "duration": 260
            },
            {
              "tileid": 405,
              "duration": 260
            },
            {
              "tileid": 406,
              "duration": 260
            },
            {
              "tileid": 407,
              "duration": 260
            }
          ]
        },
        {
          "id": 408,
          "animation": [
            {
              "tileid": 408,
              "duration": 260
            },
            {
              "tileid": 409,
              "duration": 260
            },
            {
              "tileid": 410,
              "duration": 260
            },
            {
              "tileid": 411,
              "duration": 260
            },
            {
              "tileid": 412,
              "duration": 260
            },
            {
              "tileid": 413,
              "duration": 260
            },
            {
              "tileid": 414,
              "duration": 260
            },
            {
              "tileid": 415,
              "duration": 260
            }
          ]
        },
        {
          "id": 416,
          "animation": [
            {
              "tileid": 416,
              "duration": 260
            },
            {
              "tileid": 417,
              "duration": 260
            },
            {
              "tileid": 418,
              "duration": 260
            },
            {
              "tileid": 419,
              "duration": 260
            },
            {
              "tileid": 420,
              "duration": 260
            },
            {
              "tileid": 421,
              "duration": 260
            },
            {
              "tileid": 422,
              "duration": 260
            },
            {
              "tileid": 423,
              "duration": 260
            }
          ]
        },
        {
          "id": 424,
          "animation": [
            {
              "tileid": 424,
              "duration": 260
            },
            {
              "tileid": 425,
              "duration": 260
            },
            {
              "tileid": 426,
              "duration": 260
            },
            {
              "tileid": 427,
              "duration": 260
            },
            {
              "tileid": 428,
              "duration": 260
            },
            {
              "tileid": 429,
              "duration": 260
            },
            {
              "tileid": 430,
              "duration": 260
            },
            {
              "tileid": 431,
              "duration": 260
            }
          ]
        },
        {
          "id": 432,
          "animation": [
            {
              "tileid": 432,
              "duration": 260
            },
            {
              "tileid": 433,
              "duration": 260
            },
            {
              "tileid": 434,
              "duration": 260
            },
            {
              "tileid": 435,
              "duration": 260
            },
            {
              "tileid": 436,
              "duration": 260
            },
            {
              "tileid": 437,
              "duration": 260
            },
            {
              "tileid": 438,
              "duration": 260
            },
            {
              "tileid": 439,
              "duration": 260
            }
          ]
        },
        {
          "id": 440,
          "animation": [
            {
              "tileid": 440,
              "duration": 260
            },
            {
              "tileid": 441,
              "duration": 260
            },
            {
              "tileid": 442,
              "duration": 260
            },
            {
              "tileid": 443,
              "duration": 260
            },
            {
              "tileid": 444,
              "duration": 260
            },
            {
              "tileid": 445,
              "duration": 260
            },
            {
              "tileid": 446,
              "duration": 260
            },
            {
              "tileid": 447,
              "duration": 260
            }
          ]
        },
        {
          "id": 448,
          "animation": [
            {
              "tileid": 448,
              "duration": 260
            },
            {
              "tileid": 449,
              "duration": 260
            },
            {
              "tileid": 450,
              "duration": 260
            },
            {
              "tileid": 451,
              "duration": 260
            },
            {
              "tileid": 452,
              "duration": 260
            },
            {
              "tileid": 453,
              "duration": 260
            },
            {
              "tileid": 454,
              "duration": 260
            },
            {
              "tileid": 455,
              "duration": 260
            }
          ]
        },
        {
          "id": 456,
          "animation": [
            {
              "tileid": 456,
              "duration": 260
            },
            {
              "tileid": 457,
              "duration": 260
            },
            {
              "tileid": 458,
              "duration": 260
            },
            {
              "tileid": 459,
              "duration": 260
            },
            {
              "tileid": 460,
              "duration": 260
            },
            {
              "tileid": 461,
              "duration": 260
            },
            {
              "tileid": 462,
              "duration": 260
            },
            {
              "tileid": 463,
              "duration": 260
            }
          ]
        },
        {
          "id": 464,
          "animation": [
            {
              "tileid": 464,
              "duration": 260
            },
            {
              "tileid": 465,
              "duration": 260
            },
            {
              "tileid": 466,
              "duration": 260
            },
            {
              "tileid": 467,
              "duration": 260
            },
            {
              "tileid": 468,
              "duration": 260
            },
            {
              "tileid": 469,
              "duration": 260
            },
            {
              "tileid": 470,
              "duration": 260
            },
            {
              "tileid": 471,
              "duration": 260
            }
          ]
        },
        {
          "id": 472,
          "animation": [
            {
              "tileid": 472,
              "duration": 260
            },
            {
              "tileid": 473,
              "duration": 260
            },
            {
              "tileid": 474,
              "duration": 260
            },
            {
              "tileid": 475,
              "duration": 260
            },
            {
              "tileid": 476,
              "duration": 260
            },
            {
              "tileid": 477,
              "duration": 260
            },
            {
              "tileid": 478,
              "duration": 260
            },
            {
              "tileid": 479,
              "duration": 260
            }
          ]
        },
        {
          "id": 480,
          "animation": [
            {
              "tileid": 480,
              "duration": 260
            },
            {
              "tileid": 481,
              "duration": 260
            },
            {
              "tileid": 482,
              "duration": 260
            },
            {
              "tileid": 483,
              "duration": 260
            },
            {
              "tileid": 484,
              "duration": 260
            },
            {
              "tileid": 485,
              "duration": 260
            },
            {
              "tileid": 486,
              "duration": 260
            },
            {
              "tileid": 487,
              "duration": 260
            }
          ]
        },
        {
          "id": 488,
          "animation": [
            {
              "tileid": 488,
              "duration": 260
            },
            {
              "tileid": 489,
              "duration": 260
            },
            {
              "tileid": 490,
              "duration": 260
            },
            {
              "tileid": 491,
              "duration": 260
            },
            {
              "tileid": 492,
              "duration": 260
            },
            {
              "tileid": 493,
              "duration": 260
            },
            {
              "tileid": 494,
              "duration": 260
            },
            {
              "tileid": 495,
              "duration": 260
            }
          ]
        },
        {
          "id": 496,
          "animation": [
            {
              "tileid": 496,
              "duration": 260
            },
            {
              "tileid": 497,
              "duration": 260
            },
            {
              "tileid": 498,
              "duration": 260
            },
            {
              "tileid": 499,
              "duration": 260
            },
            {
              "tileid": 500,
              "duration": 260
            },
            {
              "tileid": 501,
              "duration": 260
            },
            {
              "tileid": 502,
              "duration": 260
            },
            {
              "tileid": 503,
              "duration": 260
            }
          ]
        },
        {
          "id": 504,
          "animation": [
            {
              "tileid": 504,
              "duration": 260
            },
            {
              "tileid": 505,
              "duration": 260
            },
            {
              "tileid": 506,
              "duration": 260
            },
            {
              "tileid": 507,
              "duration": 260
            },
            {
              "tileid": 508,
              "duration": 260
            },
            {
              "tileid": 509,
              "duration": 260
            },
            {
              "tileid": 510,
              "duration": 260
            },
            {
              "tileid": 511,
              "duration": 260
            }
          ]
        },
        {
          "id": 512,
          "animation": [
            {
              "tileid": 512,
              "duration": 260
            },
            {
              "tileid": 513,
              "duration": 260
            },
            {
              "tileid": 514,
              "duration": 260
            },
            {
              "tileid": 515,
              "duration": 260
            },
            {
              "tileid": 516,
              "duration": 260
            },
            {
              "tileid": 517,
              "duration": 260
            },
            {
              "tileid": 518,
              "duration": 260
            },
            {
              "tileid": 519,
              "duration": 260
            }
          ]
        },
        {
          "id": 520,
          "animation": [
            {
              "tileid": 520,
              "duration": 260
            },
            {
              "tileid": 521,
              "duration": 260
            },
            {
              "tileid": 522,
              "duration": 260
            },
            {
              "tileid": 523,
              "duration": 260
            },
            {
              "tileid": 524,
              "duration": 260
            },
            {
              "tileid": 525,
              "duration": 260
            },
            {
              "tileid": 526,
              "duration": 260
            },
            {
              "tileid": 527,
              "duration": 260
            }
          ]
        },
        {
          "id": 528,
          "animation": [
            {
              "tileid": 528,
              "duration": 260
            },
            {
              "tileid": 529,
              "duration": 260
            },
            {
              "tileid": 530,
              "duration": 260
            },
            {
              "tileid": 531,
              "duration": 260
            },
            {
              "tileid": 532,
              "duration": 260
            },
            {
              "tileid": 533,
              "duration": 260
            },
            {
              "tileid": 534,
              "duration": 260
            },
            {
              "tileid": 535,
              "duration": 260
            }
          ]
        },
        {
          "id": 536,
          "animation": [
            {
              "tileid": 536,
              "duration": 260
            },
            {
              "tileid": 537,
              "duration": 260
            },
            {
              "tileid": 538,
              "duration": 260
            },
            {
              "tileid": 539,
              "duration": 260
            },
            {
              "tileid": 540,
              "duration": 260
            },
            {
              "tileid": 541,
              "duration": 260
            },
            {
              "tileid": 542,
              "duration": 260
            },
            {
              "tileid": 543,
              "duration": 260
            }
          ]
        },
        {
          "id": 544,
          "animation": [
            {
              "tileid": 544,
              "duration": 260
            },
            {
              "tileid": 545,
              "duration": 260
            },
            {
              "tileid": 546,
              "duration": 260
            },
            {
              "tileid": 547,
              "duration": 260
            },
            {
              "tileid": 548,
              "duration": 260
            },
            {
              "tileid": 549,
              "duration": 260
            },
            {
              "tileid": 550,
              "duration": 260
            },
            {
              "tileid": 551,
              "duration": 260
            }
          ]
        },
        {
          "id": 552,
          "animation": [
            {
              "tileid": 552,
              "duration": 260
            },
            {
              "tileid": 553,
              "duration": 260
            },
            {
              "tileid": 554,
              "duration": 260
            },
            {
              "tileid": 555,
              "duration": 260
            },
            {
              "tileid": 556,
              "duration": 260
            },
            {
              "tileid": 557,
              "duration": 260
            },
            {
              "tileid": 558,
              "duration": 260
            },
            {
              "tileid": 559,
              "duration": 260
            }
          ]
        },
        {
          "id": 560,
          "animation": [
            {
              "tileid": 560,
              "duration": 260
            },
            {
              "tileid": 561,
              "duration": 260
            },
            {
              "tileid": 562,
              "duration": 260
            },
            {
              "tileid": 563,
              "duration": 260
            },
            {
              "tileid": 564,
              "duration": 260
            },
            {
              "tileid": 565,
              "duration": 260
            },
            {
              "tileid": 566,
              "duration": 260
            },
            {
              "tileid": 567,
              "duration": 260
            }
          ]
        },
        {
          "id": 568,
          "animation": [
            {
              "tileid": 568,
              "duration": 260
            },
            {
              "tileid": 569,
              "duration": 260
            },
            {
              "tileid": 570,
              "duration": 260
            },
            {
              "tileid": 571,
              "duration": 260
            },
            {
              "tileid": 572,
              "duration": 260
            },
            {
              "tileid": 573,
              "duration": 260
            },
            {
              "tileid": 574,
              "duration": 260
            },
            {
              "tileid": 575,
              "duration": 260
            }
          ]
        },
        {
          "id": 576,
          "animation": [
            {
              "tileid": 576,
              "duration": 260
            },
            {
              "tileid": 577,
              "duration": 260
            },
            {
              "tileid": 578,
              "duration": 260
            },
            {
              "tileid": 579,
              "duration": 260
            },
            {
              "tileid": 580,
              "duration": 260
            },
            {
              "tileid": 581,
              "duration": 260
            },
            {
              "tileid": 582,
              "duration": 260
            },
            {
              "tileid": 583,
              "duration": 260
            }
          ]
        },
        {
          "id": 584,
          "animation": [
            {
              "tileid": 584,
              "duration": 260
            },
            {
              "tileid": 585,
              "duration": 260
            },
            {
              "tileid": 586,
              "duration": 260
            },
            {
              "tileid": 587,
              "duration": 260
            },
            {
              "tileid": 588,
              "duration": 260
            },
            {
              "tileid": 589,
              "duration": 260
            },
            {
              "tileid": 590,
              "duration": 260
            },
            {
              "tileid": 591,
              "duration": 260
            }
          ]
        },
        {
          "id": 592,
          "animation": [
            {
              "tileid": 592,
              "duration": 260
            },
            {
              "tileid": 593,
              "duration": 260
            },
            {
              "tileid": 594,
              "duration": 260
            },
            {
              "tileid": 595,
              "duration": 260
            },
            {
              "tileid": 596,
              "duration": 260
            },
            {
              "tileid": 597,
              "duration": 260
            },
            {
              "tileid": 598,
              "duration": 260
            },
            {
              "tileid": 599,
              "duration": 260
            }
          ]
        },
        {
          "id": 600,
          "animation": [
            {
              "tileid": 600,
              "duration": 260
            },
            {
              "tileid": 601,
              "duration": 260
            },
            {
              "tileid": 602,
              "duration": 260
            },
            {
              "tileid": 603,
              "duration": 260
            },
            {
              "tileid": 604,
              "duration": 260
            },
            {
              "tileid": 605,
              "duration": 260
            },
            {
              "tileid": 606,
              "duration": 260
            },
            {
              "tileid": 607,
              "duration": 260
            }
          ]
        },
        {
          "id": 608,
          "animation": [
            {
              "tileid": 608,
              "duration": 260
            },
            {
              "tileid": 609,
              "duration": 260
            },
            {
              "tileid": 610,
              "duration": 260
            },
            {
              "tileid": 611,
              "duration": 260
            },
            {
              "tileid": 612,
              "duration": 260
            },
            {
              "tileid": 613,
              "duration": 260
            },
            {
              "tileid": 614,
              "duration": 260
            },
            {
              "tileid": 615,
              "duration": 260
            }
          ]
        },
        {
          "id": 616,
          "animation": [
            {
              "tileid": 616,
              "duration": 260
            },
            {
              "tileid": 617,
              "duration": 260
            },
            {
              "tileid": 618,
              "duration": 260
            },
            {
              "tileid": 619,
              "duration": 260
            },
            {
              "tileid": 620,
              "duration": 260
            },
            {
              "tileid": 621,
              "duration": 260
            },
            {
              "tileid": 622,
              "duration": 260
            },
            {
              "tileid": 623,
              "duration": 260
            }
          ]
        },
        {
          "id": 624,
          "animation": [
            {
              "tileid": 624,
              "duration": 260
            },
            {
              "tileid": 625,
              "duration": 260
            },
            {
              "tileid": 626,
              "duration": 260
            },
            {
              "tileid": 627,
              "duration": 260
            },
            {
              "tileid": 628,
              "duration": 260
            },
            {
              "tileid": 629,
              "duration": 260
            },
            {
              "tileid": 630,
              "duration": 260
            },
            {
              "tileid": 631,
              "duration": 260
            }
          ]
        },
        {
          "id": 632,
          "animation": [
            {
              "tileid": 632,
              "duration": 260
            },
            {
              "tileid": 633,
              "duration": 260
            },
            {
              "tileid": 634,
              "duration": 260
            },
            {
              "tileid": 635,
              "duration": 260
            },
            {
              "tileid": 636,
              "duration": 260
            },
            {
              "tileid": 637,
              "duration": 260
            },
            {
              "tileid": 638,
              "duration": 260
            },
            {
              "tileid": 639,
              "duration": 260
            }
          ]
        },
        {
          "id": 640,
          "animation": [
            {
              "tileid": 640,
              "duration": 260
            },
            {
              "tileid": 641,
              "duration": 260
            },
            {
              "tileid": 642,
              "duration": 260
            },
            {
              "tileid": 643,
              "duration": 260
            },
            {
              "tileid": 644,
              "duration": 260
            },
            {
              "tileid": 645,
              "duration": 260
            },
            {
              "tileid": 646,
              "duration": 260
            },
            {
              "tileid": 647,
              "duration": 260
            }
          ]
        },
        {
          "id": 648,
          "animation": [
            {
              "tileid": 648,
              "duration": 260
            },
            {
              "tileid": 649,
              "duration": 260
            },
            {
              "tileid": 650,
              "duration": 260
            },
            {
              "tileid": 651,
              "duration": 260
            },
            {
              "tileid": 652,
              "duration": 260
            },
            {
              "tileid": 653,
              "duration": 260
            },
            {
              "tileid": 654,
              "duration": 260
            },
            {
              "tileid": 655,
              "duration": 260
            }
          ]
        },
        {
          "id": 656,
          "animation": [
            {
              "tileid": 656,
              "duration": 260
            },
            {
              "tileid": 657,
              "duration": 260
            },
            {
              "tileid": 658,
              "duration": 260
            },
            {
              "tileid": 659,
              "duration": 260
            },
            {
              "tileid": 660,
              "duration": 260
            },
            {
              "tileid": 661,
              "duration": 260
            },
            {
              "tileid": 662,
              "duration": 260
            },
            {
              "tileid": 663,
              "duration": 260
            }
          ]
        },
        {
          "id": 664,
          "animation": [
            {
              "tileid": 664,
              "duration": 260
            },
            {
              "tileid": 665,
              "duration": 260
            },
            {
              "tileid": 666,
              "duration": 260
            },
            {
              "tileid": 667,
              "duration": 260
            },
            {
              "tileid": 668,
              "duration": 260
            },
            {
              "tileid": 669,
              "duration": 260
            },
            {
              "tileid": 670,
              "duration": 260
            },
            {
              "tileid": 671,
              "duration": 260
            }
          ]
        },
        {
          "id": 672,
          "animation": [
            {
              "tileid": 672,
              "duration": 260
            },
            {
              "tileid": 673,
              "duration": 260
            },
            {
              "tileid": 674,
              "duration": 260
            },
            {
              "tileid": 675,
              "duration": 260
            },
            {
              "tileid": 676,
              "duration": 260
            },
            {
              "tileid": 677,
              "duration": 260
            },
            {
              "tileid": 678,
              "duration": 260
            },
            {
              "tileid": 679,
              "duration": 260
            }
          ]
        },
        {
          "id": 680,
          "animation": [
            {
              "tileid": 680,
              "duration": 260
            },
            {
              "tileid": 681,
              "duration": 260
            },
            {
              "tileid": 682,
              "duration": 260
            },
            {
              "tileid": 683,
              "duration": 260
            },
            {
              "tileid": 684,
              "duration": 260
            },
            {
              "tileid": 685,
              "duration": 260
            },
            {
              "tileid": 686,
              "duration": 260
            },
            {
              "tileid": 687,
              "duration": 260
            }
          ]
        },
        {
          "id": 688,
          "animation": [
            {
              "tileid": 688,
              "duration": 260
            },
            {
              "tileid": 689,
              "duration": 260
            },
            {
              "tileid": 690,
              "duration": 260
            },
            {
              "tileid": 691,
              "duration": 260
            },
            {
              "tileid": 692,
              "duration": 260
            },
            {
              "tileid": 693,
              "duration": 260
            },
            {
              "tileid": 694,
              "duration": 260
            },
            {
              "tileid": 695,
              "duration": 260
            }
          ]
        },
        {
          "id": 696,
          "animation": [
            {
              "tileid": 696,
              "duration": 260
            },
            {
              "tileid": 697,
              "duration": 260
            },
            {
              "tileid": 698,
              "duration": 260
            },
            {
              "tileid": 699,
              "duration": 260
            },
            {
              "tileid": 700,
              "duration": 260
            },
            {
              "tileid": 701,
              "duration": 260
            },
            {
              "tileid": 702,
              "duration": 260
            },
            {
              "tileid": 703,
              "duration": 260
            }
          ]
        },
        {
          "id": 704,
          "animation": [
            {
              "tileid": 704,
              "duration": 260
            },
            {
              "tileid": 705,
              "duration": 260
            },
            {
              "tileid": 706,
              "duration": 260
            },
            {
              "tileid": 707,
              "duration": 260
            },
            {
              "tileid": 708,
              "duration": 260
            },
            {
              "tileid": 709,
              "duration": 260
            },
            {
              "tileid": 710,
              "duration": 260
            },
            {
              "tileid": 711,
              "duration": 260
            }
          ]
        },
        {
          "id": 712,
          "animation": [
            {
              "tileid": 712,
              "duration": 260
            },
            {
              "tileid": 713,
              "duration": 260
            },
            {
              "tileid": 714,
              "duration": 260
            },
            {
              "tileid": 715,
              "duration": 260
            },
            {
              "tileid": 716,
              "duration": 260
            },
            {
              "tileid": 717,
              "duration": 260
            },
            {
              "tileid": 718,
              "duration": 260
            },
            {
              "tileid": 719,
              "duration": 260
            }
          ]
        },
        {
          "id": 720,
          "animation": [
            {
              "tileid": 720,
              "duration": 260
            },
            {
              "tileid": 721,
              "duration": 260
            },
            {
              "tileid": 722,
              "duration": 260
            },
            {
              "tileid": 723,
              "duration": 260
            },
            {
              "tileid": 724,
              "duration": 260
            },
            {
              "tileid": 725,
              "duration": 260
            },
            {
              "tileid": 726,
              "duration": 260
            },
            {
              "tileid": 727,
              "duration": 260
            }
          ]
        },
        {
          "id": 728,
          "animation": [
            {
              "tileid": 728,
              "duration": 260
            },
            {
              "tileid": 729,
              "duration": 260
            },
            {
              "tileid": 730,
              "duration": 260
            },
            {
              "tileid": 731,
              "duration": 260
            },
            {
              "tileid": 732,
              "duration": 260
            },
            {
              "tileid": 733,
              "duration": 260
            },
            {
              "tileid": 734,
              "duration": 260
            },
            {
              "tileid": 735,
              "duration": 260
            }
          ]
        },
        {
          "id": 736,
          "animation": [
            {
              "tileid": 736,
              "duration": 260
            },
            {
              "tileid": 737,
              "duration": 260
            },
            {
              "tileid": 738,
              "duration": 260
            },
            {
              "tileid": 739,
              "duration": 260
            },
            {
              "tileid": 740,
              "duration": 260
            },
            {
              "tileid": 741,
              "duration": 260
            },
            {
              "tileid": 742,
              "duration": 260
            },
            {
              "tileid": 743,
              "duration": 260
            }
          ]
        },
        {
          "id": 744,
          "animation": [
            {
              "tileid": 744,
              "duration": 260
            },
            {
              "tileid": 745,
              "duration": 260
            },
            {
              "tileid": 746,
              "duration": 260
            },
            {
              "tileid": 747,
              "duration": 260
            },
            {
              "tileid": 748,
              "duration": 260
            },
            {
              "tileid": 749,
              "duration": 260
            },
            {
              "tileid": 750,
              "duration": 260
            },
            {
              "tileid": 751,
              "duration": 260
            }
          ]
        },
        {
          "id": 752,
          "animation": [
            {
              "tileid": 752,
              "duration": 260
            },
            {
              "tileid": 753,
              "duration": 260
            },
            {
              "tileid": 754,
              "duration": 260
            },
            {
              "tileid": 755,
              "duration": 260
            },
            {
              "tileid": 756,
              "duration": 260
            },
            {
              "tileid": 757,
              "duration": 260
            },
            {
              "tileid": 758,
              "duration": 260
            },
            {
              "tileid": 759,
              "duration": 260
            }
          ]
        },
        {
          "id": 760,
          "animation": [
            {
              "tileid": 760,
              "duration": 260
            },
            {
              "tileid": 761,
              "duration": 260
            },
            {
              "tileid": 762,
              "duration": 260
            },
            {
              "tileid": 763,
              "duration": 260
            },
            {
              "tileid": 764,
              "duration": 260
            },
            {
              "tileid": 765,
              "duration": 260
            },
            {
              "tileid": 766,
              "duration": 260
            },
            {
              "tileid": 767,
              "duration": 260
            }
          ]
        },
        {
          "id": 768,
          "animation": [
            {
              "tileid": 768,
              "duration": 260
            },
            {
              "tileid": 769,
              "duration": 260
            },
            {
              "tileid": 770,
              "duration": 260
            },
            {
              "tileid": 771,
              "duration": 260
            },
            {
              "tileid": 772,
              "duration": 260
            },
            {
              "tileid": 773,
              "duration": 260
            },
            {
              "tileid": 774,
              "duration": 260
            },
            {
              "tileid": 775,
              "duration": 260
            }
          ]
        },
        {
          "id": 776,
          "animation": [
            {
              "tileid": 776,
              "duration": 260
            },
            {
              "tileid": 777,
              "duration": 260
            },
            {
              "tileid": 778,
              "duration": 260
            },
            {
              "tileid": 779,
              "duration": 260
            },
            {
              "tileid": 780,
              "duration": 260
            },
            {
              "tileid": 781,
              "duration": 260
            },
            {
              "tileid": 782,
              "duration": 260
            },
            {
              "tileid": 783,
              "duration": 260
            }
          ]
        },
        {
          "id": 784,
          "animation": [
            {
              "tileid": 784,
              "duration": 260
            },
            {
              "tileid": 785,
              "duration": 260
            },
            {
              "tileid": 786,
              "duration": 260
            },
            {
              "tileid": 787,
              "duration": 260
            },
            {
              "tileid": 788,
              "duration": 260
            },
            {
              "tileid": 789,
              "duration": 260
            },
            {
              "tileid": 790,
              "duration": 260
            },
            {
              "tileid": 791,
              "duration": 260
            }
          ]
        },
        {
          "id": 792,
          "animation": [
            {
              "tileid": 792,
              "duration": 260
            },
            {
              "tileid": 793,
              "duration": 260
            },
            {
              "tileid": 794,
              "duration": 260
            },
            {
              "tileid": 795,
              "duration": 260
            },
            {
              "tileid": 796,
              "duration": 260
            },
            {
              "tileid": 797,
              "duration": 260
            },
            {
              "tileid": 798,
              "duration": 260
            },
            {
              "tileid": 799,
              "duration": 260
            }
          ]
        },
        {
          "id": 800,
          "animation": [
            {
              "tileid": 800,
              "duration": 260
            },
            {
              "tileid": 801,
              "duration": 260
            },
            {
              "tileid": 802,
              "duration": 260
            },
            {
              "tileid": 803,
              "duration": 260
            },
            {
              "tileid": 804,
              "duration": 260
            },
            {
              "tileid": 805,
              "duration": 260
            },
            {
              "tileid": 806,
              "duration": 260
            },
            {
              "tileid": 807,
              "duration": 260
            }
          ]
        },
        {
          "id": 808,
          "animation": [
            {
              "tileid": 808,
              "duration": 260
            },
            {
              "tileid": 809,
              "duration": 260
            },
            {
              "tileid": 810,
              "duration": 260
            },
            {
              "tileid": 811,
              "duration": 260
            },
            {
              "tileid": 812,
              "duration": 260
            },
            {
              "tileid": 813,
              "duration": 260
            },
            {
              "tileid": 814,
              "duration": 260
            },
            {
              "tileid": 815,
              "duration": 260
            }
          ]
        },
        {
          "id": 816,
          "animation": [
            {
              "tileid": 816,
              "duration": 260
            },
            {
              "tileid": 817,
              "duration": 260
            },
            {
              "tileid": 818,
              "duration": 260
            },
            {
              "tileid": 819,
              "duration": 260
            },
            {
              "tileid": 820,
              "duration": 260
            },
            {
              "tileid": 821,
              "duration": 260
            },
            {
              "tileid": 822,
              "duration": 260
            },
            {
              "tileid": 823,
              "duration": 260
            }
          ]
        },
        {
          "id": 824,
          "animation": [
            {
              "tileid": 824,
              "duration": 260
            },
            {
              "tileid": 825,
              "duration": 260
            },
            {
              "tileid": 826,
              "duration": 260
            },
            {
              "tileid": 827,
              "duration": 260
            },
            {
              "tileid": 828,
              "duration": 260
            },
            {
              "tileid": 829,
              "duration": 260
            },
            {
              "tileid": 830,
              "duration": 260
            },
            {
              "tileid": 831,
              "duration": 260
            }
          ]
        },
        {
          "id": 832,
          "animation": [
            {
              "tileid": 832,
              "duration": 260
            },
            {
              "tileid": 833,
              "duration": 260
            },
            {
              "tileid": 834,
              "duration": 260
            },
            {
              "tileid": 835,
              "duration": 260
            },
            {
              "tileid": 836,
              "duration": 260
            },
            {
              "tileid": 837,
              "duration": 260
            },
            {
              "tileid": 838,
              "duration": 260
            },
            {
              "tileid": 839,
              "duration": 260
            }
          ]
        },
        {
          "id": 840,
          "animation": [
            {
              "tileid": 840,
              "duration": 260
            },
            {
              "tileid": 841,
              "duration": 260
            },
            {
              "tileid": 842,
              "duration": 260
            },
            {
              "tileid": 843,
              "duration": 260
            },
            {
              "tileid": 844,
              "duration": 260
            },
            {
              "tileid": 845,
              "duration": 260
            },
            {
              "tileid": 846,
              "duration": 260
            },
            {
              "tileid": 847,
              "duration": 260
            }
          ]
        },
        {
          "id": 848,
          "animation": [
            {
              "tileid": 848,
              "duration": 260
            },
            {
              "tileid": 849,
              "duration": 260
            },
            {
              "tileid": 850,
              "duration": 260
            },
            {
              "tileid": 851,
              "duration": 260
            },
            {
              "tileid": 852,
              "duration": 260
            },
            {
              "tileid": 853,
              "duration": 260
            },
            {
              "tileid": 854,
              "duration": 260
            },
            {
              "tileid": 855,
              "duration": 260
            }
          ]
        },
        {
          "id": 856,
          "animation": [
            {
              "tileid": 856,
              "duration": 260
            },
            {
              "tileid": 857,
              "duration": 260
            },
            {
              "tileid": 858,
              "duration": 260
            },
            {
              "tileid": 859,
              "duration": 260
            },
            {
              "tileid": 860,
              "duration": 260
            },
            {
              "tileid": 861,
              "duration": 260
            },
            {
              "tileid": 862,
              "duration": 260
            },
            {
              "tileid": 863,
              "duration": 260
            }
          ]
        },
        {
          "id": 864,
          "animation": [
            {
              "tileid": 864,
              "duration": 260
            },
            {
              "tileid": 865,
              "duration": 260
            },
            {
              "tileid": 866,
              "duration": 260
            },
            {
              "tileid": 867,
              "duration": 260
            },
            {
              "tileid": 868,
              "duration": 260
            },
            {
              "tileid": 869,
              "duration": 260
            },
            {
              "tileid": 870,
              "duration": 260
            },
            {
              "tileid": 871,
              "duration": 260
            }
          ]
        },
        {
          "id": 872,
          "animation": [
            {
              "tileid": 872,
              "duration": 260
            },
            {
              "tileid": 873,
              "duration": 260
            },
            {
              "tileid": 874,
              "duration": 260
            },
            {
              "tileid": 875,
              "duration": 260
            },
            {
              "tileid": 876,
              "duration": 260
            },
            {
              "tileid": 877,
              "duration": 260
            },
            {
              "tileid": 878,
              "duration": 260
            },
            {
              "tileid": 879,
              "duration": 260
            }
          ]
        }
      ],
      "properties": [
        {
          "name": "tilesetCopyright",
          "type": "string",
          "value": "Original AI-assisted artwork and procedural effects; see LICENSE.assets.txt"
        }
      ]
    },
    {
      "name": "pool-cycle",
      "image": "tilesets/pool-ripple-cycle.png",
      "imagewidth": 1024,
      "imageheight": 96,
      "tilewidth": 32,
      "tileheight": 32,
      "columns": 32,
      "tilecount": 96,
      "margin": 0,
      "spacing": 0,
      "firstgid": 1449,
      "tiles": [
        {
          "id": 0,
          "animation": [
            {
              "tileid": 0,
              "duration": 320
            },
            {
              "tileid": 4,
              "duration": 320
            },
            {
              "tileid": 8,
              "duration": 320
            },
            {
              "tileid": 12,
              "duration": 320
            },
            {
              "tileid": 16,
              "duration": 320
            },
            {
              "tileid": 20,
              "duration": 320
            },
            {
              "tileid": 24,
              "duration": 320
            },
            {
              "tileid": 28,
              "duration": 320
            }
          ]
        },
        {
          "id": 1,
          "animation": [
            {
              "tileid": 1,
              "duration": 320
            },
            {
              "tileid": 5,
              "duration": 320
            },
            {
              "tileid": 9,
              "duration": 320
            },
            {
              "tileid": 13,
              "duration": 320
            },
            {
              "tileid": 17,
              "duration": 320
            },
            {
              "tileid": 21,
              "duration": 320
            },
            {
              "tileid": 25,
              "duration": 320
            },
            {
              "tileid": 29,
              "duration": 320
            }
          ]
        },
        {
          "id": 2,
          "animation": [
            {
              "tileid": 2,
              "duration": 320
            },
            {
              "tileid": 6,
              "duration": 320
            },
            {
              "tileid": 10,
              "duration": 320
            },
            {
              "tileid": 14,
              "duration": 320
            },
            {
              "tileid": 18,
              "duration": 320
            },
            {
              "tileid": 22,
              "duration": 320
            },
            {
              "tileid": 26,
              "duration": 320
            },
            {
              "tileid": 30,
              "duration": 320
            }
          ]
        },
        {
          "id": 3,
          "animation": [
            {
              "tileid": 3,
              "duration": 320
            },
            {
              "tileid": 7,
              "duration": 320
            },
            {
              "tileid": 11,
              "duration": 320
            },
            {
              "tileid": 15,
              "duration": 320
            },
            {
              "tileid": 19,
              "duration": 320
            },
            {
              "tileid": 23,
              "duration": 320
            },
            {
              "tileid": 27,
              "duration": 320
            },
            {
              "tileid": 31,
              "duration": 320
            }
          ]
        },
        {
          "id": 32,
          "animation": [
            {
              "tileid": 32,
              "duration": 320
            },
            {
              "tileid": 36,
              "duration": 320
            },
            {
              "tileid": 40,
              "duration": 320
            },
            {
              "tileid": 44,
              "duration": 320
            },
            {
              "tileid": 48,
              "duration": 320
            },
            {
              "tileid": 52,
              "duration": 320
            },
            {
              "tileid": 56,
              "duration": 320
            },
            {
              "tileid": 60,
              "duration": 320
            }
          ]
        },
        {
          "id": 33,
          "animation": [
            {
              "tileid": 33,
              "duration": 320
            },
            {
              "tileid": 37,
              "duration": 320
            },
            {
              "tileid": 41,
              "duration": 320
            },
            {
              "tileid": 45,
              "duration": 320
            },
            {
              "tileid": 49,
              "duration": 320
            },
            {
              "tileid": 53,
              "duration": 320
            },
            {
              "tileid": 57,
              "duration": 320
            },
            {
              "tileid": 61,
              "duration": 320
            }
          ]
        },
        {
          "id": 34,
          "animation": [
            {
              "tileid": 34,
              "duration": 320
            },
            {
              "tileid": 38,
              "duration": 320
            },
            {
              "tileid": 42,
              "duration": 320
            },
            {
              "tileid": 46,
              "duration": 320
            },
            {
              "tileid": 50,
              "duration": 320
            },
            {
              "tileid": 54,
              "duration": 320
            },
            {
              "tileid": 58,
              "duration": 320
            },
            {
              "tileid": 62,
              "duration": 320
            }
          ]
        },
        {
          "id": 35,
          "animation": [
            {
              "tileid": 35,
              "duration": 320
            },
            {
              "tileid": 39,
              "duration": 320
            },
            {
              "tileid": 43,
              "duration": 320
            },
            {
              "tileid": 47,
              "duration": 320
            },
            {
              "tileid": 51,
              "duration": 320
            },
            {
              "tileid": 55,
              "duration": 320
            },
            {
              "tileid": 59,
              "duration": 320
            },
            {
              "tileid": 63,
              "duration": 320
            }
          ]
        },
        {
          "id": 64,
          "animation": [
            {
              "tileid": 64,
              "duration": 320
            },
            {
              "tileid": 68,
              "duration": 320
            },
            {
              "tileid": 72,
              "duration": 320
            },
            {
              "tileid": 76,
              "duration": 320
            },
            {
              "tileid": 80,
              "duration": 320
            },
            {
              "tileid": 84,
              "duration": 320
            },
            {
              "tileid": 88,
              "duration": 320
            },
            {
              "tileid": 92,
              "duration": 320
            }
          ]
        },
        {
          "id": 65,
          "animation": [
            {
              "tileid": 65,
              "duration": 320
            },
            {
              "tileid": 69,
              "duration": 320
            },
            {
              "tileid": 73,
              "duration": 320
            },
            {
              "tileid": 77,
              "duration": 320
            },
            {
              "tileid": 81,
              "duration": 320
            },
            {
              "tileid": 85,
              "duration": 320
            },
            {
              "tileid": 89,
              "duration": 320
            },
            {
              "tileid": 93,
              "duration": 320
            }
          ]
        },
        {
          "id": 66,
          "animation": [
            {
              "tileid": 66,
              "duration": 320
            },
            {
              "tileid": 70,
              "duration": 320
            },
            {
              "tileid": 74,
              "duration": 320
            },
            {
              "tileid": 78,
              "duration": 320
            },
            {
              "tileid": 82,
              "duration": 320
            },
            {
              "tileid": 86,
              "duration": 320
            },
            {
              "tileid": 90,
              "duration": 320
            },
            {
              "tileid": 94,
              "duration": 320
            }
          ]
        },
        {
          "id": 67,
          "animation": [
            {
              "tileid": 67,
              "duration": 320
            },
            {
              "tileid": 71,
              "duration": 320
            },
            {
              "tileid": 75,
              "duration": 320
            },
            {
              "tileid": 79,
              "duration": 320
            },
            {
              "tileid": 83,
              "duration": 320
            },
            {
              "tileid": 87,
              "duration": 320
            },
            {
              "tileid": 91,
              "duration": 320
            },
            {
              "tileid": 95,
              "duration": 320
            }
          ]
        }
      ],
      "properties": [
        {
          "name": "tilesetCopyright",
          "type": "string",
          "value": "Original AI-assisted artwork and procedural effects; see LICENSE.assets.txt"
        }
      ]
    },
    {
      "name": "lantern-steady",
      "image": "tilesets/lantern-steady.png",
      "imagewidth": 768,
      "imageheight": 576,
      "tilewidth": 32,
      "tileheight": 32,
      "columns": 24,
      "tilecount": 432,
      "margin": 0,
      "spacing": 0,
      "firstgid": 1545,
      "tiles": [],
      "properties": [
        {
          "name": "tilesetCopyright",
          "type": "string",
          "value": "Original AI-assisted artwork and procedural effects; see LICENSE.assets.txt"
        }
      ]
    }
  ]
}