{"type":"map","version":"1.10","tiledversion":"1.11.2","orientation":"orthogonal","renderorder":"right-down","infinite":false,"width":30,"height":24,"tilewidth":32,"tileheight":32,"backgroundcolor":"#344335","layers":[{"id":1,"name":"permanent-collisions","type":"tilelayer","width":30,"height":24,"x":0,"y":0,"visible":true,"opacity":1,"data":[734,734,734,734,734,734,734,734,734,734,734,734,734,734,734,734,734,734,734,734,734,734,734,734,734,734,734,734,734,734,734,734,734,734,734,734,734,734,734,734,734,734,734,734,734,734,734,734,734,734,734,734,734,734,734,734,734,734,734,734,734,734,734,734,734,734,734,734,734,734,734,734,734,734,734,734,734,734,734,734,734,734,734,734,734,734,734,734,734,734,734,734,734,734,734,734,734,734,734,734,734,734,734,734,734,734,734,734,734,734,734,734,734,734,734,734,734,734,734,734,734,734,734,734,734,734,734,734,734,734,734,734,734,734,734,734,734,734,734,734,734,734,734,734,734,734,734,734,734,734,734,734,734,734,734,734,734,734,734,734,734,734,734,734,734,734,734,734,734,734,734,734,734,734,734,734,734,734,734,734,734,734,734,0,734,734,734,734,734,734,734,734,734,734,734,734,734,734,734,734,734,734,734,734,734,734,734,0,734,734,734,734,734,0,734,0,0,0,0,0,0,0,0,0,0,0,0,0,734,0,0,0,0,0,0,0,734,0,734,734,734,734,734,0,734,0,734,734,734,734,734,0,0,0,0,0,0,0,734,0,0,0,0,0,0,0,734,0,734,734,734,734,734,734,734,0,0,0,0,0,0,0,0,0,0,0,0,0,734,0,0,0,0,0,0,0,734,734,734,734,734,734,734,734,734,0,0,0,0,0,0,734,734,734,734,0,0,0,734,0,0,734,734,734,734,0,734,734,734,734,734,734,734,734,734,0,0,0,0,0,0,734,734,734,734,0,0,0,0,0,0,734,734,734,734,0,734,734,734,734,734,734,734,734,734,0,0,0,0,0,0,0,0,0,0,0,0,0,0,0,0,0,0,0,0,0,734,734,734,734,734,734,734,0,734,0,0,0,0,0,0,0,0,0,0,0,0,0,734,0,0,0,0,0,0,0,734,0,734,734,734,734,734,0,734,0,0,734,734,0,0,0,0,0,0,0,0,0,734,0,0,0,0,0,0,0,734,0,734,734,734,734,734,0,734,0,0,0,734,0,734,0,0,0,0,0,0,0,734,734,734,734,734,734,734,734,734,0,734,734,734,734,734,0,734,0,0,0,0,0,0,0,0,0,0,0,0,0,0,0,0,0,0,0,0,0,734,0,734,734,734,734,734,734,734,734,734,734,734,734,734,734,734,734,0,0,0,734,734,734,734,734,734,734,734,734,734,734,734,734,734,734,734,734,0,0,0,0,0,0,0,0,0,0,0,0,0,0,0,0,0,0,0,0,0,0,0,734,734,734,734,734,734,734,734,734,734,734,734,734,734,734,734,0,0,0,0,0,734,734,734,734,734,734,734,734,734,734,734,734,734,734,734,734,734,734,734,734,734,734,734,734,734,0,0,0,0,0,734,734,734,734,734,734,734,734,734,734,734,734,734,734,734,734,734,734,734,734,734,734,734,734,734,0,0,0,0,0,734,734,734,734,734,734,734,734,734,734,734,734,734,734,734,734,734,734,734,734,734,734,734,734,734,0,0,0,0,0,734,734,734,734,734,734,734,734,734,734,734,734,734,734,734,734,734,734,734,734,734,734,734,734,734,0,0,0,0,0,734,734,734,734,734,734,734,734,734,734,734,734]},{"id":2,"name":"ground","type":"tilelayer","width":30,"height":24,"x":0,"y":0,"visible":true,"opacity":1,"data":[1,2,3,4,5,6,7,8,1,2,3,4,5,6,7,8,1,2,3,4,5,6,7,8,1,2,3,4,5,6,9,10,11,12,13,14,15,16,9,10,11,12,13,14,15,16,9,10,11,12,13,14,15,16,9,10,11,12,13,14,17,18,19,20,21,22,23,24,17,18,19,20,21,22,23,24,17,18,19,20,21,22,23,24,17,18,19,20,21,22,25,26,27,28,29,30,31,32,25,26,27,28,29,30,31,32,25,26,27,28,29,30,31,32,25,26,27,28,29,30,33,34,35,36,37,38,39,40,33,34,35,36,37,38,39,40,33,34,35,36,37,38,39,40,33,34,35,36,37,38,41,42,43,44,45,46,47,48,49,50,51,52,53,54,55,56,57,58,59,60,61,62,63,64,65,66,67,68,69,70,71,72,73,74,75,76,77,78,79,80,81,76,77,78,79,80,81,76,77,78,79,80,81,76,77,78,82,83,84,85,86,87,88,89,90,91,92,93,94,95,96,91,92,93,94,97,98,99,100,93,94,95,96,91,92,93,101,102,103,104,1,2,105,106,107,108,109,110,111,112,113,108,109,110,111,114,115,116,117,110,111,112,113,108,109,110,118,119,120,6,9,10,121,122,123,124,125,126,127,128,129,124,125,126,127,130,131,132,133,126,127,128,129,124,125,126,134,135,136,14,17,18,137,138,139,140,141,142,143,144,145,140,141,142,143,146,147,148,149,142,143,144,145,140,141,142,150,151,152,22,25,26,153,154,155,156,157,158,159,160,161,156,157,158,159,162,163,164,165,158,159,160,161,156,157,158,166,167,168,30,33,34,169,74,170,171,172,173,174,175,176,171,172,173,174,177,178,179,180,173,174,175,176,171,172,173,181,182,183,38,41,42,184,89,185,186,187,188,189,190,191,192,193,194,195,196,197,198,199,194,195,200,201,186,193,194,202,102,203,70,71,72,204,106,107,131,205,206,207,208,209,210,211,212,213,114,115,116,214,215,216,217,218,219,220,215,221,119,222,85,86,87,88,122,123,147,223,224,225,226,227,228,229,230,231,130,131,132,232,233,234,235,236,237,238,233,239,135,103,104,1,2,105,138,139,163,240,241,242,243,244,245,246,247,248,146,147,148,249,247,248,250,251,163,246,247,150,151,120,6,9,10,121,154,252,253,254,255,256,257,258,253,254,259,260,162,261,262,263,255,256,257,258,253,254,255,264,265,136,14,17,18,137,266,267,268,269,270,271,272,273,268,269,274,275,276,277,278,269,270,271,272,273,268,269,270,279,280,152,22,25,26,153,281,282,283,284,285,286,281,282,283,284,285,286,281,282,283,284,285,286,281,282,283,284,285,286,281,168,30,33,34,287,288,289,290,291,292,293,294,295,296,297,298,299,300,301,302,303,304,305,306,307,308,309,310,311,312,313,38,41,42,43,314,315,316,317,318,319,320,321,322,315,323,324,325,326,327,321,322,315,316,317,318,319,320,321,328,69,70,71,72,329,330,331,85,332,333,71,72,329,330,331,281,282,283,284,285,329,330,331,85,332,333,71,72,329,330,331,85,86,87,334,335,336,104,337,338,86,87,334,335,336,339,340,341,342,343,334,335,336,104,337,338,86,87,334,335,336,104]},{"id":3,"name":"furniture","type":"tilelayer","width":30,"height":24,"x":0,"y":0,"visible":true,"opacity":1,"data":[0,0,0,0,0,0,0,0,0,0,0,0,0,0,0,0,0,0,0,0,0,0,0,0,0,0,0,0,0,0,0,0,0,0,0,0,0,0,0,0,0,0,0,0,0,0,0,0,0,0,0,0,0,0,0,0,0,0,0,0,0,0,0,0,0,0,0,0,0,0,0,0,0,0,0,0,0,0,0,0,0,0,0,0,0,0,0,0,0,0,0,0,0,0,0,0,0,0,0,0,0,0,0,0,0,0,0,0,0,0,0,0,0,0,0,0,0,0,0,0,0,0,0,0,0,0,0,0,0,0,0,0,0,0,0,0,0,0,0,0,0,0,0,0,0,0,0,0,0,0,0,0,0,0,0,0,0,0,0,0,0,0,0,0,0,0,0,0,0,0,0,0,0,0,0,0,0,0,0,0,0,0,0,0,0,0,0,0,0,0,0,0,0,0,0,0,0,0,0,0,0,0,0,0,0,0,0,0,0,0,0,0,0,0,0,0,344,345,346,347,348,0,0,0,0,0,0,0,0,0,0,0,0,0,0,0,0,0,0,0,0,0,0,0,0,0,349,350,351,352,353,354,355,356,0,0,0,0,0,0,0,354,355,356,0,0,0,0,0,0,0,0,0,0,0,0,357,358,0,359,0,360,361,362,363,0,0,0,0,0,0,360,361,362,363,0,0,0,0,0,0,0,0,0,0,0,0,0,0,0,0,364,365,366,367,0,0,0,0,0,0,364,365,366,367,0,0,0,0,0,0,0,0,0,0,0,0,0,0,0,0,368,369,370,371,0,0,0,0,0,0,368,369,370,371,0,0,0,0,0,0,0,0,0,0,0,0,0,0,0,0,372,373,374,0,0,0,0,0,0,0,372,373,374,0,0,0,0,0,0,0,0,0,0,0,0,375,376,377,378,0,0,0,0,0,0,0,0,0,0,0,0,0,0,0,0,0,0,0,0,0,0,0,0,0,0,379,380,381,382,383,0,0,0,0,0,0,0,0,0,0,0,384,385,0,0,0,0,0,0,0,0,0,0,0,386,387,388,389,390,391,0,0,0,0,0,0,0,0,0,0,0,392,393,0,0,0,0,0,0,0,0,0,0,394,395,396,397,398,399,400,0,0,0,0,0,0,0,0,0,0,0,0,0,401,402,403,0,0,0,0,0,0,0,0,404,405,0,0,0,0,0,0,0,0,0,0,0,0,0,0,0,0,0,406,407,408,0,0,0,0,0,0,0,0,0,0,0,0,0,0,0,0,0,0,0,0,0,0,0,0,0,0,0,0,0,0,0,0,0,0,0,0,0,0,0,0,0,0,0,0,0,0,0,0,0,0,0,0,0,0,0,0,0,0,0,0,0,0,0,0,0,0,0,0,0,0,0,0,0,0,0,0,0,0,0,0,0,0,0,0,0,0,0,0,0,0,0,0,0,0,0,0,0,0,0,0,0,0,0,0,0,0,0,0,0,0,0,0,0,0,0,0,0,0,0,0,0,0,0,0,0,0,0,0,0,0,0,0,0,0,0,0,0,0,0,0,0,0,0,0,0,0,0,0,0,0,0,0,0,0,0,0,0,0,0,0,0,0,0,0,0,0,0,0,0,0,0,0,0,0,0,0,0,0,0,0,0,0,0]},{"id":4,"name":"floorLayer","type":"objectgroup","objects":[],"visible":true,"opacity":1},{"id":5,"name":"glass","type":"tilelayer","width":30,"height":24,"x":0,"y":0,"visible":true,"opacity":1,"data":[0,0,0,0,0,0,0,0,0,0,0,0,0,0,0,0,0,0,0,0,0,0,0,0,0,0,0,0,0,0,0,0,0,0,0,0,0,0,0,0,0,0,0,0,0,0,0,0,0,0,0,0,0,0,0,0,0,0,0,0,0,0,0,0,0,0,0,0,0,0,0,0,0,0,0,0,0,0,0,0,0,0,0,0,0,0,0,0,0,0,0,0,0,0,0,0,0,0,0,0,0,0,0,0,0,0,0,0,0,0,0,0,0,0,0,0,0,0,0,0,0,0,0,0,0,0,0,0,0,0,0,0,0,0,0,0,0,0,0,0,0,0,0,0,0,0,0,0,0,0,0,0,0,0,0,0,0,0,0,0,0,0,0,0,0,0,0,0,0,0,0,0,0,0,0,0,0,0,0,0,0,0,0,0,0,0,0,0,0,0,0,0,0,0,0,0,0,0,0,0,0,0,0,0,0,0,0,0,0,0,0,0,0,409,410,0,0,0,0,0,0,0,0,0,0,0,0,409,410,0,0,0,0,0,0,0,411,412,0,0,0,0,0,413,414,0,0,0,0,0,0,0,0,0,0,0,0,413,414,0,0,0,0,0,0,0,415,416,0,0,0,0,0,409,410,0,0,0,0,0,0,0,0,0,0,0,0,409,410,0,0,0,0,0,0,0,411,412,0,0,0,0,0,413,414,0,0,0,0,0,0,0,0,0,0,0,0,413,414,0,0,0,0,0,0,0,415,416,0,0,0,0,0,409,410,0,0,0,0,0,0,0,0,0,0,0,0,417,418,0,0,0,0,0,0,0,411,412,0,0,0,0,0,413,414,0,0,0,0,0,0,0,0,0,0,0,0,0,0,0,0,0,0,0,0,0,415,416,0,0,0,0,0,409,410,0,0,0,0,0,0,0,0,0,0,0,0,409,419,420,421,420,421,420,421,420,422,412,0,0,0,0,0,413,414,0,0,0,0,0,0,0,0,0,0,0,0,413,423,424,425,424,425,424,425,424,426,416,0,0,0,0,0,409,410,0,0,0,0,0,0,0,0,0,0,0,0,417,427,428,429,428,429,428,429,428,430,412,0,0,0,0,0,413,431,420,421,420,421,420,421,420,421,420,432,0,0,433,420,433,420,433,420,433,420,433,434,416,0,0,0,0,0,435,436,424,425,424,425,424,425,424,425,424,437,0,0,438,439,438,439,438,439,438,439,438,440,441,0,0,0,0,0,0,442,428,429,428,429,428,429,428,429,428,443,0,0,444,428,444,428,444,428,444,428,444,445,0,0,0,0,0,0,0,0,0,0,0,0,0,0,0,0,0,0,0,0,0,0,0,0,0,0,0,0,0,0,0,0,0,0,0,0,0,0,0,0,0,0,0,0,0,0,0,0,0,0,0,0,0,0,0,0,0,0,0,0,0,0,0,0,0,0,0,0,0,0,0,0,0,0,0,0,0,0,0,0,0,0,0,0,0,0,0,0,0,0,0,0,0,0,0,0,0,0,0,0,0,0,0,0,0,0,0,0,0,0,0,0,0,0,0,0,0,0,0,0,0,0,0,0,0,0,0,0,0,0,0,0,0,0,0,0,0,0,0,0,0,0,0,0,0,0,0,0,0,0,0,0,0]},{"id":6,"name":"structure","type":"tilelayer","width":30,"height":24,"x":0,"y":0,"visible":true,"opacity":1,"data":[0,0,0,0,0,0,0,0,0,0,0,0,0,0,0,0,0,0,0,0,0,0,0,0,0,0,0,0,0,0,0,0,0,0,0,0,0,0,0,0,0,0,0,0,0,0,0,0,0,0,0,0,0,0,0,0,0,0,0,0,0,0,0,0,446,447,448,449,450,451,452,453,0,454,455,456,457,458,0,459,460,461,462,0,463,464,0,0,0,0,0,0,0,0,465,466,467,468,469,470,471,472,473,474,475,476,477,478,479,480,481,482,483,484,485,486,0,0,0,0,0,0,0,0,487,488,489,490,491,492,493,494,495,496,497,498,499,500,501,502,503,504,505,506,507,508,0,0,0,0,0,509,510,511,512,513,514,515,516,517,518,519,520,521,522,523,524,525,526,527,528,529,530,531,532,533,534,511,535,536,0,537,538,539,540,541,542,543,544,545,546,547,548,549,550,551,552,553,554,555,556,557,558,559,560,561,562,539,540,563,0,564,565,566,567,568,0,0,0,0,0,0,0,0,0,0,0,0,0,0,0,0,0,0,0,564,565,566,567,568,569,570,571,572,573,0,0,0,0,0,0,0,0,0,0,0,0,0,0,0,0,0,0,0,0,574,575,576,577,578,579,580,581,582,583,0,0,0,0,0,0,0,0,0,0,0,0,0,0,0,0,0,0,0,0,584,585,586,587,588,589,590,591,592,593,0,0,0,0,0,0,0,0,0,0,0,0,0,0,0,0,0,0,0,0,594,595,596,597,598,599,600,601,602,603,0,0,0,0,0,0,0,0,0,0,0,0,0,0,0,0,0,0,0,0,604,605,606,607,608,609,610,611,612,613,0,0,0,0,0,0,0,0,0,0,0,0,0,0,0,0,0,0,0,0,614,615,616,617,618,0,0,0,0,0,0,0,0,0,0,0,0,0,0,0,0,0,0,619,620,620,620,620,620,620,620,621,0,0,0,0,0,0,0,0,0,0,0,0,0,0,0,0,0,0,0,0,0,0,0,0,0,0,0,0,0,0,0,0,0,0,622,623,0,624,0,0,0,0,0,0,0,0,625,626,0,625,626,0,0,0,0,0,0,0,0,627,628,629,630,0,631,632,633,634,635,620,620,620,620,620,620,620,636,637,0,638,639,620,620,620,620,620,620,620,640,641,642,643,644,645,646,647,648,649,650,0,0,0,0,0,0,0,651,652,0,651,652,0,0,0,0,0,0,0,653,654,655,656,657,658,659,660,661,662,663,664,665,666,667,668,669,670,671,0,0,0,672,667,668,669,670,673,674,675,676,677,678,679,680,0,0,0,681,682,683,684,685,686,687,688,689,690,691,0,0,0,692,687,688,689,690,693,694,695,696,697,698,699,700,0,0,0,701,702,703,704,705,706,707,708,709,710,711,0,0,0,712,707,708,709,710,713,714,715,716,717,718,0,0,0,0,0,0,719,720,721,722,723,724,725,726,727,728,0,0,0,0,724,725,726,727,728,729,730,731,732,733,0,0,0,0,0,0,0,0,0,0,0,0,0,0,0,0,0,0,0,0,0,0,0,0,0,0,0,0,0,0,0,0,0,0,0,0,0,0,0,0,0,0,0,0,0,0,0,0,0,0,0,0,0,0,0,0,0,0,0,0,0,0]},{"id":8,"name":"areas","type":"objectgroup","objects":[{"id":1,"name":"team-inside","class":"area","type":"area","x":160,"y":224,"width":672,"height":352,"properties":[]},{"id":2,"name":"start","class":"area","type":"area","x":448,"y":672,"width":96,"height":64,"properties":[{"name":"start","type":"bool","value":true}]},{"id":3,"name":"glass-meeting-room","class":"area","type":"area","x":608,"y":224,"width":224,"height":256}],"visible":true,"opacity":1}],"tilesets":[{"firstgid":1,"name":"proof-0","image":"tilesets/proof-0.png","imagewidth":1024,"imageheight":1024,"tilewidth":32,"tileheight":32,"columns":32,"tilecount":1024,"margin":0,"spacing":0,"tiles":[{"id":733,"properties":[{"name":"collides","type":"bool","value":true}]}]}],"properties":[],"nextlayerid":9,"nextobjectid":4}