{"width":92,"height":82,"tilewidth":32,"tileheight":32,"layers":[{"id":1,"name":"campus-base","type":"tilelayer","x":0,"y":0,"width":92,"height":82,"visible":true,"opacity":1,"data":[1,2,3,4,5,6,7,8,9,10,11,12,13,14,15,16,17,18,19,20,21,22,23,24,25,26,27,28,29,30,31,32,33,34,35,36,37,8922,8923,8924,8925,8926,8927,8928,8929,8930,8931,8932,8933,8934,51,52,53,54,55,56,57,58,59,60,61,62,63,64,65,66,67,68,69,70,8935,0,0,0,0,0,0,0,0,0,0,0,0,0,0,0,0,0,0,0,0,0,72,73,74,75,76,77,78,79,80,81,82,83,84,85,86,87,88,89,90,91,92,93,94,95,96,97,98,99,100,101,102,103,104,105,106,107,108,8936,8937,8938,8939,8940,8941,8942,8943,8944,8945,8946,8947,8948,122,123,124,125,126,127,128,129,130,131,132,133,134,135,136,137,138,139,140,141,8949,0,0,0,0,0,0,0,0,0,0,0,0,0,0,0,0,0,0,0,0,0,143,144,145,146,147,148,149,150,151,152,153,154,155,156,157,158,159,160,161,162,163,164,165,166,167,168,169,170,171,172,173,174,175,176,177,178,179,8950,8951,8952,8953,8954,8955,8956,8957,8958,8959,8960,8961,8962,193,194,195,196,197,198,199,200,201,202,203,204,205,206,207,208,209,210,211,8963,8964,0,0,0,0,0,0,0,0,0,0,0,0,0,0,0,0,0,0,0,0,0,214,215,216,217,218,219,220,221,222,223,224,225,226,227,228,229,230,231,232,233,234,235,236,8965,238,239,240,241,242,243,244,245,246,247,248,249,250,251,252,8966,8967,8968,8969,8970,8971,259,8972,8973,8974,263,264,265,266,267,268,269,270,271,272,273,274,275,276,277,278,279,280,281,282,8975,8976,0,0,0,0,0,0,0,0,0,0,0,0,0,0,0,0,0,0,0,0,0,285,286,287,288,289,290,291,292,293,294,295,296,297,298,299,300,301,302,303,304,305,306,307,8977,309,310,311,312,313,314,315,316,317,318,319,320,321,322,323,324,325,326,327,328,329,330,331,332,333,334,335,336,337,338,339,340,341,342,343,344,345,346,347,348,349,350,351,352,353,354,8978,8979,0,0,0,0,0,0,0,0,0,0,0,0,0,0,0,0,0,0,0,0,357,358,359,360,361,362,363,364,365,366,367,368,369,370,371,372,373,374,375,376,377,378,379,8980,381,382,383,384,385,386,387,388,389,390,391,392,393,394,395,396,397,398,399,400,401,402,403,404,405,406,407,408,409,410,411,412,413,414,415,416,417,418,419,420,421,422,423,424,425,426,8981,0,0,0,0,0,0,0,0,0,0,0,0,0,0,0,0,0,0,0,0,0,428,429,430,431,432,433,434,435,436,437,438,439,440,441,442,443,444,445,446,447,448,449,450,8982,452,453,454,455,456,457,458,459,460,461,462,463,464,465,466,467,468,469,470,471,472,473,474,475,476,477,478,479,480,481,482,483,484,485,486,487,488,489,490,491,492,493,494,495,496,497,8983,8984,0,0,0,0,0,0,0,0,0,0,0,0,0,0,0,0,0,0,0,0,500,501,502,503,504,505,506,507,508,509,510,511,512,513,514,515,516,517,518,519,520,521,522,8985,524,525,526,527,528,529,530,531,532,533,534,535,536,537,538,539,540,541,542,543,544,545,546,547,548,549,550,551,552,553,554,555,556,557,558,559,560,561,562,563,564,565,566,567,568,569,570,571,8986,0,0,0,0,0,0,0,0,0,0,0,0,0,0,0,0,0,0,0,573,574,575,576,577,578,579,580,581,582,583,584,585,586,587,588,589,590,591,592,593,594,595,8987,597,598,599,600,601,602,603,604,605,606,607,608,609,610,611,612,613,614,615,616,617,618,619,620,621,622,623,624,625,626,627,628,629,630,631,632,633,634,635,636,637,638,639,640,641,8988,8989,8990,8991,0,0,0,0,0,0,0,0,0,0,0,0,0,0,0,0,0,0,0,646,647,648,649,650,651,652,653,654,655,656,657,658,659,660,661,662,663,664,665,666,667,668,8992,670,671,672,673,674,675,676,677,678,679,680,681,682,683,684,685,686,687,688,689,690,691,692,693,694,695,696,697,698,699,700,701,702,703,704,705,706,707,708,709,710,711,712,713,183,8993,8994,8995,8996,8997,0,0,0,0,0,0,0,0,0,0,0,0,0,0,0,0,0,0,715,716,717,718,719,720,721,722,723,724,725,726,727,728,729,730,731,732,733,734,735,736,737,8998,739,740,741,742,743,744,745,746,747,748,749,750,751,752,753,754,755,756,757,758,759,760,761,762,763,764,765,766,767,768,769,770,771,772,773,774,775,776,777,778,779,780,781,782,783,8999,9000,9001,9002,9003,9004,9005,0,0,0,0,0,0,0,0,0,0,0,0,0,0,0,0,790,791,792,793,794,795,796,797,798,799,800,801,802,803,804,805,806,807,808,809,810,811,812,9006,814,815,816,817,818,819,820,821,822,823,824,825,826,827,828,829,830,831,832,833,834,835,836,837,838,839,840,841,842,843,844,845,846,847,848,849,850,851,852,853,854,855,856,857,858,9007,9008,9009,9010,9011,9012,9013,9014,0,0,0,0,0,0,0,0,0,0,0,0,0,0,0,866,867,868,869,870,871,872,873,874,875,876,877,878,879,880,881,882,883,884,885,886,887,888,9015,890,891,892,893,894,895,896,897,898,899,900,901,902,903,904,905,906,907,908,909,910,911,912,913,914,915,916,917,918,919,920,921,922,923,924,925,926,927,928,929,930,931,932,933,934,9016,9017,9018,9019,9020,9021,9022,9023,9024,9025,0,0,0,0,0,0,0,0,0,0,0,0,0,944,945,946,947,948,949,950,951,952,953,954,955,956,957,958,959,960,961,962,963,964,965,966,9026,968,969,970,971,972,973,974,975,976,977,978,979,980,981,982,983,984,985,986,987,988,989,990,991,992,993,994,995,996,997,998,999,1000,1001,1002,1003,1004,1005,1006,1007,1008,1009,1010,1011,1012,9027,9028,9029,9030,9031,9032,9033,9034,9035,9036,9037,0,0,0,0,0,0,0,0,0,0,0,0,1022,1023,1024,1025,1026,1027,1028,1029,1030,1031,1032,1033,1034,1035,1036,1037,1038,1039,1040,1041,1042,1043,1044,9038,1046,1047,1048,1049,1050,1051,1052,1053,1054,1055,1056,1057,1058,1059,1060,1061,1062,1063,1064,1065,1066,1067,1068,1069,1070,1071,1072,1073,1074,1075,1076,1077,1078,1079,1080,1081,1082,1083,1084,1085,1086,1087,1088,1089,1090,9039,9040,9041,9042,9043,9044,9045,9046,9047,9048,9049,9050,9051,9052,0,0,0,0,0,0,0,0,0,1103,1104,1105,1106,1107,1108,1109,1110,1111,1112,1113,1114,1115,1116,1117,1118,1119,1120,1121,1122,1123,1124,1125,9053,1127,1128,1129,1130,1131,1132,1133,1134,1135,1136,1137,1138,1139,1140,1141,1142,1143,1144,1145,1146,1147,1148,1149,1150,1151,1152,1153,1154,1155,1156,1157,1158,1159,1160,1161,1162,1163,1164,1165,1166,1167,1168,1169,1170,1171,9054,9055,9056,9057,9058,9059,9060,9061,9062,9063,9064,9065,9066,9067,9068,0,0,0,0,0,0,0,0,1186,1187,1188,1189,1190,1191,1192,1193,1194,1195,1196,1197,1198,1199,1200,1201,1202,1203,1204,1205,1206,1207,1208,9069,1210,1211,1212,1213,1214,1215,1216,1217,1218,1219,1220,1221,1222,1223,1224,1225,1226,1227,1228,1229,1230,1231,1232,1233,1234,1235,1236,1237,1238,1239,1240,1241,1242,1243,1244,1245,1246,1247,1248,1249,1250,1251,1252,1253,1254,9070,9071,9072,9073,9074,9075,9076,9077,9078,9079,9080,9081,9082,9083,9084,0,0,0,0,0,0,0,0,1270,1271,1272,1273,1274,1275,1276,1277,1278,1279,1280,1281,1282,1283,1284,1285,1286,1287,1288,1289,1290,1291,1292,9085,1294,1295,1296,1297,1298,1299,1300,1301,1302,1303,1304,1305,1306,1307,1308,1309,1310,1311,1312,1313,1314,1315,1316,1317,1318,1319,1320,1321,1322,1323,1324,1325,1326,1327,1328,1329,1330,1331,1332,1333,1334,1335,1336,1337,1338,9086,9087,9088,9089,9090,9091,9092,9093,9094,9095,9096,9097,9098,9099,9100,9101,0,0,0,0,0,0,0,1355,1356,1357,1358,1359,1360,1361,1362,1363,1364,1365,1366,1367,1368,1369,1370,1371,1372,1373,1374,1375,1376,1377,9102,1379,1380,1381,1382,1383,1384,1385,1386,1387,1388,1389,1390,1391,1392,1393,1394,1395,1396,1397,1398,1399,1400,1401,1402,1403,1404,1405,1406,1407,1408,1409,1410,1411,1412,1413,1414,1415,1416,1417,1418,1419,1420,1421,1422,1423,9103,9104,9105,9106,9107,9108,9109,9110,9111,9112,9113,9114,9115,9116,9117,9118,0,0,0,0,0,0,0,1440,1441,1442,1443,1444,1445,1446,1447,1448,1449,1450,1451,1452,1453,1454,1455,1456,1457,1458,1459,1460,1461,1462,9119,1464,1465,1466,1467,1468,1469,1470,1471,1472,1473,1474,1475,1476,1477,1478,1479,1480,1481,1482,1483,1484,1485,1486,1487,1488,1489,1490,1491,1492,1493,1494,1495,1496,1497,1498,1499,1500,1501,1502,1503,1504,1505,1506,1507,1508,9120,9121,9122,9123,9124,9125,9126,9127,9128,9129,9130,9131,9132,9133,9134,9135,0,0,0,0,0,0,0,1525,1526,1527,1528,1529,1530,1531,1532,1533,1534,1535,1536,1537,1538,1539,1540,1541,1542,1543,1544,1545,1546,1547,9136,1549,1550,1551,1552,1553,1554,1555,1556,1557,1558,1559,1560,1561,1562,1563,1564,1565,1566,1567,1568,1569,1570,1571,1572,1573,1574,1575,1576,1577,1578,1579,1580,1581,1582,1583,1584,1585,1586,1587,1588,1589,1590,1591,1592,1593,9137,9138,9139,9140,9141,9142,9143,9144,9145,9146,9147,9148,9149,9150,9151,9152,9153,9154,0,0,0,0,0,1611,1612,1613,1614,1615,1616,1617,1618,1619,1620,1621,1622,1623,1624,1625,1626,1627,1628,1629,1630,1631,1632,1633,9155,1635,1636,1637,1638,1639,1640,1641,1642,1643,1644,1645,1646,1647,1648,1649,1650,1651,1652,1653,1654,1655,1656,1657,1658,1659,1660,1661,1662,1663,1664,1665,1666,1667,1668,1669,1670,1671,1672,1673,1674,1675,1676,1677,1678,1679,9156,9157,9158,9159,9160,9161,9162,9163,9164,9165,9166,9167,9168,9169,9170,9171,9172,9173,0,0,0,0,0,1697,1698,1699,1700,1701,1702,1703,1704,1705,1706,1707,1708,1709,1710,1711,1712,1713,1714,1715,1716,1717,1718,1719,9174,1721,1722,1723,1724,1725,1726,1727,1728,1729,1730,1731,1732,1733,1734,1735,1736,1737,1738,1739,1740,1741,1742,1743,1744,1745,1746,1747,1748,1749,1750,1751,1752,1753,1754,1755,1756,1757,1758,1759,1760,1761,1762,1763,1764,1765,9175,9176,9177,9178,9179,9180,9181,9182,9183,9184,9185,9186,9187,9188,9189,9190,9191,9192,0,0,0,0,0,1783,1784,1785,1786,1787,1788,1789,1790,1791,1792,1793,1794,1795,1796,1797,1798,1799,1800,1801,1802,1803,1804,1805,9193,1210,1211,1806,1807,1808,1809,1810,1811,1812,1813,1814,1807,1815,1816,1817,1818,1819,1820,1821,1822,1823,1824,1825,1826,1827,1828,1829,1830,1831,1832,1833,1834,1835,1836,1837,1838,1839,1840,1841,1842,1843,1844,1845,1846,1847,9194,9195,9196,9197,9198,9199,9200,9201,9202,9203,9204,9205,9206,9207,9208,9209,9210,9211,0,0,0,0,0,1865,1866,1867,1868,1869,1870,1871,1872,1873,1874,1875,1876,1877,1878,1879,1880,1881,1882,1883,1884,1885,1886,1887,9212,1294,1295,1888,1889,1890,1891,1892,1893,1894,1895,1896,1889,1897,1898,1899,1900,1901,1902,1903,1904,1905,1906,1907,1908,1909,1910,1911,1912,1913,9213,9214,9215,9216,1918,1919,1920,1921,1922,1923,1924,1925,1926,1927,1928,1929,9217,9218,9219,9220,9221,9222,9223,9224,9225,9226,9227,9228,9229,9230,9231,9232,9233,9234,0,0,0,0,0,1948,1949,1950,1951,1952,1953,1954,1955,1956,1957,1958,1959,1960,1961,1962,1963,1964,1965,1966,1967,1968,1969,1970,9235,1379,1380,1971,1972,1973,1974,1975,1976,1977,1978,1979,1972,1980,1981,1982,1983,1984,1985,1986,1987,1988,1989,1990,1991,1992,1993,1994,1995,1996,9236,9237,9238,9239,2000,2001,2002,2003,2004,2005,2006,2007,2008,2009,2010,2011,9240,9241,9242,9243,9244,9245,9246,9247,9248,9249,9250,9251,9252,9253,9254,9255,9256,9257,9258,0,0,0,0,2030,2031,2032,2033,2034,2035,2036,2037,2038,2039,2040,2041,2042,2043,2044,2045,2046,2047,2048,2049,2050,2051,2052,9259,1464,1465,2053,2054,2055,2056,2057,2058,2059,2060,2061,2054,2062,2063,2064,2065,2066,2067,2068,2069,2070,2071,2072,2073,2074,2075,2076,2077,2078,9260,9261,9262,9263,2082,2083,2084,2085,2086,2087,2088,2089,2090,2091,2092,2093,9264,9265,9266,9267,9268,9269,9270,9271,9272,9273,9274,9275,9276,9277,9278,9279,9280,9281,9282,0,0,0,0,2112,2113,2114,2115,2116,2117,2118,2119,2120,2121,2122,2123,2124,2125,2126,2127,2128,2129,2130,2131,2132,2133,2134,9283,1549,1550,2135,1807,2136,2137,2138,2139,2140,2141,2142,1807,1815,2143,2144,2145,2146,2147,2148,2149,2150,2151,2152,2153,2154,2155,2156,2157,2158,2159,1579,2160,2161,2162,2163,2164,2165,2166,2167,2168,2169,2170,2171,2172,2173,9284,9285,9286,9287,9288,9289,9290,9291,9292,9293,9294,9295,9296,9297,9298,9299,9300,9301,9302,0,0,0,0,2192,2193,2194,2195,2196,2197,2198,2199,2200,2201,2202,2203,2204,2205,2206,2207,2208,2209,2210,2211,2212,2213,2214,9303,1635,1636,2215,1889,1897,2216,2217,1889,1897,2216,2217,1889,1897,2218,684,685,686,2219,2220,2221,2222,2223,2224,2225,2226,2227,2228,2229,2230,2231,1665,9304,9305,2234,2235,9306,2237,2238,2239,2240,2241,2242,2243,2244,2245,9307,9308,9309,9310,9311,9312,9313,9314,9315,9316,9317,9318,9319,9320,9321,9322,9323,9324,9325,0,0,0,0,2264,2265,2266,2267,2268,2269,2270,2271,2272,2273,2274,2275,2276,2277,2278,2279,2280,2281,2282,2283,2284,2285,2286,9326,1721,1722,2287,1972,1980,2288,2289,1972,1980,2288,2289,1972,1980,9327,753,754,755,9328,2292,2293,2294,2295,2296,2297,2298,2299,2300,2301,2302,2303,2304,9329,9330,2307,2308,9331,2310,2311,2312,2313,2314,2315,2316,2317,2318,9332,9333,9334,9335,9336,9337,9338,9339,9340,9341,9342,9343,9344,9345,9346,9347,9348,9349,9350,0,0,0,0,2337,2338,2339,2340,2341,2342,2343,2344,2345,2346,2347,2348,2349,2350,2351,2352,2353,2354,2355,2356,2357,2358,2359,9351,2361,2362,2363,2364,2365,2366,2367,2368,2369,2370,2371,2372,2373,9352,828,829,830,9353,2376,2377,2378,2379,2380,2381,2382,2383,2384,2385,2386,2387,2388,9354,9355,2391,2392,9356,2394,2395,2396,2397,2398,2399,2400,2401,2402,9357,9358,9359,9360,9361,9362,9363,9364,9365,9366,9367,9368,9369,9370,9371,9372,9373,9374,0,0,0,0,0,2420,2421,2422,2423,2424,2425,2426,2427,2428,2429,2430,2431,2432,2433,2434,2435,2436,2437,2438,2439,2440,2441,2442,9375,9376,9377,9378,9379,9380,9381,9382,9383,9384,9385,9386,9387,9388,9389,4872,4873,4872,9390,9391,9392,9393,9394,9395,9396,9397,9398,9399,9400,9401,9402,9403,9404,9405,4872,4873,9406,9407,9408,9409,9410,9411,9412,9413,9414,9415,9416,9417,9418,9419,9420,9421,9422,9423,9424,9425,9426,9427,9428,9429,9430,9431,9432,9433,0,0,0,0,0,2505,2506,2507,2508,2509,2510,2511,2512,2513,2514,2515,2516,2517,9434,9435,9436,9437,9438,9439,9440,9441,9442,9443,9444,9445,9446,9447,9448,9449,9450,9451,9452,9453,9454,9455,9456,9457,9458,9459,9460,9461,9462,9463,9464,9465,9466,9467,9468,9469,9470,9471,9472,9473,9474,9475,9476,9477,9478,9479,9480,2544,2545,2546,2547,2548,2549,2550,2551,2552,9481,9482,9483,9484,9485,9486,9487,9488,9489,9490,9491,9492,9493,9494,9495,9496,9497,9498,0,0,0,0,0,2572,2573,2574,2575,2576,2577,2578,2579,2580,2581,2582,2583,2584,9499,9500,9501,9502,9503,9504,9505,9506,9507,9508,9509,9510,9511,9512,9513,9514,9515,9516,9517,9518,9519,9520,9521,9522,9523,9524,9525,9526,9527,9528,9529,9530,9531,9532,9533,9534,9535,9536,9537,9538,9539,9540,9541,9542,9543,9544,9545,2611,2612,2613,2614,2615,2616,2617,2618,2619,9546,9547,9548,9549,9550,9551,9552,9553,9554,9555,9556,9557,9558,9559,9560,9561,9562,9563,9564,0,0,0,0,2639,2640,2641,2642,2643,2644,2645,2646,2647,2648,2649,2650,2651,9565,9566,9567,9568,9569,9570,9571,9572,9573,9574,9575,9576,9577,9578,9579,9580,9581,9582,9583,9584,9585,9586,9587,9588,9589,9590,9591,9592,9593,9594,9595,9596,9597,9598,9599,9600,9601,9602,9603,9604,9605,9606,9607,9608,9609,9610,9611,2678,2679,2680,2681,2682,2683,2684,2685,2686,2687,2688,2689,2690,2691,2692,2693,2694,2695,2696,2697,2698,2699,2700,2701,2702,2703,2704,2705,0,0,0,0,2706,2707,2708,2709,2710,2711,2712,2713,2714,2715,2716,2717,2718,9612,9613,9614,9615,9616,9617,9618,9619,9620,9621,9622,9623,9624,9625,9626,9627,9628,9629,9630,9631,9632,9633,9634,9635,9636,2744,2745,2746,9637,9638,9639,9640,9641,9642,9643,9644,9645,9646,9647,9648,9649,9650,9651,9652,9653,9654,9655,2750,2751,2752,2753,2754,2755,2756,2757,2758,2759,2760,2761,2762,2763,2764,2765,2766,2767,2768,2769,2770,2771,2772,2773,2774,2775,2776,2777,0,0,0,0,9656,9657,9658,9659,9660,9661,9662,9663,9664,9665,9666,9667,9668,9669,9670,9671,9672,9673,9674,9675,2798,2799,2800,2801,2802,2803,2804,2805,2806,2807,2808,2809,2810,2811,2812,2813,2814,2815,2816,2817,2818,110,111,112,113,114,115,116,117,118,119,120,121,122,123,124,125,2819,2820,2821,2822,2823,2824,2825,2826,2827,2828,2829,2830,2831,2832,2833,2834,2835,2836,2837,2838,2839,2840,2841,2842,2843,2844,2845,2846,2847,2848,2849,0,0,0,0,9676,2851,2852,2853,2854,2855,2856,2857,2858,2859,2860,2861,2862,2863,2864,2865,2866,2867,9677,9678,2870,2871,2872,2873,2874,2875,2876,2877,2878,2879,2880,2881,2882,2883,2884,2885,2886,2887,2888,2889,2890,181,182,183,184,185,186,187,188,189,190,191,192,193,194,195,196,2891,2892,2893,2894,2895,2896,2897,2898,2899,2900,2901,2902,2903,2904,2905,2906,2907,2908,2909,2910,2911,2912,2913,2914,2915,2916,2917,2918,2919,2920,2921,0,0,0,0,9679,2923,2924,2925,2926,2927,2928,2929,2930,2931,2932,2933,2934,2935,2936,2937,2938,2939,9680,9681,2942,2943,2944,2945,2946,2947,2948,2949,2950,2951,2952,2953,2954,2955,2956,2957,2958,2959,2960,2961,2962,2963,2964,783,784,785,786,787,2965,2966,2967,2968,2969,2970,2971,2972,2973,2974,2975,2976,2977,2978,2979,2980,2981,2982,2983,2984,2985,2986,2987,2988,2989,2990,2991,2992,2993,2994,2995,2996,2997,2998,2999,3000,3001,3002,3003,3004,0,0,0,0,9682,3006,3007,3008,3009,3010,3011,3012,3013,3014,3015,3016,3017,3018,3019,3020,3021,3022,9683,9684,3025,3026,3027,3028,3029,3030,3031,3032,3033,3034,3035,3036,3037,3038,3039,3040,3041,3042,3043,3044,3045,3046,3047,858,859,860,861,862,863,864,3048,3049,3050,3051,3052,3053,3054,3055,3056,3057,3058,3059,3060,3061,3062,3063,3064,3065,3066,3067,3068,3069,3070,3071,3072,3073,3074,3075,3076,3077,3078,3079,3080,3081,3082,3083,3084,3085,3086,3087,3088,9685,9686,3091,3092,3093,3094,3095,3096,3097,3098,3099,3100,3101,3102,3103,3104,3105,3106,3107,9687,9688,3110,3111,3112,3113,3114,3115,3116,3117,3118,3119,3120,3121,3122,3123,3124,3125,3126,3127,3128,3129,3130,3131,3132,934,935,936,937,938,939,940,3133,3134,3135,3136,3137,3138,3139,3140,3141,3142,3143,3144,3145,3146,3147,3148,3149,3150,3151,3152,3153,3154,3155,3156,3157,3158,3159,3160,3161,3162,3163,3164,3165,3166,3167,3168,3169,3170,3171,3172,3173,3174,9689,3176,3177,9690,9691,9692,9693,3182,9694,9695,9696,9697,3187,9698,9699,9700,9701,3192,9702,9703,3195,3196,3197,3198,3199,3200,3201,3202,3203,3204,3205,3206,3207,3208,3209,3210,3211,3212,3213,3214,3215,3216,3217,1012,1013,1014,1015,1016,1017,1018,1019,1020,3218,3219,3220,3221,3222,3223,3224,3225,3226,3227,3228,3229,3230,3231,3232,3233,3234,3235,3236,3237,3238,3239,3240,3241,3242,3243,3244,3245,3246,3247,3248,3249,3250,3251,3252,3253,3254,3255,3256,3257,9704,3259,3260,9705,9706,9707,9708,3265,9709,9710,9711,9712,3270,9713,9714,9715,9716,3275,9717,9718,3278,3279,3280,3281,3282,3283,3284,3285,3286,3287,3288,3289,3290,3291,3292,3293,3294,3295,3296,3297,3298,3299,3300,1090,1091,1092,1093,1094,1095,1096,1097,1098,3301,3302,3303,3304,3305,3306,3307,3308,3309,3310,3311,3312,3313,3314,3315,3316,3317,3318,3319,3320,3321,3322,3323,3324,3325,3326,3327,3328,3329,3330,3331,3332,3333,3334,3335,3336,3337,3338,3339,3340,9719,3342,3343,9720,9721,9722,9723,3348,9724,9725,9726,9727,3353,9728,9729,9730,9731,3358,9732,9733,3361,3362,3363,3364,3365,3366,3367,3368,3369,3370,3371,3372,3373,3374,3375,3376,3377,3378,3379,3380,3381,3382,3383,3384,3385,1173,1174,1175,1176,1177,1178,1179,1180,1181,1182,3386,3387,3388,3389,3390,3391,3392,3393,3394,3395,3396,3397,3398,3399,3400,3401,3402,3403,3404,3405,3406,3407,3408,3409,3410,3411,3412,3413,3414,3415,3416,3417,3418,3419,3420,3421,3422,9734,3424,3425,9735,9736,9737,9738,3430,9739,9740,9741,9742,3435,9743,9744,9745,9746,9747,9748,9749,3443,3444,3445,3446,3447,3448,3449,3450,3451,3452,3453,3454,3455,3456,3457,3458,3459,3460,3461,3462,3463,3464,3465,3466,3467,1256,1257,1258,1259,1260,1261,1262,1263,1264,1265,1266,1267,9750,9751,9752,9753,9754,9755,9756,9757,3476,3477,3478,3479,3480,3481,3482,3483,3484,3485,3486,3487,3488,3489,3490,3491,3492,3493,3494,3495,3496,3497,3498,3499,3500,3501,3502,9758,3504,3505,3506,9759,9760,3509,3510,3511,9761,9762,3514,3515,3516,9763,9764,3519,9765,9766,9767,9768,3524,3525,3526,3527,3528,3529,3530,3531,3532,3533,3534,3535,3536,3537,3538,3539,3540,3541,3542,3543,3544,3545,3546,3547,3548,3549,3550,3551,3552,3553,3554,3555,3556,3557,9769,9770,9771,9772,9773,9774,9775,9776,9777,9778,9779,9780,3570,3571,3572,3573,3574,3575,3576,3577,3578,3579,3580,3581,3582,3583,3584,3585,3586,3587,3588,3589,3590,3591,3592,3593,3594,9781,3596,3597,3598,3599,3600,3601,3602,3603,3604,3605,3606,3607,3608,3609,3610,3611,9782,9783,4872,4873,9784,3617,3618,3619,3620,3621,3622,3623,3624,3625,3626,3627,3628,3629,3630,3631,3632,3633,3634,3635,3636,3637,3638,3639,3640,3641,3642,3643,3644,3645,3646,3647,3648,3649,9785,9786,9787,9788,9789,9790,9791,9792,9793,9794,9795,9796,9797,3663,3664,3665,3666,3667,3668,3669,3670,3671,3672,3673,3674,3675,3676,3677,3678,3679,3680,3681,3682,3683,3684,3685,3686,9798,3688,3689,3690,9799,9800,3693,3694,3695,9801,9802,3698,3699,3700,9803,9804,3703,3704,9805,4964,4965,9806,3709,3710,3711,3712,3713,3714,3715,3716,3717,3718,3719,3720,3721,3722,3723,3724,3725,3726,3727,3728,3729,3730,3731,3732,3733,3734,3735,3736,3737,3738,3739,3740,3741,9807,9808,9809,9810,9811,9812,9813,9814,9815,9816,9817,9818,9819,3755,3756,3757,3758,3759,3760,3761,3762,3763,3764,3765,3766,3767,3768,3769,3770,3771,3772,3773,3774,3775,3776,3777,3778,9820,3780,3781,3782,9821,9822,3785,3786,3787,9823,9824,3790,3791,3792,9825,9826,3795,9827,9828,5056,5057,3800,3801,3802,3803,3804,3805,3806,3807,3808,3809,3810,3811,3812,3813,3814,3815,3816,3817,3818,3819,3820,3821,3822,3823,3824,3825,3826,3827,3828,3829,3830,3831,3832,3833,9829,9830,9831,9832,9833,9834,9835,9836,9837,9838,9839,9840,9841,3847,3848,3849,3850,3851,3852,3853,3854,3855,3856,3857,3858,3859,3860,3861,3862,3863,3864,3865,3866,3867,3868,3869,3870,9842,3872,3873,3874,9843,9844,3877,3878,3879,9845,9846,3882,3883,3884,9847,9848,3887,9849,9850,5148,5149,3892,3893,3894,3895,3896,3897,3898,3899,3900,3901,3902,3903,3904,3905,3906,3907,3908,3909,3910,3911,3912,3913,3914,3915,3916,3917,3918,3919,3920,3921,3922,3923,3924,3925,9851,9852,9853,9854,9855,9856,9857,9858,9859,9860,9861,9862,9863,3939,3940,3941,3942,3943,3944,3945,3946,3947,3948,3949,3950,3951,3952,3953,3954,3955,3956,3957,3958,3959,3960,3961,3962,9864,3964,3965,3966,3967,3968,3969,3970,3971,3972,3973,3974,3975,3976,3977,3978,3979,3980,9865,9866,3983,3984,3985,3986,3987,3988,3989,3990,3991,3992,3993,3994,3995,3996,3997,3998,3999,4000,4001,4002,4003,4004,4005,4006,4007,4008,4009,4010,4011,4012,4013,4014,4015,4016,4017,9867,9868,9869,9870,9871,9872,9873,9874,9875,9876,9877,9878,4030,4031,4032,4033,4034,4035,4036,4037,4038,4039,4040,4041,4042,4043,4044,4045,4046,4047,4048,4049,4050,4051,4052,4053,4054,9879,4056,4057,4058,4059,4060,4061,4062,4063,4064,4065,4066,4067,4068,4069,4070,4071,4072,9880,9881,4075,4076,4077,4078,4079,4080,4081,4082,4083,4084,4085,4086,4087,4088,4089,4090,4091,4092,4093,4094,4095,4096,4097,4098,4099,4100,4101,4102,4103,4104,4105,4106,4107,4108,4109,4110,4111,9882,9883,9884,9885,9886,4117,4118,4119,4120,4121,4122,4123,4124,4125,4126,4127,4128,4129,4130,4131,4132,4133,4134,4135,4136,4137,4138,4139,4140,4141,4142,4143,4144,4145,4146,9887,4148,4149,4150,4151,4152,4153,4154,4155,4156,4157,4158,4159,4160,4161,4162,4163,4164,9888,9889,4167,4168,4169,4170,4171,4172,4173,4174,4175,4176,4177,4178,4179,4180,4181,4182,4183,4184,4185,4186,4187,4188,4189,4190,4191,4192,4193,4194,4195,4196,4197,4198,4199,4200,4201,4202,4203,4204,4205,4206,4207,4208,4209,4210,4211,4212,4213,4214,4215,4216,4217,4218,4219,4220,4221,4222,4223,4224,4225,4226,4227,4228,4229,4230,4231,4232,4233,4234,4235,4236,4237,4238,9890,4240,4241,4242,4243,4244,4245,4246,4247,4248,4249,4250,4251,4252,4253,4254,4255,4256,9891,9892,4259,4260,4261,4262,4263,4264,4265,4266,4267,4268,4269,4270,4271,4272,4273,4274,4275,4276,4277,4278,4279,4280,4281,4282,4283,4284,4285,4286,4287,4288,4289,4290,4291,4292,4293,4294,4295,4296,4297,4298,4299,4300,4301,4302,4303,4304,4305,4306,4307,4308,4309,4310,4311,4312,4313,4314,4315,4316,4317,4318,4319,4320,4321,4322,4323,4324,4325,4326,4327,4328,4329,4330,9893,4332,4333,4334,4335,4336,4337,4338,4339,4340,4341,4342,4343,4344,4345,4346,4347,4348,9894,9895,4351,4352,4353,4354,4355,4356,4357,4358,4359,4360,4361,4362,4363,4364,4365,4366,4367,4368,4369,4370,4371,4372,4373,4374,4375,4376,4377,4378,4379,4380,4381,4382,4383,4384,4385,4386,4387,4388,4389,4390,4391,4392,4393,4394,4395,4396,4397,4398,4399,4400,4401,4402,4403,4404,4405,4406,4407,4408,4409,4410,4411,4412,4413,4414,4415,4416,4417,4418,4419,4420,4421,4422,9896,4424,4425,4426,4427,4428,4429,4430,4431,4432,4433,4434,4435,4436,4437,4438,4439,4440,9897,9898,4443,4444,4445,4446,4447,4448,4449,4450,4451,4452,4453,4454,4455,4456,4457,4458,4459,4460,4461,4462,4463,4464,4465,4466,4467,4468,4469,4470,4471,4472,4473,4474,4475,4476,4477,4478,4479,4480,4481,4482,4483,4484,4485,4486,4487,4488,4489,4490,4491,4492,4493,4494,4495,4496,4497,4498,4499,4500,4501,4502,4503,4504,4505,4506,4507,4508,4509,4510,4511,4512,4513,4514,9899,4516,4517,4518,4519,4520,4521,4522,4523,4524,4525,4526,4527,4528,4529,4530,4531,4532,9900,9901,4535,4536,4537,4538,4539,4540,4541,4542,4543,4544,4545,4546,4547,4548,4549,4550,4551,4552,4553,4554,4555,4556,4557,4558,4559,4560,4561,4562,4563,4564,4565,4566,4567,4568,4569,4570,4571,4572,4573,4574,4575,4576,4577,4578,4579,4580,4581,4582,4583,4584,4585,4586,4587,4588,4589,4590,4591,4592,4593,4594,4595,4596,4597,4598,4599,4600,4601,4602,4603,4604,4605,4606,9902,4608,4609,4610,4611,4612,4613,4614,4615,4616,4617,4618,4619,4620,4621,4622,4623,4624,9903,9904,23,24,25,26,27,28,29,30,31,32,33,34,35,36,37,38,4627,4628,4629,4630,4631,4632,4633,4634,4635,4636,4637,4638,4639,4640,4641,4642,4643,4644,4645,4646,4647,4648,4649,4650,4651,4652,4653,4654,4655,4656,4657,4658,4659,4660,4661,4662,4663,4664,4665,4666,4667,4668,4669,4670,4671,4672,4673,4674,4675,4676,4677,4678,4679,4680,4681,4682,9905,4684,4685,4686,4687,4688,4689,4690,4691,4692,4693,4694,4695,4696,4697,4698,4699,4700,9906,9907,94,95,96,97,98,99,100,101,102,103,104,105,106,107,108,109,4703,4704,4705,4706,4707,4708,4709,4710,4711,4712,4713,4714,4715,4716,4717,4718,4719,4720,4721,4722,4723,4724,4725,4726,4727,4728,4729,4730,4731,4732,4733,4734,4735,4736,4737,4738,4739,4740,4741,4742,4743,4744,4745,4746,4747,4748,4749,4750,4751,4752,4753,4754,4755,4756,4757,4758,9908,4760,4761,4762,4763,4764,4765,4766,4767,4768,4769,4770,4771,4772,4773,4774,4775,4776,9909,9910,165,166,167,168,169,170,171,172,173,174,175,176,177,178,179,180,4779,4780,4781,4782,4783,4784,4785,4786,4787,4788,4789,4790,4791,4792,4793,4794,4795,4796,4797,4798,4799,4800,4801,4802,4803,4804,4805,4806,4807,4808,4809,4810,4811,4812,4813,4814,4815,4816,4817,4818,4819,4820,4821,4822,4823,4824,4825,4826,4827,4828,4829,4830,4831,4832,4833,4834,9911,4836,4837,4838,9912,9913,9914,9915,9916,4844,4845,9917,9918,9919,9920,9921,4851,4852,9922,9923,236,4855,4856,4857,4858,4859,4860,4861,4862,4863,4864,4865,4866,4867,4868,4869,4870,4871,4872,4873,4874,4875,4876,4877,4878,4879,4880,4881,4882,4883,4884,4885,4886,4887,4888,4889,4890,4891,9924,9925,9926,9927,9928,9929,9930,9931,9932,9933,9934,9935,9936,9937,9938,9939,9940,9941,9942,9943,9944,4913,4914,4915,4916,4917,4918,4919,4920,4921,4922,4923,4924,4925,9945,4927,4928,4929,9946,9947,9948,9949,9950,4935,4936,9951,9952,9953,9954,9955,4942,4943,9956,9957,4946,4947,4948,4949,4950,4951,4952,4953,4954,4955,4956,4957,4958,4959,4960,4961,4962,4963,4964,4965,4966,4967,4968,4969,4970,4971,4972,4973,4974,4975,4976,4977,4978,4979,4980,4981,4982,9958,9959,9960,9961,9962,9963,9964,9965,9966,9967,9968,9969,9970,9971,9972,9973,9974,9975,9976,9977,9978,9979,9980,9981,5007,5008,5009,5010,5011,5012,5013,5014,5015,5016,5017,9982,5019,5020,5021,9983,9984,9985,9986,9987,5027,5028,9988,9989,9990,9991,9992,5034,5035,9993,9994,5038,5039,5040,5041,5042,5043,5044,5045,5046,5047,5048,5049,5050,5051,5052,5053,5054,5055,5056,5057,5058,5059,5060,5061,5062,5063,5064,5065,5066,5067,5068,5069,5070,5071,5072,5073,5074,9995,9996,9997,9998,9999,10000,10001,10002,10003,10004,10005,5086,10006,10007,10008,10009,10010,10011,10012,10013,10014,10015,10016,10017,5099,5100,5101,5102,5103,5104,5105,5106,5107,5108,5109,10018,5111,5112,5113,10019,10020,10021,10022,10023,5119,5120,10024,10025,10026,10027,10028,5126,10029,10030,10031,5130,5131,5132,5133,5134,5135,5136,5137,5138,5139,5140,5141,5142,5143,5144,5145,5146,5147,5148,5149,5150,5151,5152,5153,5154,5155,5156,5157,5158,5159,5160,5161,5162,5163,5164,5165,5166,10032,10033,10034,10035,10036,10037,10038,10039,10040,10041,10042,5178,10043,10044,10045,10046,10047,10048,10049,10050,10051,10052,10053,10054,5191,5192,5193,5194,5195,5196,5197,5198,5199,5200,5201,10055,5203,5204,5205,10056,10057,10058,10059,10060,5211,5212,10061,10062,10063,10064,10065,5218,10066,10067,10068,5222,5223,5224,5225,5226,5227,5228,5229,5230,5231,5232,5233,5234,5235,5236,5237,5238,5239,5240,5241,5242,5243,5244,5245,5246,5247,5248,5249,5250,5251,5252,5253,5254,5255,5256,5257,5258,5259,5260,5261,5262,5263,5264,5265,5266,5267,5268,5269,5270,5271,5272,5273,5274,5275,5276,5277,5278,5279,5280,5281,5282,5283,5284,5285,5286,5287,5288,5289,5290,5291,5292,5293,10069,5295,5296,5297,10070,10071,10072,10073,10074,5303,5304,10075,10076,10077,10078,10079,5310,10080,10081,4872,4873,4872,5316,5317,5318,5319,5320,5321,5322,5323,5324,5325,5326,5327,5328,5329,5330,5331,5332,5333,5334,5335,5336,5337,5338,5339,5340,5341,5342,5343,5344,5345,5346,5347,5348,5349,5350,5351,5352,5353,5354,5355,5356,5357,5358,5359,5360,5361,5362,5363,5364,5365,5366,5367,5368,5369,5370,5371,5372,5373,5374,5375,5376,5377,5378,5379,5380,5381,5382,5383,5384,5385,10082,5387,5388,5389,10083,10084,10085,10086,10087,5395,5396,10088,10089,10090,10091,10092,5402,5403,10093,4964,4965,4964,5408,5409,5410,5411,5412,5413,5414,5415,5416,5417,5418,5419,5420,5421,5422,5423,5424,5425,5426,5427,5428,5429,5430,5431,5432,5433,5434,5435,5436,5437,5438,5439,5440,5441,10094,10095,10096,5445,5446,5447,5448,5449,5450,5451,5452,5453,5454,5455,5456,5457,5458,5459,5460,5461,5462,5463,5464,5465,5466,5467,5468,5469,5470,5471,5472,5473,5474,5475,5476,5477,10097,5479,5480,5481,10098,10099,10100,10101,10102,5487,5488,10103,10104,10105,10106,10107,5494,10108,10109,5056,5057,5056,5500,5501,5502,5503,5504,5505,5506,5507,5508,5509,5510,5511,5512,5513,5514,5515,5516,5517,5518,5519,5520,5521,5522,5523,5524,5525,5526,5527,5528,5529,5530,5531,5532,5533,10110,10111,10112,10113,10114,10115,10116,10117,10118,10119,10120,10121,10122,10123,10124,10125,10126,10127,10128,10129,10130,10131,10132,10133,10134,5559,5560,5561,5562,5563,5564,5565,5566,5567,5568,5569,10135,5571,5572,5573,10136,10137,10138,10139,10140,5579,5580,10141,10142,10143,10144,10145,5586,10146,10147,10148,5590,5591,5592,5593,5594,5595,5596,5597,5598,5599,5600,5601,5602,5603,5604,5605,5606,5607,5608,5609,5610,5611,5612,5613,5614,5615,5616,5617,5618,5619,5620,5621,5622,5623,5624,5625,10149,10150,10151,10152,10153,10154,10155,10156,10157,10158,10159,10160,10161,10162,10163,10164,10165,10166,10167,10168,10169,10170,10171,10172,10173,5651,5652,5653,5654,5655,5656,5657,5658,5659,5660,5661,10174,5663,5664,5665,5666,5667,5668,5669,5670,5671,5672,5673,5674,5675,5676,5677,5678,5679,10175,10176,5682,5683,5684,5685,5686,5687,5688,5689,5690,5691,5692,5693,5694,5695,5696,5697,5698,5699,5700,5701,5702,5703,5704,5705,5706,5707,5708,5709,5710,5711,5712,5713,5714,5715,5716,5717,10177,10178,10179,10180,10181,10182,10183,10184,10185,10186,10187,10188,10189,10190,10191,10192,10193,10194,10195,10196,10197,10198,10199,10200,10201,10202,5744,5745,10203,10204,10205,5749,5750,5751,5752,5753,10206,10207,10208,10209,10210,10211,10212,10213,10214,10215,10216,10217,10218,10219,10220,10221,10222,10223,10224,10225,5774,5775,5776,5777,5778,5779,5780,5781,5782,5783,5784,5785,5786,5787,5788,5789,5790,5791,5792,5793,5794,5795,5796,5797,5798,5799,5800,5801,5802,5803,5804,5805,5806,5807,10226,10227,10228,10229,10230,10231,10232,10233,10234,10235,10236,10237,10238,10239,10240,10241,10242,10243,10244,10245,10246,10247,10248,10249,10250,10251,10252,10253,10254,10255,10256,10257,10258,5841,5842,5843,5844,5845,0,0,0,0,0,0,0,0,0,0,0,0,0,0,0,0,0,0,10259,10260,5848,5849,5850,5851,5852,5853,5854,5855,5856,5857,5858,5859,5860,5861,5862,5863,5864,5865,5866,5867,5868,5869,5870,5871,5872,5873,5874,5875,5876,5877,5878,5879,5880,5881,10261,10262,10263,10264,10265,10266,10267,10268,10269,10270,10271,10272,10273,10274,10275,10276,10277,10278,10279,10280,10281,10282,10283,10284,10285,10286,10287,10288,10289,10290,10291,10292,10293,10294,10295,10296,10297,10298,0,0,0,0,0,0,0,0,0,0,0,0,0,0,0,0,0,0,0,0,5920,5921,5922,5923,5924,5925,5926,5927,5928,5929,5930,5931,5932,5933,5934,5935,5936,5937,5938,5939,5940,5941,5942,5943,5944,5945,5946,5947,5948,5949,5950,5951,5952,5953,10299,10300,10301,10302,10303,10304,10305,10306,10307,10308,10309,10310,10311,10312,10313,10314,10315,10316,10317,10318,10319,10320,10321,10322,10323,10324,10325,10326,10327,10328,10329,10330,10331,10332,10333,10334,10335,0,0,0,0,0,0,0,0,0,0,0,0,0,0,0,0,0,0,0,0,0,5990,5991,5992,5993,5994,5995,5996,5997,5998,5999,6000,6001,6002,6003,6004,6005,6006,6007,6008,6009,6010,6011,6012,6013,6014,6015,6016,6017,6018,6019,6020,6021,6022,6023,10336,10337,10338,10339,10340,10341,10342,10343,10344,10345,10346,10347,10348,10349,10350,10351,10352,10353,10354,10355,10356,10357,10358,10359,10360,10361,10362,10363,10364,10365,10366,10367,10368,10369,10370,10371,10372,0,0,0,0,0,0,0,0,0,0,0,0,0,0,0,0,0,0,0,0,0,6060,6061,6062,6063,6064,6065,6066,6067,6068,6069,6070,6071,6072,6073,6074,6075,6076,6077,6078,6079,6080,6081,6082,6083,6084,6085,6086,6087,6088,6089,6090,6091,6092,6093,10373,10374,10375,10376,10377,10378,10379,10380,10381,10382,10383,10384,10385,10386,10387,10388,10389,10390,10391,10392,10393,10394,10395,10396,10397,10398,10399,10400,10401,10402,10403,10404,10405,10406,10407,10408,10409,0,0,0,0,0,0,0,0,0,0,0,0,0,0,0,0,0,0,0,0,0,0,0,0,0,0,0,0,0,0,0,0,0,0,0,0,0,0,0,0,0,0,0,0,0,0,0,0,0,0,0,0,0,0,0,0,0,0,0,0,0,0,0,0,0,0,0,0,0,0,0,0,0,0,0,0,0,0,0,0,0,0,0,0,0,0,0,0,0,0,0,0,0,0,0,0,0,0,0,0,0,0,0,0,0,0,0,0,0,0,0,0,0,0,0,0,0,0,0,0,0,0,0,0,0,0,0,0,0,0,0,0,0,0,0,0,0,0,0,0,0,0,0,0,0,0,0,0,0,0,0,0,0,0,0,0,0,0,0,0,0,0,0,0,0,0,0,0,0,0,0,0,0,0,0,0,0,0,0,0,0,0,0,0,0,0,0,0,0,0,0,0,0,0,0,0,0,0,0,0,0,0,0,0,0,0,0,0,0,0,0,0,0,0,0,0,0,0,0,0,0,0,0,0,0,0,0,0,0,0,0,0,0,0,0,0,0,0,0,0,0,0,0,0,0,0,0,0,0,0,0,0,0,0,0,0,0,0,0,0,0,0,0,0,0,0,0,0,0,0,0,0,0,0,0,0,0,0,0,0,0,0,0,0,0,0,0,0,0,0,0,0,0,0,0,0,0,0,0,0,0,0,0,0,0,0,0,0,0,0,0,0,0,0,0,0,0,0,0,0,0,0,0,0,0,0,0,0,0,0,0,0,0,0,0,0,0,0,0,0,0,0,0,0,0,0,0,0,0,0,0,0,0,0,0,0,0,0,0,0,0,0,0,0,0,0,0,0,0,0,0,0,0,0,0,0,0,0,0,0,0,0,0,0,0,0,0,0,0,0,0,0,0,0,0,0,0,0,0,0,0,0,0,0,0,0,0,0,0,0,0,0,0,0,0,0,0,0,0,0,0,0,0,0,0,0,0,0,0,0,0,0,0,0,0,0,0,0,0,0,0,0,0,0,0,0,0,0,0,0,0,0,0,0,0,0,0,0,0,0,0,0,0,0,0,0,0,0,0,0,0,0,0,0,0,0,0,0,0,0,0,0,0,0,0,0,0,0,0,0,0,0,0,0,0,0,0,0,0,0,0,0,0,0,0,0,0,0,0,0,0,0,0,0,0,0,0,0,0,0,0,0,0,0,0,0,0,0,0,0,0,0,0,0,0,0,0,0,0,0,0,0,0,0,0,0,0,0,0,0,0,0,0,0,0,0,0,0,0,0,0,0,0,0,0,0,0,0,0,0,0,0,0,0,0,0,0,0,0,0,0,0,0,0,0,0,0,0,0,0,0,0,0,0,0,0,0,0,0,0,0,0,0,0,0,0,0,0,0,0,0,0,0,0,0,0,0,0,0,0,0,0,0,0,0,0,0,0,0,0,0,0,0,0,0,0,0,0,0,0,0,0,0,0,0]},{"id":2,"name":"campus-native-effects","type":"tilelayer","x":0,"y":0,"width":92,"height":82,"visible":true,"opacity":1,"data":[0,0,0,0,0,0,0,0,0,0,0,0,0,0,0,0,0,0,0,0,0,0,0,0,0,0,0,0,0,0,0,0,0,0,0,0,0,0,0,0,0,0,0,0,0,0,0,0,0,0,0,0,0,0,0,0,0,0,0,0,0,0,0,0,0,0,0,0,0,0,0,0,0,0,0,0,0,0,0,0,0,0,0,0,0,0,0,0,0,0,0,0,0,0,0,0,0,0,0,0,0,0,0,0,0,0,0,0,0,0,0,0,0,0,0,0,0,0,0,0,0,0,0,0,0,0,0,0,0,0,0,0,0,0,0,0,0,0,0,0,0,0,0,0,0,0,0,0,0,0,0,0,0,0,0,0,0,0,0,0,0,0,0,0,0,0,0,0,0,0,0,0,0,0,0,0,0,0,0,0,0,0,0,0,0,0,0,0,0,0,0,0,0,0,0,0,0,0,0,0,0,0,0,0,0,0,0,0,0,0,0,0,0,0,0,0,0,0,0,0,0,0,0,0,0,0,0,0,0,0,0,0,0,0,0,0,0,0,0,0,0,0,0,0,0,0,0,0,0,0,0,0,0,0,0,0,0,0,0,0,0,0,0,0,0,0,0,0,0,0,0,0,0,0,0,0,0,0,0,0,0,0,0,0,0,0,0,0,0,0,0,0,0,0,0,0,0,0,0,0,0,0,0,0,0,0,0,0,0,0,0,0,0,0,0,0,0,0,0,0,0,0,0,0,0,0,0,0,0,0,0,0,0,0,0,0,0,0,0,0,0,0,0,0,0,0,0,0,0,0,0,0,0,0,0,0,0,0,0,0,0,0,0,0,0,0,0,0,0,0,0,0,0,0,0,0,0,0,0,0,0,0,0,0,0,0,0,0,0,0,0,0,0,0,0,0,0,0,0,0,0,0,0,0,0,0,0,0,0,0,0,0,0,0,0,0,0,0,0,0,0,0,0,0,0,0,0,0,0,0,0,0,0,0,0,0,0,0,0,0,0,0,0,0,0,0,0,0,0,0,0,0,0,0,0,0,0,0,0,0,0,0,0,0,0,0,0,0,0,0,0,0,0,0,0,0,0,0,0,0,0,0,0,0,0,0,0,0,0,0,0,0,0,0,0,0,0,0,0,0,0,0,0,0,0,0,0,0,0,0,0,0,0,0,0,0,0,0,0,0,0,0,0,0,0,0,0,0,0,0,0,0,0,0,0,0,0,0,0,0,0,0,0,0,0,0,0,0,0,0,0,0,0,0,0,0,0,0,0,0,0,0,0,0,0,0,0,0,0,0,0,0,0,0,0,0,0,0,0,0,0,0,0,0,0,0,0,0,0,0,0,0,0,0,0,0,0,0,0,0,0,0,0,0,0,0,0,0,0,0,0,0,0,0,0,0,0,0,0,0,0,0,0,0,0,0,0,0,0,0,0,0,0,0,0,0,0,0,0,0,0,0,0,0,0,0,0,0,0,0,0,0,0,0,0,0,0,0,0,0,0,0,0,0,0,0,0,0,0,0,0,0,0,0,0,0,0,0,0,0,0,0,0,0,0,0,0,0,0,0,0,0,0,0,0,0,0,0,0,0,0,0,0,0,0,0,0,0,0,0,0,0,0,0,0,0,0,0,0,0,0,0,0,0,0,0,0,0,0,0,0,0,0,0,0,0,0,0,0,0,0,0,0,0,0,0,0,0,0,0,0,0,0,0,0,0,0,0,0,0,0,0,0,0,0,0,0,0,0,0,0,0,0,0,0,0,0,0,0,0,0,0,0,0,0,0,0,0,0,0,0,0,0,0,0,0,0,0,0,0,0,0,0,0,0,0,0,0,0,0,0,0,0,0,0,0,0,0,0,0,0,0,0,0,0,0,0,0,0,0,0,0,0,0,0,0,0,0,0,0,0,0,0,0,0,0,0,0,0,0,0,0,0,0,0,0,0,0,0,0,0,0,0,0,0,0,0,0,0,0,0,0,0,0,0,0,0,0,0,0,0,0,0,0,0,0,0,0,0,0,0,0,0,0,0,0,0,0,0,0,0,0,0,0,0,0,0,0,0,0,0,0,0,0,0,0,0,0,0,0,0,0,0,0,0,0,0,0,0,0,0,0,0,0,0,0,0,0,0,0,0,0,0,0,0,0,0,0,0,0,0,0,0,0,0,0,0,0,0,0,0,0,0,0,0,0,0,0,0,0,0,0,0,0,0,0,0,0,0,0,0,0,0,0,0,0,0,0,0,0,0,0,0,0,0,0,0,0,0,0,0,0,0,0,0,0,0,0,0,0,0,0,0,0,0,0,0,0,0,0,0,0,0,0,0,0,0,0,0,0,0,0,0,0,0,0,0,0,0,0,0,0,0,0,0,0,0,0,0,0,0,0,0,0,0,0,0,0,0,0,0,0,0,0,0,0,0,0,0,0,0,0,0,0,0,0,0,0,0,0,0,0,0,0,0,0,0,0,0,0,0,0,0,0,0,0,0,0,0,0,0,0,0,0,0,0,0,0,0,0,0,0,0,0,0,0,0,0,0,0,0,0,0,0,0,0,0,0,0,0,0,0,0,0,0,0,0,0,0,0,0,0,0,0,0,0,0,0,0,0,0,0,0,0,0,0,0,0,0,0,0,0,0,0,0,0,0,0,0,0,0,0,0,0,0,0,0,0,0,0,0,0,0,0,0,0,0,0,0,0,0,0,0,0,0,0,0,0,0,0,0,0,0,0,0,0,0,0,0,0,0,0,0,0,0,0,0,0,0,0,0,0,0,0,0,0,0,0,0,0,0,0,0,0,0,0,0,0,0,0,0,0,0,0,0,0,0,0,0,0,0,0,0,0,0,0,0,0,0,0,0,0,0,0,0,0,0,0,0,0,0,0,0,0,0,0,0,0,0,0,0,0,0,0,0,0,0,0,0,0,0,0,0,0,0,0,0,0,0,0,0,0,0,0,0,0,0,0,0,0,0,0,0,0,0,0,0,0,0,0,0,0,0,0,0,0,0,0,0,0,0,0,0,0,0,0,0,0,0,0,0,0,0,0,0,0,0,0,0,0,0,0,0,0,0,0,0,0,0,0,0,0,0,0,0,0,0,0,0,0,0,0,0,0,0,0,0,0,0,0,0,0,0,0,0,0,0,0,0,0,0,0,0,0,0,0,0,0,0,0,0,0,0,0,0,0,0,0,0,0,0,0,0,0,0,0,0,0,0,0,0,0,0,0,0,0,0,0,0,0,0,0,0,0,0,0,0,0,0,0,0,0,0,0,0,0,0,0,0,0,0,0,0,0,0,0,0,0,0,0,0,0,0,0,0,0,0,0,0,0,0,0,0,0,0,0,0,0,0,0,0,0,0,0,0,0,0,0,0,0,0,0,0,0,0,0,0,0,0,0,0,0,0,0,0,0,0,0,0,0,0,0,0,0,0,0,0,0,0,0,0,0,0,0,0,0,0,0,0,0,0,0,0,0,0,0,0,0,0,0,0,0,0,0,0,0,0,0,0,0,0,0,0,0,0,0,0,0,0,0,0,0,0,0,0,0,0,0,0,0,0,0,0,0,0,0,0,0,0,0,0,0,0,0,0,0,0,0,0,0,0,0,0,0,0,0,0,0,0,0,0,0,0,0,0,0,0,0,0,0,0,0,0,0,0,0,0,0,0,0,0,0,0,0,0,0,0,0,0,0,0,0,0,0,0,0,0,0,0,0,0,0,0,0,0,0,0,0,0,0,0,0,0,0,0,0,0,0,0,0,0,0,0,0,0,0,0,0,0,0,0,0,0,0,0,0,0,0,0,0,0,0,0,0,0,0,0,0,0,0,0,0,0,0,0,0,0,0,0,0,0,0,0,0,0,0,0,0,0,0,0,0,0,0,0,0,0,0,0,0,0,0,0,0,0,0,0,0,0,0,0,0,0,0,0,0,0,0,0,0,0,0,0,0,0,0,0,0,0,0,0,0,0,0,0,0,0,0,0,0,0,0,0,0,0,0,0,0,0,0,0,0,0,0,0,0,0,0,0,0,0,0,0,0,0,0,0,0,0,0,0,0,0,0,0,0,0,0,0,0,0,0,0,0,0,0,0,0,0,0,0,0,0,0,0,0,0,0,0,0,0,0,0,0,0,0,0,0,0,0,0,0,0,0,0,0,0,0,0,0,0,0,0,0,0,0,0,0,0,0,0,0,0,0,0,0,0,0,0,0,0,0,0,0,0,0,0,0,0,0,0,0,0,0,0,0,0,0,0,0,0,0,0,0,0,0,0,0,0,0,0,0,0,0,0,0,0,0,0,0,0,0,0,0,0,0,0,0,0,0,0,0,0,0,0,0,0,0,0,0,0,0,0,0,0,0,0,0,0,0,0,0,0,0,0,0,0,0,0,0,0,0,0,0,0,0,0,0,0,0,0,0,0,0,0,0,0,0,0,0,0,0,0,0,0,0,0,0,0,0,0,0,0,0,0,0,0,0,0,0,0,0,0,0,0,0,0,0,0,0,0,0,0,0,0,0,0,0,0,0,0,0,0,0,0,0,0,0,0,0,0,0,0,0,0,0,0,0,0,0,0,0,0,0,0,0,0,0,0,0,0,0,0,0,0,0,0,0,0,0,0,0,0,0,0,0,0,0,0,0,0,0,0,0,0,0,0,0,0,0,0,0,0,0,0,0,0,0,0,0,0,0,0,0,0,0,0,0,0,0,0,0,0,0,0,0,0,0,0,0,0,0,0,0,0,0,0,0,0,0,0,0,0,0,0,0,0,0,0,0,0,0,0,0,0,0,0,0,0,0,0,0,0,0,0,0,0,0,0,0,0,0,0,0,0,0,0,0,0,0,0,0,0,0,0,0,0,0,0,0,0,0,0,0,0,0,0,0,0,0,0,0,0,0,0,0,0,0,0,0,0,0,0,0,0,0,0,0,0,0,0,0,0,0,0,0,0,0,0,0,0,0,0,0,0,0,0,0,0,0,0,0,0,0,0,0,0,0,0,0,0,0,0,0,0,0,0,0,0,0,0,0,0,0,0,0,0,0,0,0,0,0,0,0,0,0,0,0,0,0,0,0,0,0,0,0,0,0,0,0,0,0,0,0,0,0,0,0,0,0,0,0,0,0,0,0,0,0,0,0,0,0,0,0,0,0,0,0,0,0,0,0,0,0,0,0,0,0,0,0,0,0,0,0,0,0,0,0,0,0,0,0,0,0,0,0,0,0,0,0,0,0,0,0,0,0,0,0,0,0,0,0,0,0,0,0,0,0,0,0,0,0,0,0,0,0,0,0,0,0,0,0,0,0,0,0,0,0,0,0,0,0,0,0,0,0,0,0,0,0,0,0,0,0,0,0,0,0,0,0,0,0,0,0,0,0,0,0,0,0,0,0,0,0,0,0,0,0,0,0,0,0,0,0,0,0,0,0,0,0,0,0,0,0,0,0,0,0,0,0,0,0,0,0,0,0,0,0,0,0,0,0,0,0,0,0,0,0,0,0,0,0,0,0,0,0,0,0,0,0,0,0,0,0,0,0,0,0,0,0,0,0,0,0,0,0,0,0,0,0,0,0,0,0,0,0,0,0,0,0,0,0,0,0,0,0,0,0,0,0,0,0,0,0,0,0,0,0,0,0,0,0,0,0,0,0,0,0,0,0,0,0,0,0,0,0,0,0,0,0,0,0,0,0,0,0,0,0,0,0,0,0,0,0,0,0,0,0,0,0,0,0,0,0,0,0,0,0,0,0,0,0,0,0,0,0,0,0,0,0,0,0,0,0,0,0,0,0,0,0,0,0,0,0,0,0,0,0,0,0,0,0,0,0,0,0,0,0,0,0,0,0,0,0,0,0,0,0,0,0,0,0,0,0,0,0,0,0,0,0,0,0,0,0,0,0,0,0,0,0,0,0,0,0,0,0,0,0,0,0,0,0,0,0,0,0,0,0,0,0,0,0,0,0,0,0,0,0,0,0,0,0,0,0,0,0,0,0,0,0,0,0,0,0,0,0,0,0,0,0,0,0,0,0,0,0,0,0,0,0,0,0,0,0,0,0,0,0,0,0,0,0,0,0,0,0,0,0,0,0,0,0,0,0,0,0,0,0,0,0,0,0,0,0,0,0,0,0,0,0,0,0,0,0,0,0,0,0,0,0,0,0,0,0,0,0,0,0,0,0,0,0,0,0,0,0,0,0,0,0,0,0,0,0,0,0,0,0,0,0,0,0,0,0,0,0,0,0,0,0,0,0,0,0,0,0,0,0,0,0,0,0,0,0,0,0,0,0,0,0,0,0,0,0,0,0,0,0,0,0,0,0,0,0,0,0,0,0,0,0,0,0,0,0,0,0,0,0,0,0,0,0,0,0,0,0,0,0,0,0,0,0,0,0,0,0,0,0,0,0,0,0,0,0,0,0,0,0,0,0,0,0,0,0,0,0,0,0,0,0,0,0,0,0,0,0,0,0,0,0,0,0,0,0,0,0,0,0,0,0,0,0,0,0,0,0,0,0,0,0,0,0,0,0,0,0,0,0,0,0,0,0,0,0,0,0,0,0,0,0,0,0,0,0,0,0,0,0,0,0,0,0,0,0,0,0,0,0,0,0,0,0,0,0,0,0,0,0,0,0,0,0,0,0,0,0,0,0,0,0,0,0,0,0,0,0,0,0,0,0,0,0,0,0,0,0,0,0,0,0,0,0,0,0,0,0,0,0,0,0,0,0,0,0,0,0,0,0,0,0,0,0,0,0,0,0,0,0,0,0,0,0,0,0,0,0,0,0,0,0,0,0,0,0,0,0,0,0,0,0,0,0,0,0,0,0,0,0,0,0,0,0,0,0,0,0,0,0,0,0,0,0,0,0,0,0,0,0,0,0,0,0,0,0,0,0,0,0,0,0,0,0,0,0,0,0,0,0,0,0,0,0,0,0,0,0,0,0,0,0,0,0,0,0,0,0,0,0,0,0,0,0,0,0,0,0,0,0,0,0,0,0,0,0,0,0,0,0,0,0,0,0,0,0,0,0,0,0,0,0,0,0,0,0,0,0,0,0,0,0,0,0,0,0,0,0,0,0,0,0,0,0,0,0,0,0,0,0,0,0,0,0,0,0,0,0,0,0,0,0,0,0,0,0,0,0,0,0,0,0,0,0,0,0,0,0,0,0,0,0,0,0,0,0,0,0,0,0,0,0,0,0,0,0,0,0,0,0,0,0,0,0,0,0,0,0,0,0,0,0,0,0,0,0,0,0,0,0,0,0,0,0,0,0,0,0,0,0,0,0,0,0,0,0,0,0,0,0,0,0,0,0,0,0,0,0,0,0,0,0,0,0,0,0,0,0,0,0,0,0,0,0,0,0,0,0,0,0,0,0,0,0,0,0,0,0,0,0,0,0,0,0,0,0,0,0,0,0,0,0,0,0,0,0,0,0,0,0,0,0,0,0,0,0,0,0,0,0,0,0,0,0,0,0,0,0,0,0,0,0,0,0,0,0,0,0,0,0,0,0,0,0,0,0,0,0,0,0,0,0,0,0,0,0,0,0,0,0,0,0,0,0,0,0,0,0,0,0,0,0,0,0,0,0,0,0,0,0,0,0,0,0,0,0,0,0,0,0,0,0,0,0,0,0,0,0,0,0,0,0,0,0,0,0,0,0,0,0,0,0,0,0,0,0,0,0,0,0,0,0,0,0,0,0,0,0,0,0,0,0,0,0,0,0,0,0,0,0,0,0,0,0,0,0,0,0,0,0,0,0,0,0,0,0,0,0,0,0,0,0,0,0,0,0,0,0,0,0,0,0,0,0,0,0,0,0,0,0,0,0,0,0,0,0,0,0,0,0,0,0,0,0,0,0,0,0,0,0,0,0,0,0,0,0,0,0,0,0,0,0,0,0,0,0,0,0,0,0,0,0,0,0,0,0,0,0,0,0,0,0,0,0,0,0,0,0,0,0,0,0,0,0,0,0,0,0,0,0,0,0,0,0,0,0,0,0,0,0,0,0,0,0,0,0,0,0,0,0,0,0,0,0,0,0,0,0,0,0,0,0,0,0,0,0,0,0,0,0,0,0,0,0,0,0,0,0,0,0,0,0,0,0,0,0,0,0,0,0,0,0,0,0,0,0,0,0,0,0,0,0,0,0,0,0,0,0,0,0,0,0,0,0,0,0,0,0,0,0,0,0,0,0,0,0,0,0,0,0,0,0,0,0,0,0,0,0,0,0,0,0,0,0,0,0,0,0,0,0,0,0,0,0,0,0,0,0,0,0,0,0,0,0,0,0,0,0,0,0,0,0,0,0,0,0,10861,10867,10870,0,0,0,0,0,0,0,0,0,0,0,0,0,0,0,0,0,0,0,0,0,0,0,0,0,0,0,0,0,0,0,0,0,0,0,0,0,0,0,0,0,0,0,0,0,0,0,0,0,0,0,0,0,0,0,0,0,0,0,0,0,0,0,0,0,0,0,0,0,0,0,0,0,0,0,0,0,0,0,0,0,0,0,0,0,0,0,0,0,10878,10894,10911,10926,10930,0,0,0,0,0,0,0,0,0,0,0,0,0,0,0,0,0,0,0,0,0,0,0,0,0,0,0,0,0,0,0,0,0,0,0,0,0,0,0,0,0,0,0,0,0,0,0,0,0,0,0,0,0,0,0,0,0,0,0,0,0,0,0,0,0,0,0,0,0,0,0,0,0,0,0,0,0,0,0,0,0,0,0,0,0,0,0,10942,10955,10961,10970,10987,0,0,0,0,0,0,0,0,0,0,0,0,0,0,0,0,0,0,0,0,0,0,0,0,0,0,0,0,10560,10577,10588,10605,0,0,0,0,0,0,0,0,0,0,0,0,0,0,0,0,0,0,0,0,0,0,0,0,0,0,0,0,0,0,0,0,0,0,0,0,0,0,0,0,0,0,0,0,0,0,0,0,0,0,0,0,0,0,0,10995,11006,11023,11034,11042,0,0,0,0,0,0,0,0,0,0,0,0,0,0,0,0,0,0,0,0,0,0,0,0,0,0,0,0,10622,10639,10645,10662,10676,0,0,0,0,0,0,0,0,0,0,0,0,0,0,0,0,0,0,0,0,0,0,0,0,0,0,0,0,0,0,0,0,0,0,0,0,0,0,0,0,0,0,0,0,0,0,0,0,0,0,0,0,0,0,0,0,11051,11064,11081,11098,0,0,0,0,0,0,0,0,0,0,0,0,0,0,0,0,0,0,0,0,0,0,0,0,0,0,10690,10707,0,0,10724,10741,10747,0,0,0,0,0,0,0,0,0,0,0,0,0,0,0,0,0,0,0,0,0,0,0,0,0,0,0,0,0,0,0,0,0,12497,12514,0,0,0,0,0,0,0,0,0,0,0,0,0,0,0,0,0,0,0,11103,11117,11133,11150,11155,0,0,0,0,0,0,0,0,0,0,0,0,0,0,0,0,0,0,0,0,0,0,0,0,0,0,10754,10771,10780,10789,10806,10822,0,0,0,0,0,0,0,0,0,0,0,0,0,0,0,0,0,0,0,0,0,0,0,0,0,0,0,0,0,0,12525,12534,12540,12555,12572,12589,0,0,0,0,0,0,0,0,0,0,0,0,0,0,0,0,0,0,0,11172,11188,11197,11212,11223,0,0,0,0,0,0,0,0,0,0,0,0,0,0,0,0,0,0,0,0,0,0,0,0,0,0,0,0,10831,10845,0,0,0,0,0,0,0,0,0,0,0,0,0,0,0,0,0,0,0,0,0,0,0,0,0,0,0,0,0,0,0,0,0,0,0,0,0,0,0,0,0,0,0,0,0,0,0,0,0,0,0,0,0,0,0,0,0,11227,11242,11259,11274,11285,0,0,0,0,0,0,0,0,0,0,0,0,0,0,0,0,0,0,0,0,0,0,0,0,0,0,0,0,0,0,0,0,0,0,0,0,0,0,0,0,0,0,0,0,0,0,0,0,0,0,0,0,0,0,0,0,0,0,0,0,0,0,0,0,0,0,0,0,0,0,0,0,0,0,0,0,0,0,0,0,0,0,0,0,0,0,0,11298,11315,11328,11341,11350,0,0,0,0,0,0,0,0,0,0,0,0,0,0,0,0,0,0,0,0,0,0,0,0,0,0,0,0,0,0,0,0,0,0,0,0,0,0,0,0,0,0,0,0,0,0,0,0,0,0,0,0,0,0,0,0,0,0,0,0,0,0,0,0,0,0,0,0,0,0,0,0,0,0,0,0,0,0,0,0,0,0,0,0,0,0,0,0,0,11363,11370,11387,0,0,0,0,0,0,0,0,0,0,0,0,0,0,0,0,0,0,0,0,0,0,0,0,0,0,0,0,0,0,0,0,0,0,0,0,0,0,0,0,0,0,0,0,0,0,0,0,0,0,0,0,0,0,0,0,0,0,0,0,0,0,0,0,0,0,0,0,0,0,0,0,0,0,0,0,0,0,0,0,0,0,0,0,0,0,0,0,0,11400,11416,11432,0,0,0,0,0,0,0,0,0,0,0,0,0,0,0,0,0,0,0,0,0,0,0,0,0,0,0,0,0,0,0,0,0,0,0,0,0,0,0,0,0,0,0,0,0,0,0,0,0,0,0,0,0,0,0,0,0,0,0,0,0,0,0,0,0,0,0,0,0,0,0,0,0,0,0,0,0,0,0,0,0,0,0,0,0,0,0,0,11440,11454,11471,11482,0,0,0,0,0,0,0,0,0,0,0,0,0,0,0,0,0,0,0,0,0,0,0,0,0,0,0,0,0,0,0,0,0,0,0,0,0,0,0,0,0,0,0,0,0,0,0,0,0,0,0,0,0,0,0,0,0,0,0,0,0,0,0,0,0,0,0,0,0,0,0,0,0,0,0,0,0,0,0,0,0,0,0,0,0,0,0,0,11498,11515,11532,0,0,0,0,0,0,0,0,0,0,0,0,0,0,0,0,0,0,0,0,0,0,0,0,0,0,0,0,0,0,0,0,0,0,0,0,0,0,0,0,0,0,0,0,0,0,0,0,0,0,0,0,0,0,0,0,0,0,0,0,0,0,0,0,0,0,0,0,0,0,0,0,0,0,0,0,0,0,0,0,0,0,0,0,0,0,0,0,11543,11560,11575,11588,11593,0,0,0,0,0,0,0,0,0,0,0,0,0,0,0,0,0,0,0,0,0,0,0,0,0,0,0,0,0,0,0,0,0,0,0,0,0,0,0,0,0,0,0,0,0,0,0,0,0,0,0,0,0,0,0,0,0,0,0,0,0,0,0,0,0,0,0,0,0,0,0,0,0,0,12410,0,0,0,0,0,0,0,0,0,0,0,0,0,0,11606,11615,11632,0,0,0,0,0,0,0,0,0,0,0,0,0,0,0,0,0,0,0,0,0,0,0,0,0,0,0,0,0,0,0,0,0,0,0,0,0,0,0,0,0,0,0,0,0,0,0,0,0,0,0,0,0,0,0,0,0,0,0,0,0,0,0,0,0,0,0,0,0,0,0,0,0,12421,12434,12447,0,0,0,0,0,0,0,0,0,0,0,0,0,11645,11662,11678,0,0,0,0,0,0,0,0,0,0,0,0,0,0,0,0,0,0,0,0,0,0,0,0,0,0,0,0,0,0,0,0,0,0,0,0,0,0,0,0,0,0,0,0,0,0,0,0,0,0,0,0,0,0,0,0,0,0,0,0,0,0,0,0,0,0,0,0,0,0,0,0,0,12458,12469,12480,0,0,0,0,0,0,0,0,0,0,0,0,11695,11712,11725,11727,0,0,0,0,0,0,0,0,0,0,0,0,0,0,0,0,0,0,0,0,0,0,0,0,0,0,0,0,0,0,0,0,0,0,0,0,0,0,0,0,0,0,0,0,0,0,0,0,0,0,0,0,0,0,0,0,0,0,0,0,0,0,0,0,0,0,0,0,0,0,0,0,0,0,0,0,0,0,0,0,0,0,0,0,0,0,0,0,11743,11760,11774,11779,0,0,0,0,0,0,0,0,0,0,0,0,0,0,0,0,0,0,0,0,0,0,0,0,0,0,0,0,0,0,0,0,0,0,0,0,0,0,0,0,0,0,0,0,0,0,0,0,0,0,0,0,0,0,0,0,0,0,0,0,0,0,0,0,0,0,0,0,0,0,0,0,0,0,0,0,0,0,0,0,0,0,0,0,0,0,0,0,11786,11802,11819,11834,0,0,0,0,0,0,0,0,0,0,0,0,0,0,0,0,0,0,0,0,0,0,0,0,0,0,0,0,0,0,0,0,0,0,0,0,0,0,0,0,0,0,0,0,0,0,0,0,0,0,0,0,0,0,0,0,0,0,0,0,0,0,0,0,0,0,0,0,0,0,0,0,0,0,0,0,0,0,0,0,0,0,0,0,0,0,0,0,11848,11865,11881,0,0,0,0,0,0,0,0,0,0,0,0,0,0,0,0,0,0,0,0,0,0,0,0,0,0,0,0,0,0,0,0,0,0,0,0,0,0,0,0,0,0,0,0,0,0,0,0,0,0,0,0,0,0,0,0,0,0,0,0,0,0,0,0,0,0,0,0,0,0,0,0,0,0,0,0,0,0,0,0,0,0,0,0,0,0,0,0,0,0,11897,11911,11925,0,0,0,0,0,0,0,0,0,0,0,0,0,0,0,0,0,0,0,0,0,0,0,0,0,0,0,0,0,0,0,0,0,0,0,0,0,0,0,0,0,0,0,0,0,0,0,0,0,0,0,0,0,0,0,0,0,0,0,0,0,0,0,0,0,0,0,0,0,0,0,0,0,0,0,0,0,0,0,0,0,0,0,0,0,0,0,0,11935,11952,11969,11979,0,0,0,0,0,0,0,0,0,0,0,0,0,0,0,0,0,0,0,0,0,0,0,0,0,0,0,0,0,0,0,0,0,0,0,0,0,0,0,0,0,0,0,0,0,0,0,0,0,0,0,0,0,0,0,0,0,0,0,0,0,0,0,0,0,0,0,0,0,0,0,0,0,0,0,0,0,0,0,0,0,0,0,0,0,0,0,0,11989,12002,12019,0,0,0,0,0,0,0,0,0,0,0,0,0,0,0,0,0,0,0,0,0,0,0,0,0,0,0,0,0,0,0,0,0,0,0,0,0,0,0,0,0,0,0,0,0,0,0,0,0,0,0,0,0,0,0,0,0,0,0,0,0,0,0,0,0,0,0,0,0,0,0,0,0,0,0,0,0,0,0,0,0,0,0,0,0,0,0,0,0,12036,12053,12067,12076,0,0,0,0,0,0,0,0,0,0,0,0,0,0,0,0,0,0,0,0,0,0,0,0,0,0,0,0,0,0,0,0,0,0,0,0,0,0,0,0,0,0,0,0,0,0,0,0,0,0,0,0,0,0,0,0,0,0,0,0,0,0,0,0,0,0,0,0,0,0,0,0,0,0,0,0,0,0,0,0,0,0,0,0,0,0,0,0,12081,12089,12105,12120,0,0,0,0,0,0,0,0,0,0,0,0,0,0,0,0,0,0,0,0,0,0,0,0,0,0,0,0,0,0,0,0,0,0,0,0,0,0,0,0,0,0,0,0,0,0,0,0,0,0,0,0,0,0,0,0,0,0,0,0,0,0,0,0,0,0,0,0,0,0,0,0,0,0,0,0,0,0,0,0,0,0,0,0,0,0,0,0,0,12129,12146,12149,0,0,0,0,0,0,0,0,0,0,0,0,0,0,0,0,0,0,0,0,0,0,0,0,0,0,0,0,0,0,0,0,0,0,0,0,0,0,0,0,0,0,0,0,0,0,0,0,0,0,0,0,0,0,0,0,0,0,0,0,0,0,0,0,0,0,0,0,0,0,0,0,0,0,0,0,0,0,0,0,0,0,0,0,0,0,0,0,0,12166,12183,0,0,0,0,0,0,0,0,0,0,0,0,0,0,0,0,0,0,0,0,0,0,0,0,0,0,0,0,0,0,0,0,0,0,0,0,0,0,0,0,0,0,0,0,0,0,0,0,0,0,0,0,0,0,0,0,0,0,0,0,0,0,0,0,0,0,0,0,0,0,0,0,0,0,0,0,0,0,0,0,0,0,0,0,0,0,0,0,0,12192,12200,12217,0,0,0,0,0,0,0,0,0,0,0,0,0,0,0,0,0,0,0,0,0,0,0,0,0,0,0,0,0,0,0,0,0,0,0,0,0,0,0,0,0,0,0,0,0,0,0,0,0,0,0,0,0,0,0,0,0,0,0,0,0,0,0,0,0,0,0,0,0,0,0,0,0,0,0,0,0,0,0,0,0,0,0,0,0,0,0,0,0,12229,12240,12257,12274,0,0,0,0,0,0,0,0,0,0,0,0,0,0,0,0,0,0,0,0,0,0,0,0,0,0,0,0,0,0,0,0,0,0,0,0,0,0,0,0,0,0,0,0,0,0,0,0,0,0,0,0,0,0,0,0,0,0,0,0,0,0,0,0,0,0,0,0,0,0,0,0,0,0,0,0,0,0,0,0,0,0,0,0,0,0,0,0,12290,12307,12315,12318,0,0,0,0,0,0,0,0,0,0,0,0,0,0,0,0,0,0,0,0,0,0,0,0,0,0,0,0,0,0,0,0,0,0,0,0,0,0,0,0,0,0,0,0,0,0,0,0,0,0,0,0,0,0,0,0,0,0,0,0,0,0,0,0,0,0,0,0,0,0,0,0,0,0,0,0,0,0,0,0,0,0,0,0,0,0,0,0,12322,12336,12353,12370,0,0,0,0,0,0,0,0,0,0,0,0,0,0,0,0,0,0,0,0,0,0,0,0,0,0,0,0,0,0,0,0,0,0,0,0,0,0,0,0,0,0,0,0,0,0,0,0,0,0,0,0,0,0,0,0,0,0,0,0,0,0,0,0,0,0,0,0,0,0,0,0,0,0,0,0,0,0,0,0,0,0,0,0,0,0,0,0,0,0,12385,12402,0,0,0,0,0,0,0,0,0,0,0,0,0,0,0,0,0,0,0,0,0,0,0,0,0,0,0,0,0,0,0,0,0,0,0,0,0,0,0,0,0,0,0,0,0,0,0,0,0,0,0,0,0,0,0,0,0,0,0,0,0,0,0,0,0,0,0,0,0,0,0,0,0,0,0,0,0,0,0,0,0,0,0,0,0,0,0,0,0,0,0,0,0,0,0,0,0,0,0,0,0,0,0,0,0,0,0,0,0,0,0,0,0,0,0,0,0,0,0,0,0,0,0,0,0,0,0,0,0,0,0,0,0,0,0,0,0,0,0,0,0,0,0,0,0,0,0,0,0,0,0,0,0,0,0,0,0,0,0,0,0,0,0,0,0,0,0,0,0,0,0,0,0,0,0,0,0,0,0,0,0,0,0,0,0,0,0,0,0,0,0,0,0,0,0,0,0,0,0,0,0,0,0,0,0,0,0,0,0,0,0,0,0,0,0,0,0,0,0,0,0,0,0,0,0,0,0,0,0,0,0,0,0,0,0,0,0,0,0,0,0,0,0,0,0,0,0,0,0,0,0,0,0,0,0,0,0,0,0,0,0,0,0,0,0,0,0,0,0,0,0,0,0,0,0,0,0,0,0,0,0,0,0,0,0,0,0,0,0,0,0,0,0,0,0,0,0,0,0,0,0,0,0,0,0,0,0,0,0,0,0,0,0,0,0,0,0,0,0,0,0,0,0,0,0,0,0,0,0,0,0,0,0,0,0,0,0,0,0,0,0,0,0,0,0,0,0,0,0,0,0,0,0,0,0,0,0,0,0,0,0,0,0,0,0,0,0,0,0,0,0,0,0,0,0,0,0,0,0,0,0,0,0,0,0,0,0,0,0,0,0,0,0,0,0,0,0,0,0,0,0,0,0,0,0,0,0,0,0,0,0,0,0,0,0,0,0,0,0,0,0,0,0,0,0,0,0,0,0,0,0,0,0,0,0,0,0,0,0,0,0,0,0,0,0,0,0,0,0,0,0,0,0,0,0,0,0,0,0,0,0,0,0,0,0,0,0,0,0,0,0,0,0,0,0,0,0,0,0,0,0,0,0,0,0,0,0,0,0,0,0,0,0,0,0,0,0,0,0,0,0,0,0,0,0,0,0,0,0,0,0,0,0,0,0,0,0,0,0,0,0,0,0,0,0,0,0,0,0,0,0,0,0,0,0,0,0,0,0,0,0,0,0,0,0,0,0,0,0,0,0,0,0,0,0,0,0,0,0,0,0,0,0,0,0,0,0,0,0,0,0,0,0,0,0,0,0,0,0,0,0,0,0,0,0,0,0,0,0,0,0,0,0,0,0,0,0,0,0,0,0,0,0,0,0,0,0,0,0,0,0,0,0,0,0,0,0,0,0,0,0,0,0,0,0,0,0,0,0,0,0,0,0,0,0,0,0,0,0,0,0,0,0,0,0,0,0,0,0,0,0,0,0,0,0,0,0,0,0,0,0,0,0,0,0,0,0,0,0,0,0,0,0,0,0,0,0,0,0,0,0,0,0,0,0,0,0,0,0,0,0,0,0,0,0,0,0,0,0,0,0,0,0,0,0,0,0,0,0,0,0,0,0,0,0,0,0,0,0,0,0,0,0,0,0,0,0,0,0,0,0,0,0,0,0,0,0,0,0,0,0,0,0,0,0,0,0,0,0,0,0,0,0,0,0,0,0,0,0,0,0,0,0,0,0,0,0,0,0,0,0,0,0,0,0,0,0,0,0,0,0,0,0,0,0,0,0,0,0,0,0,0,0,0,0,0,0,0,0,0,0,0,0,0,0,0,0,0,0,0,0,0,0,0,0,0,0,0,0,0,0,0,0,0,0,0,0,0,0,0,0,0,0,0,0,0,0,0,0,0,0,0,0,0,0,0,0,0,0,0,0,0,0,0,0,0,0,0,0,0,0,0,0,0,0,0,0,0,0,0,0,0,0,0,0,0,0,0,0,0,0,0,0,0,0,0,0,0,0,0,0,0,0,0,0,0,0,0,0,0,0,0,0,0,0,0,0,0,0,0,0,0,0,0,0,0,0,0,0,0,0,0,0,0,0,0,0,0,0,0,0,0,0,0,0,0,0,0,0,0,0,0,0,0,0,0,0,0,0,0,0,0,0,0,0,0,0,0,0,0,0,0,0,0,0,0,0,0,0,0,0,0,0,0,0,0,0,0,0,0,0,0,0,0,0,0,0,0,0,0,0,0,0,0,0,0,0,0,0,0,0,0,0,0,0,0,0,0,0,0,0,0]},{"id":3,"name":"collision-permanent","type":"tilelayer","x":0,"y":0,"width":92,"height":82,"visible":true,"opacity":0,"data":[8921,8921,8921,8921,8921,8921,8921,8921,8921,8921,8921,8921,8921,8921,8921,8921,8921,8921,8921,8921,8921,8921,8921,8921,8921,8921,8921,8921,8921,8921,8921,8921,8921,8921,8921,8921,8921,8921,8921,8921,8921,8921,8921,8921,8921,8921,8921,8921,8921,8921,8921,8921,8921,8921,8921,8921,8921,8921,8921,8921,8921,8921,8921,8921,8921,8921,8921,8921,8921,8921,8921,8921,8921,8921,8921,8921,8921,8921,8921,8921,8921,8921,8921,8921,8921,8921,8921,8921,8921,8921,8921,8921,8921,8921,8921,8921,8921,8921,8921,8921,8921,8921,8921,8921,8921,0,0,0,8921,8921,8921,8921,8921,8921,8921,8921,8921,8921,8921,8921,8921,8921,8921,8921,8921,8921,8921,8921,8921,8921,8921,8921,8921,8921,8921,8921,8921,8921,8921,8921,8921,8921,8921,8921,8921,8921,8921,8921,8921,8921,8921,8921,8921,8921,8921,8921,8921,8921,8921,8921,8921,8921,8921,8921,8921,8921,8921,8921,8921,8921,8921,8921,8921,8921,8921,8921,8921,8921,8921,8921,8921,8921,8921,8921,8921,8921,8921,8921,8921,8921,8921,8921,8921,8921,8921,8921,8921,0,0,0,8921,8921,8921,8921,8921,8921,8921,8921,8921,8921,8921,8921,8921,8921,8921,8921,8921,8921,8921,8921,8921,8921,8921,8921,8921,8921,8921,8921,8921,8921,8921,8921,8921,8921,8921,8921,8921,8921,8921,8921,8921,8921,8921,8921,8921,8921,8921,8921,8921,8921,8921,8921,8921,8921,8921,8921,8921,8921,8921,8921,8921,8921,8921,8921,8921,8921,8921,8921,8921,8921,8921,8921,8921,8921,8921,8921,8921,8921,8921,8921,8921,8921,8921,8921,8921,8921,8921,8921,8921,0,0,0,8921,8921,8921,8921,8921,8921,8921,8921,8921,8921,8921,8921,8921,8921,8921,8921,8921,8921,8921,8921,8921,8921,8921,8921,8921,8921,8921,8921,8921,8921,8921,8921,8921,8921,8921,8921,8921,8921,8921,8921,8921,8921,8921,8921,8921,8921,8921,8921,8921,8921,8921,8921,8921,8921,8921,8921,8921,8921,8921,8921,8921,8921,8921,8921,8921,8921,8921,8921,8921,8921,8921,8921,8921,8921,8921,8921,8921,8921,8921,8921,8921,8921,8921,8921,8921,8921,8921,8921,8921,0,0,0,8921,8921,8921,8921,8921,8921,8921,8921,8921,8921,8921,8921,8921,8921,8921,8921,8921,8921,8921,8921,8921,8921,8921,8921,8921,8921,8921,8921,8921,8921,8921,8921,8921,8921,8921,8921,8921,8921,8921,8921,8921,8921,8921,8921,8921,8921,8921,8921,8921,8921,8921,8921,8921,8921,8921,8921,8921,8921,8921,8921,8921,8921,8921,8921,8921,8921,8921,8921,8921,8921,8921,8921,8921,8921,8921,8921,8921,8921,8921,8921,8921,8921,8921,8921,8921,8921,8921,8921,8921,0,0,0,8921,8921,8921,8921,8921,8921,8921,8921,8921,8921,8921,8921,8921,8921,8921,8921,8921,8921,8921,8921,8921,8921,8921,8921,8921,8921,8921,8921,8921,8921,8921,8921,8921,8921,8921,8921,8921,8921,8921,8921,8921,8921,8921,8921,8921,8921,8921,8921,8921,8921,8921,8921,8921,8921,8921,8921,8921,8921,8921,8921,8921,8921,8921,8921,8921,8921,8921,8921,8921,8921,8921,8921,8921,8921,8921,8921,8921,8921,8921,8921,8921,8921,8921,8921,8921,8921,8921,8921,8921,0,0,0,8921,8921,8921,8921,8921,8921,8921,8921,8921,8921,8921,8921,8921,8921,8921,8921,8921,8921,8921,8921,8921,8921,8921,8921,8921,8921,8921,8921,8921,8921,8921,8921,8921,8921,8921,8921,8921,8921,8921,8921,8921,8921,8921,8921,8921,8921,8921,8921,8921,8921,8921,8921,8921,8921,8921,8921,8921,8921,8921,8921,8921,8921,8921,8921,8921,8921,8921,8921,8921,8921,8921,8921,8921,8921,8921,8921,8921,8921,8921,8921,8921,8921,8921,8921,8921,8921,8921,8921,8921,0,0,0,8921,8921,8921,8921,8921,8921,8921,8921,8921,8921,8921,8921,8921,8921,8921,8921,8921,8921,8921,8921,8921,8921,8921,8921,8921,8921,8921,8921,8921,8921,8921,8921,8921,8921,8921,8921,8921,8921,8921,8921,8921,8921,8921,8921,8921,8921,8921,8921,8921,8921,8921,8921,8921,8921,8921,8921,8921,8921,8921,8921,8921,8921,8921,8921,8921,8921,8921,8921,8921,8921,8921,8921,8921,8921,8921,8921,8921,8921,8921,8921,8921,8921,8921,8921,8921,8921,8921,8921,8921,0,0,0,8921,8921,8921,8921,8921,8921,8921,8921,8921,8921,8921,8921,8921,8921,8921,8921,8921,8921,8921,8921,8921,8921,8921,8921,8921,8921,8921,8921,8921,8921,8921,8921,8921,8921,8921,8921,8921,8921,8921,8921,8921,8921,8921,8921,8921,8921,8921,8921,8921,8921,8921,8921,8921,8921,8921,8921,8921,8921,8921,8921,8921,8921,8921,8921,8921,8921,8921,8921,8921,8921,8921,8921,8921,8921,8921,8921,8921,8921,8921,8921,8921,8921,8921,8921,8921,8921,8921,8921,8921,0,0,0,8921,8921,8921,8921,8921,8921,8921,8921,8921,8921,8921,8921,8921,8921,0,0,0,0,0,0,8921,8921,0,0,0,8921,8921,0,0,0,0,0,0,8921,8921,8921,8921,8921,8921,8921,8921,8921,8921,8921,8921,8921,8921,8921,8921,8921,8921,8921,8921,8921,8921,8921,8921,8921,8921,8921,8921,8921,8921,8921,8921,8921,8921,8921,8921,8921,8921,8921,8921,8921,8921,8921,8921,8921,8921,8921,8921,8921,8921,8921,8921,8921,8921,8921,8921,0,0,0,8921,8921,8921,8921,8921,8921,8921,8921,8921,8921,8921,8921,0,0,0,0,0,0,0,0,8921,8921,0,0,0,8921,8921,0,0,0,0,0,0,0,0,8921,8921,8921,8921,8921,8921,8921,8921,8921,8921,8921,8921,8921,8921,8921,8921,8921,8921,8921,8921,8921,8921,8921,8921,8921,8921,8921,8921,8921,8921,8921,8921,8921,8921,8921,8921,8921,8921,8921,8921,8921,8921,8921,8921,8921,8921,8921,8921,8921,8921,8921,8921,8921,8921,0,0,0,8921,8921,8921,8921,8921,8921,8921,8921,8921,8921,8921,8921,8921,8921,0,0,0,0,8921,8921,8921,8921,0,0,0,8921,8921,8921,8921,0,0,0,0,8921,8921,8921,8921,8921,8921,8921,8921,8921,8921,8921,8921,8921,8921,8921,8921,8921,8921,8921,8921,8921,8921,8921,8921,8921,8921,8921,8921,8921,8921,8921,8921,8921,8921,8921,8921,8921,8921,8921,8921,8921,8921,8921,8921,8921,8921,8921,8921,8921,8921,8921,8921,8921,8921,8921,8921,0,0,0,8921,8921,8921,8921,8921,8921,8921,8921,8921,8921,8921,8921,8921,8921,8921,0,0,8921,8921,8921,8921,8921,0,0,0,8921,8921,8921,8921,8921,0,0,8921,8921,8921,8921,8921,8921,8921,8921,8921,8921,8921,8921,8921,8921,8921,8921,8921,8921,8921,8921,8921,8921,8921,8921,8921,8921,8921,8921,8921,8921,8921,8921,8921,8921,8921,8921,8921,8921,8921,8921,8921,8921,8921,8921,8921,8921,8921,8921,8921,8921,8921,8921,8921,8921,8921,8921,8921,0,0,0,8921,8921,8921,8921,8921,8921,8921,8921,8921,8921,8921,8921,8921,8921,8921,0,0,8921,8921,8921,8921,8921,0,0,0,8921,8921,8921,8921,8921,0,0,8921,8921,8921,8921,8921,8921,8921,8921,8921,8921,8921,8921,8921,8921,8921,8921,8921,8921,8921,8921,8921,8921,8921,8921,8921,8921,8921,8921,8921,8921,8921,8921,8921,8921,8921,8921,8921,8921,8921,8921,8921,8921,8921,8921,8921,8921,8921,8921,8921,8921,8921,8921,8921,8921,8921,8921,8921,0,0,0,8921,8921,8921,8921,8921,8921,8921,8921,8921,8921,8921,0,0,0,8921,0,0,8921,0,0,0,0,0,0,0,0,0,0,0,8921,0,0,8921,0,0,0,0,8921,8921,8921,8921,8921,8921,8921,8921,8921,8921,8921,8921,8921,8921,8921,8921,8921,8921,8921,8921,8921,8921,8921,8921,8921,8921,8921,8921,8921,8921,8921,8921,8921,8921,8921,8921,8921,8921,8921,8921,8921,8921,8921,8921,8921,8921,8921,8921,8921,8921,8921,8921,0,0,0,8921,8921,8921,8921,8921,8921,8921,8921,8921,8921,8921,0,8921,8921,8921,0,0,8921,8921,8921,0,0,0,0,0,0,0,8921,8921,8921,0,0,8921,8921,8921,0,0,8921,8921,8921,8921,8921,8921,8921,8921,8921,8921,8921,8921,8921,8921,8921,8921,8921,8921,8921,8921,8921,8921,8921,8921,8921,8921,8921,8921,8921,8921,8921,8921,8921,8921,8921,8921,8921,8921,8921,8921,8921,8921,8921,8921,8921,8921,8921,8921,8921,8921,8921,8921,0,0,0,8921,8921,8921,8921,8921,8921,8921,8921,8921,8921,8921,0,0,0,0,0,0,0,0,0,0,0,0,0,0,0,0,0,0,0,0,0,0,0,0,0,0,8921,8921,8921,8921,8921,8921,8921,8921,8921,8921,8921,8921,8921,8921,8921,8921,8921,8921,8921,8921,8921,8921,8921,8921,8921,8921,8921,8921,8921,8921,8921,8921,8921,8921,8921,8921,8921,8921,8921,8921,8921,8921,8921,8921,8921,8921,8921,8921,8921,8921,8921,8921,0,0,0,8921,8921,8921,8921,8921,8921,8921,8921,8921,8921,8921,0,0,0,0,0,0,0,0,0,0,0,0,0,0,0,0,0,0,0,0,0,0,0,0,0,0,8921,8921,8921,8921,8921,8921,8921,8921,8921,8921,8921,8921,8921,8921,8921,8921,8921,8921,8921,8921,8921,8921,8921,8921,8921,8921,8921,8921,8921,8921,8921,8921,8921,8921,8921,8921,8921,8921,8921,8921,8921,8921,8921,8921,8921,8921,8921,8921,8921,8921,8921,8921,0,0,0,8921,8921,8921,8921,8921,8921,8921,8921,8921,8921,8921,0,0,0,0,0,0,0,0,0,0,0,0,0,0,0,0,0,0,0,0,0,0,0,0,0,0,8921,8921,8921,8921,8921,8921,8921,8921,8921,8921,8921,8921,8921,8921,8921,8921,8921,8921,8921,8921,8921,8921,8921,8921,8921,8921,8921,8921,8921,8921,8921,8921,8921,8921,8921,8921,8921,8921,8921,8921,8921,8921,8921,8921,8921,8921,8921,8921,8921,8921,8921,8921,0,0,0,8921,8921,8921,8921,8921,8921,8921,8921,8921,8921,8921,0,0,0,0,0,0,0,0,0,0,0,0,0,0,0,0,0,0,0,0,0,0,0,0,0,0,8921,8921,8921,8921,0,0,8921,0,0,0,0,0,0,0,0,8921,8921,8921,8921,8921,8921,8921,8921,8921,8921,8921,8921,8921,8921,8921,8921,8921,8921,8921,8921,8921,8921,8921,8921,8921,8921,8921,8921,8921,8921,8921,8921,8921,8921,8921,8921,8921,0,0,0,8921,8921,8921,8921,8921,8921,8921,8921,8921,8921,8921,0,0,0,0,0,0,0,0,0,0,0,0,0,0,0,0,0,0,0,0,0,0,0,0,0,0,8921,8921,8921,8921,0,0,8921,0,0,0,0,0,0,0,0,8921,8921,8921,8921,8921,8921,8921,8921,8921,8921,8921,8921,8921,8921,8921,8921,8921,8921,8921,8921,8921,8921,8921,8921,8921,8921,8921,8921,8921,8921,8921,8921,8921,8921,8921,8921,8921,0,0,0,8921,8921,8921,8921,8921,8921,8921,8921,8921,8921,8921,0,0,0,0,0,0,0,0,0,0,0,0,0,0,0,0,0,0,0,0,0,0,0,0,0,0,8921,8921,8921,8921,0,0,0,0,8921,8921,8921,8921,8921,8921,8921,8921,8921,8921,8921,8921,8921,8921,8921,8921,8921,8921,8921,8921,8921,8921,8921,8921,8921,8921,8921,8921,8921,8921,8921,8921,8921,8921,8921,8921,8921,8921,8921,8921,8921,8921,8921,8921,0,0,0,8921,8921,8921,8921,8921,8921,8921,8921,8921,8921,8921,0,0,8921,8921,8921,8921,8921,0,0,0,0,0,0,0,0,0,0,0,0,0,0,0,0,0,0,0,8921,8921,8921,8921,0,0,0,0,8921,8921,8921,8921,8921,8921,8921,8921,8921,8921,8921,8921,8921,8921,8921,8921,8921,8921,8921,8921,8921,8921,8921,8921,8921,8921,8921,8921,8921,8921,8921,8921,8921,8921,8921,8921,8921,8921,8921,8921,8921,8921,8921,8921,0,0,0,8921,8921,8921,8921,8921,8921,8921,8921,8921,8921,8921,0,0,8921,0,0,0,8921,0,0,0,0,0,0,0,0,0,0,0,0,0,0,0,0,0,0,0,0,0,0,0,0,0,0,0,8921,8921,8921,8921,8921,8921,8921,8921,8921,8921,8921,8921,8921,8921,8921,8921,8921,8921,8921,8921,8921,8921,8921,8921,8921,8921,8921,8921,8921,8921,8921,8921,8921,8921,8921,8921,8921,8921,8921,8921,8921,8921,8921,8921,0,0,0,8921,8921,8921,8921,8921,8921,8921,8921,8921,8921,8921,0,0,0,0,0,0,0,0,0,0,0,0,0,0,0,0,0,0,0,0,0,0,0,0,0,0,0,0,0,0,0,0,8921,0,0,0,0,0,0,0,0,8921,8921,8921,8921,8921,8921,8921,8921,8921,8921,8921,8921,8921,8921,8921,8921,8921,8921,8921,8921,8921,8921,8921,8921,8921,8921,8921,8921,8921,8921,8921,8921,8921,8921,8921,8921,8921,0,0,0,8921,8921,8921,8921,8921,8921,8921,8921,8921,8921,8921,0,0,0,8921,8921,8921,0,0,0,0,0,0,0,0,0,0,0,0,0,0,0,0,0,0,0,0,8921,8921,8921,8921,0,0,8921,0,0,8921,0,8921,0,8921,0,8921,8921,8921,8921,8921,8921,8921,8921,8921,8921,8921,8921,8921,8921,8921,8921,8921,8921,8921,8921,8921,8921,8921,8921,8921,8921,8921,8921,8921,8921,8921,8921,8921,8921,8921,8921,8921,0,0,0,8921,8921,8921,8921,8921,8921,8921,8921,8921,8921,8921,0,0,0,0,0,0,0,0,0,0,0,0,0,0,0,0,8921,8921,8921,8921,8921,8921,8921,8921,8921,0,8921,8921,8921,8921,0,0,8921,0,0,0,0,0,0,0,0,8921,8921,8921,8921,8921,8921,8921,8921,8921,8921,8921,8921,8921,8921,8921,8921,8921,8921,8921,8921,8921,8921,8921,8921,8921,8921,8921,8921,8921,8921,8921,8921,8921,8921,8921,8921,8921,0,0,0,8921,8921,8921,8921,8921,8921,8921,8921,8921,8921,8921,0,0,0,0,8921,0,0,0,0,0,0,0,0,0,0,0,0,0,0,0,0,0,0,0,0,0,8921,8921,8921,8921,0,0,8921,0,0,0,0,0,0,0,0,8921,8921,8921,8921,8921,8921,8921,8921,8921,8921,8921,8921,8921,8921,8921,8921,8921,8921,8921,8921,8921,8921,8921,8921,8921,8921,8921,8921,8921,8921,8921,8921,8921,8921,8921,8921,8921,0,0,0,8921,8921,8921,8921,8921,8921,8921,8921,8921,8921,8921,0,0,0,0,0,0,0,0,0,0,0,0,0,0,0,0,0,0,0,0,0,0,0,0,0,0,8921,8921,8921,8921,0,0,8921,0,0,0,0,0,0,0,0,8921,8921,8921,8921,8921,8921,8921,8921,8921,8921,8921,8921,8921,8921,8921,8921,8921,8921,8921,8921,8921,8921,8921,8921,8921,8921,8921,8921,8921,8921,8921,8921,8921,8921,8921,8921,8921,0,0,0,8921,8921,8921,8921,8921,8921,8921,8921,8921,8921,8921,0,0,0,0,0,0,0,0,0,0,0,0,0,0,0,0,0,0,0,0,0,0,0,0,0,0,8921,8921,8921,8921,0,0,0,0,0,0,0,0,0,0,0,8921,8921,8921,8921,8921,8921,8921,8921,8921,8921,8921,8921,8921,8921,8921,8921,8921,8921,8921,8921,8921,8921,8921,8921,8921,8921,8921,8921,8921,8921,8921,8921,8921,8921,8921,8921,8921,0,0,0,8921,8921,8921,8921,8921,8921,8921,8921,8921,8921,8921,8921,8921,8921,8921,8921,8921,8921,8921,8921,8921,8921,0,0,0,8921,8921,8921,8921,8921,8921,8921,8921,8921,8921,8921,8921,8921,8921,8921,8921,0,0,8921,8921,8921,8921,8921,8921,8921,8921,8921,8921,8921,8921,8921,8921,8921,8921,8921,8921,8921,8921,8921,8921,8921,8921,8921,8921,8921,8921,8921,8921,8921,8921,8921,8921,8921,8921,8921,8921,8921,8921,8921,8921,8921,8921,8921,8921,0,0,0,8921,8921,8921,8921,8921,8921,8921,8921,8921,8921,8921,8921,8921,8921,8921,8921,8921,8921,8921,8921,8921,8921,0,0,0,8921,8921,8921,8921,8921,8921,8921,8921,8921,8921,8921,8921,8921,8921,8921,8921,0,0,8921,8921,8921,8921,8921,8921,8921,8921,8921,8921,8921,8921,8921,8921,8921,8921,8921,8921,8921,8921,8921,8921,8921,8921,8921,8921,8921,8921,8921,8921,8921,8921,8921,8921,8921,8921,8921,8921,8921,8921,8921,8921,8921,8921,8921,8921,0,0,0,0,0,0,0,0,0,0,0,0,0,0,0,0,0,0,0,0,0,0,0,0,0,0,0,0,0,0,0,0,0,0,0,0,0,0,0,0,0,0,0,0,0,0,0,8921,8921,8921,8921,8921,8921,8921,8921,8921,8921,8921,8921,8921,8921,8921,8921,8921,8921,8921,8921,8921,8921,8921,8921,8921,8921,8921,8921,8921,8921,8921,8921,8921,8921,8921,8921,8921,8921,8921,8921,8921,8921,8921,8921,8921,0,0,0,0,0,0,0,0,0,0,0,0,0,0,0,0,0,0,0,0,0,0,0,0,0,0,0,0,0,0,0,0,0,0,0,0,0,0,0,0,0,0,0,0,0,0,0,8921,8921,8921,8921,8921,8921,8921,8921,8921,8921,8921,8921,8921,8921,8921,8921,8921,8921,8921,8921,8921,8921,8921,8921,8921,8921,8921,8921,8921,8921,8921,8921,8921,8921,8921,8921,8921,8921,8921,8921,8921,8921,8921,8921,8921,0,0,0,0,0,0,0,0,0,0,0,0,0,0,0,0,0,0,0,0,0,0,0,0,0,0,0,0,0,0,0,0,0,0,0,0,0,0,0,0,0,0,0,0,0,0,0,8921,8921,8921,8921,8921,8921,8921,8921,8921,8921,8921,8921,8921,8921,8921,8921,8921,8921,8921,8921,8921,8921,8921,8921,8921,8921,8921,8921,8921,8921,8921,8921,8921,8921,8921,8921,8921,8921,8921,8921,8921,8921,8921,8921,8921,8921,8921,8921,8921,8921,8921,8921,8921,8921,8921,8921,8921,8921,8921,8921,8921,8921,8921,8921,8921,8921,8921,8921,8921,8921,0,0,8921,8921,8921,8921,8921,8921,8921,8921,8921,8921,8921,8921,8921,8921,8921,8921,8921,8921,8921,8921,8921,8921,8921,8921,8921,8921,8921,8921,8921,8921,8921,8921,8921,8921,8921,8921,8921,8921,8921,8921,8921,8921,8921,8921,8921,8921,8921,8921,8921,8921,8921,8921,8921,8921,8921,8921,8921,8921,8921,8921,8921,8921,8921,8921,8921,8921,8921,8921,8921,8921,8921,8921,8921,8921,8921,8921,8921,8921,8921,8921,8921,8921,8921,8921,8921,8921,8921,8921,8921,8921,0,0,8921,8921,8921,8921,8921,8921,8921,8921,8921,8921,8921,8921,8921,8921,8921,8921,8921,8921,8921,8921,8921,8921,8921,8921,8921,8921,8921,8921,8921,8921,8921,8921,8921,8921,8921,8921,8921,8921,8921,8921,8921,8921,8921,8921,8921,8921,8921,8921,8921,8921,8921,8921,8921,8921,8921,8921,8921,8921,8921,8921,8921,8921,8921,8921,8921,8921,8921,8921,8921,8921,8921,8921,8921,8921,8921,8921,8921,8921,8921,8921,8921,8921,8921,8921,8921,8921,8921,8921,8921,8921,0,0,8921,8921,8921,8921,8921,8921,8921,8921,8921,8921,8921,8921,8921,8921,8921,8921,8921,8921,8921,8921,8921,8921,8921,8921,8921,8921,8921,8921,8921,8921,8921,8921,8921,8921,8921,8921,8921,8921,8921,8921,8921,8921,8921,8921,8921,8921,8921,8921,8921,8921,8921,8921,8921,8921,8921,8921,8921,8921,8921,8921,8921,8921,8921,8921,8921,8921,8921,8921,8921,8921,8921,8921,8921,8921,8921,8921,8921,8921,8921,8921,8921,8921,8921,8921,8921,8921,8921,8921,8921,8921,0,0,8921,8921,8921,8921,8921,8921,8921,8921,8921,8921,8921,8921,8921,8921,8921,8921,8921,8921,8921,8921,8921,8921,8921,8921,8921,8921,8921,8921,8921,8921,8921,8921,8921,8921,8921,8921,8921,8921,8921,8921,8921,8921,8921,8921,8921,8921,8921,8921,8921,8921,8921,8921,8921,8921,8921,8921,8921,8921,8921,8921,8921,8921,8921,8921,8921,8921,8921,8921,8921,8921,8921,8921,8921,8921,8921,8921,8921,8921,8921,8921,0,0,8921,8921,8921,8921,8921,8921,8921,8921,0,0,8921,8921,8921,8921,8921,8921,8921,8921,8921,8921,8921,8921,8921,8921,8921,8921,8921,8921,8921,8921,8921,8921,8921,8921,8921,8921,8921,8921,8921,8921,8921,8921,8921,8921,8921,8921,8921,8921,8921,8921,8921,8921,8921,8921,8921,8921,8921,8921,8921,8921,8921,8921,8921,8921,8921,0,0,0,0,0,0,0,0,0,0,0,0,0,0,8921,8921,8921,8921,8921,8921,8921,8921,0,0,0,0,0,0,0,0,8921,8921,8921,8921,8921,0,0,8921,8921,8921,8921,8921,8921,8921,8921,8921,8921,8921,8921,8921,8921,8921,8921,8921,8921,8921,8921,8921,8921,8921,8921,8921,8921,8921,8921,8921,8921,8921,8921,8921,8921,8921,8921,8921,8921,8921,8921,8921,8921,8921,8921,8921,8921,8921,8921,8921,8921,8921,8921,8921,8921,8921,0,0,0,0,0,0,0,0,0,0,0,0,0,0,8921,8921,8921,8921,8921,8921,8921,0,0,8921,8921,8921,8921,8921,8921,0,0,8921,8921,8921,8921,0,0,8921,8921,8921,8921,8921,8921,8921,8921,8921,8921,8921,8921,8921,8921,8921,8921,8921,8921,8921,8921,8921,8921,8921,8921,8921,8921,8921,8921,8921,8921,8921,8921,8921,8921,8921,8921,8921,8921,8921,8921,8921,8921,8921,8921,8921,8921,8921,8921,8921,8921,8921,8921,8921,8921,0,0,8921,8921,0,0,0,8921,8921,0,0,0,8921,8921,0,0,8921,8921,8921,8921,8921,0,0,8921,8921,8921,8921,8921,8921,8921,8921,0,0,8921,8921,8921,0,0,8921,8921,8921,8921,8921,8921,8921,8921,8921,8921,8921,8921,8921,8921,8921,8921,8921,8921,8921,8921,8921,8921,8921,8921,8921,8921,8921,8921,8921,8921,8921,8921,8921,8921,8921,8921,8921,8921,8921,8921,8921,8921,8921,8921,8921,8921,8921,8921,8921,8921,8921,8921,8921,8921,0,0,8921,8921,0,0,0,8921,8921,0,0,0,8921,8921,0,0,8921,8921,8921,8921,0,0,0,8921,8921,8921,8921,8921,8921,8921,8921,8921,0,0,8921,8921,0,0,8921,8921,8921,8921,8921,8921,8921,8921,8921,8921,8921,8921,8921,8921,8921,8921,8921,8921,8921,8921,8921,8921,8921,8921,8921,8921,8921,8921,8921,8921,8921,8921,8921,8921,8921,8921,8921,8921,8921,8921,8921,8921,8921,8921,8921,8921,8921,8921,8921,8921,8921,8921,8921,8921,0,0,0,0,0,0,0,0,0,0,0,0,0,0,0,0,8921,8921,8921,8921,0,0,0,8921,8921,8921,8921,8921,8921,8921,8921,8921,0,0,8921,8921,0,0,8921,8921,8921,8921,8921,8921,8921,8921,8921,8921,8921,8921,8921,8921,8921,8921,8921,8921,8921,8921,8921,8921,8921,8921,8921,8921,8921,8921,8921,8921,8921,8921,8921,8921,8921,8921,8921,8921,8921,8921,8921,8921,8921,8921,8921,8921,8921,8921,8921,8921,8921,8921,8921,8921,0,0,8921,8921,0,0,0,8921,8921,0,0,0,8921,8921,0,0,8921,8921,8921,8921,0,0,0,8921,8921,8921,8921,8921,8921,8921,8921,8921,0,0,8921,8921,0,0,8921,8921,8921,8921,8921,8921,8921,8921,8921,8921,8921,8921,8921,8921,8921,8921,8921,8921,8921,8921,8921,8921,8921,8921,8921,8921,8921,8921,8921,8921,8921,8921,8921,8921,8921,8921,8921,8921,8921,8921,8921,8921,8921,8921,8921,8921,8921,8921,8921,8921,8921,8921,8921,8921,0,0,8921,8921,0,0,0,8921,8921,0,0,0,8921,8921,0,0,0,0,0,8921,0,0,0,8921,8921,8921,8921,8921,8921,8921,8921,0,0,8921,8921,8921,0,0,8921,8921,8921,8921,8921,8921,8921,8921,8921,8921,8921,8921,8921,8921,8921,8921,8921,8921,8921,8921,8921,8921,8921,8921,8921,8921,8921,8921,8921,8921,8921,8921,8921,8921,8921,8921,8921,8921,8921,8921,8921,8921,8921,8921,8921,8921,8921,8921,8921,8921,8921,8921,8921,8921,0,0,8921,8921,0,0,0,8921,8921,0,0,0,8921,8921,0,0,0,0,0,8921,0,0,0,0,0,8921,8921,8921,8921,8921,0,0,0,0,0,0,0,0,0,8921,8921,8921,8921,8921,8921,8921,8921,8921,8921,8921,8921,8921,8921,8921,8921,8921,8921,8921,0,0,0,0,0,0,0,0,0,0,0,0,0,0,0,0,0,0,0,0,0,8921,8921,8921,8921,8921,8921,8921,8921,8921,8921,8921,8921,8921,0,0,0,0,0,0,0,0,0,0,0,0,0,0,0,0,0,0,0,0,0,0,0,0,0,0,0,0,0,0,0,0,0,0,0,0,0,0,0,0,0,0,0,0,0,0,0,0,0,0,0,0,0,0,0,0,0,0,0,0,0,0,0,0,0,0,0,0,0,0,0,0,0,0,0,0,8921,8921,0,8921,8921,8921,8921,8921,8921,8921,8921,8921,8921,8921,8921,8921,0,0,8921,8921,0,0,0,8921,8921,0,0,0,8921,8921,0,0,8921,0,0,0,0,0,0,0,0,0,0,0,0,0,0,0,0,0,0,0,0,0,0,0,0,0,0,0,0,0,0,0,0,0,0,0,0,0,0,0,0,8921,8921,8921,8921,8921,8921,8921,8921,8921,8921,8921,8921,0,0,0,0,0,0,0,8921,8921,0,0,8921,8921,8921,8921,8921,8921,8921,8921,8921,8921,8921,8921,8921,0,0,0,0,0,0,0,0,0,0,0,0,0,0,8921,8921,8921,8921,8921,8921,8921,8921,8921,8921,8921,8921,8921,8921,8921,8921,8921,8921,8921,8921,8921,0,0,8921,8921,8921,8921,8921,8921,8921,8921,8921,8921,8921,8921,8921,8921,8921,8921,8921,8921,8921,8921,8921,8921,8921,8921,8921,8921,8921,8921,8921,8921,8921,0,8921,8921,8921,8921,8921,8921,0,0,0,0,8921,8921,8921,8921,8921,8921,8921,8921,8921,8921,8921,8921,8921,8921,8921,8921,8921,8921,8921,8921,8921,8921,8921,8921,8921,8921,8921,8921,8921,8921,8921,8921,8921,8921,8921,8921,8921,8921,8921,8921,8921,8921,8921,8921,8921,8921,8921,8921,0,0,8921,8921,8921,8921,8921,8921,8921,8921,8921,8921,8921,8921,8921,8921,8921,8921,8921,8921,8921,8921,8921,8921,8921,8921,8921,8921,8921,8921,8921,8921,0,0,8921,8921,0,0,8921,8921,0,0,0,0,8921,8921,8921,8921,8921,8921,8921,8921,8921,8921,8921,8921,8921,8921,8921,8921,8921,8921,8921,8921,8921,8921,8921,8921,8921,8921,8921,8921,8921,8921,8921,8921,8921,8921,8921,8921,8921,8921,8921,8921,8921,8921,8921,8921,8921,8921,8921,8921,0,0,8921,8921,8921,8921,8921,8921,8921,8921,8921,8921,8921,8921,8921,8921,8921,8921,8921,8921,8921,8921,8921,8921,8921,8921,8921,8921,8921,8921,8921,0,0,0,8921,8921,0,0,8921,8921,0,0,0,0,8921,8921,8921,8921,8921,8921,8921,8921,8921,8921,8921,8921,8921,8921,8921,8921,8921,8921,8921,8921,8921,8921,8921,8921,8921,8921,8921,8921,8921,8921,8921,8921,8921,8921,8921,8921,8921,8921,8921,8921,8921,8921,8921,8921,8921,8921,8921,8921,0,0,8921,8921,8921,8921,8921,8921,8921,8921,8921,8921,8921,8921,8921,8921,8921,8921,8921,8921,8921,8921,8921,8921,8921,8921,8921,8921,8921,8921,8921,0,8921,8921,0,8921,8921,8921,8921,8921,8921,8921,0,0,8921,8921,8921,8921,8921,8921,8921,8921,8921,8921,8921,8921,8921,8921,8921,8921,8921,8921,8921,8921,8921,8921,8921,8921,8921,8921,8921,8921,8921,8921,8921,8921,8921,8921,8921,8921,8921,8921,8921,8921,8921,8921,8921,8921,8921,8921,8921,8921,0,0,8921,8921,8921,8921,8921,8921,8921,8921,8921,8921,8921,8921,8921,8921,8921,8921,8921,8921,8921,8921,8921,8921,8921,8921,8921,8921,8921,8921,8921,0,8921,8921,8921,8921,8921,8921,8921,8921,8921,8921,0,0,8921,8921,8921,8921,8921,8921,8921,8921,8921,8921,8921,8921,0,0,0,0,0,0,0,0,0,0,0,0,0,0,0,0,8921,8921,8921,8921,8921,8921,8921,8921,8921,8921,8921,8921,8921,8921,8921,8921,8921,8921,8921,8921,0,0,8921,8921,8921,8921,8921,8921,8921,8921,8921,8921,8921,8921,8921,8921,8921,8921,8921,8921,8921,8921,8921,8921,8921,8921,8921,8921,8921,8921,8921,0,8921,0,8921,8921,8921,8921,8921,0,0,8921,0,0,8921,8921,8921,8921,8921,8921,8921,8921,8921,8921,8921,8921,0,0,0,0,0,0,0,0,0,0,0,0,0,0,0,0,8921,8921,8921,8921,8921,8921,8921,8921,8921,8921,8921,8921,8921,8921,8921,8921,8921,8921,8921,8921,0,0,8921,8921,8921,8921,8921,8921,8921,8921,8921,8921,8921,8921,8921,8921,8921,8921,8921,8921,8921,8921,8921,8921,8921,8921,8921,8921,8921,8921,8921,0,8921,8921,0,8921,8921,8921,8921,8921,8921,8921,0,0,8921,8921,8921,8921,8921,8921,8921,8921,8921,8921,8921,8921,0,0,0,0,0,0,0,0,0,0,0,0,0,0,0,0,8921,8921,8921,8921,8921,8921,8921,8921,8921,8921,8921,8921,8921,8921,8921,8921,8921,8921,8921,0,0,0,0,8921,8921,8921,8921,8921,8921,8921,8921,8921,8921,8921,8921,8921,8921,8921,8921,8921,8921,8921,8921,8921,8921,8921,8921,8921,8921,8921,8921,0,8921,8921,8921,8921,8921,8921,8921,8921,8921,8921,0,0,8921,8921,8921,8921,8921,8921,8921,8921,8921,8921,8921,8921,0,0,0,8921,8921,8921,8921,8921,8921,8921,8921,8921,8921,0,0,0,8921,8921,8921,8921,8921,8921,8921,8921,8921,8921,8921,8921,8921,8921,8921,8921,8921,8921,8921,0,0,0,0,8921,8921,8921,8921,8921,8921,8921,8921,8921,8921,8921,8921,8921,8921,8921,8921,8921,8921,8921,8921,8921,8921,8921,8921,8921,8921,8921,8921,0,0,0,8921,8921,0,0,8921,8921,0,0,0,0,8921,8921,8921,8921,8921,8921,8921,8921,8921,8921,8921,8921,0,0,0,8921,8921,8921,8921,8921,8921,8921,8921,8921,8921,0,0,0,8921,8921,8921,8921,8921,8921,8921,8921,8921,8921,8921,8921,8921,8921,8921,8921,8921,8921,8921,0,0,0,0,8921,8921,8921,8921,8921,8921,8921,8921,8921,8921,8921,8921,8921,8921,8921,8921,8921,8921,8921,8921,8921,8921,8921,8921,8921,8921,8921,8921,8921,8921,8921,8921,8921,8921,8921,8921,8921,0,0,0,0,8921,8921,8921,8921,8921,8921,8921,8921,8921,8921,8921,8921,8921,0,0,0,0,0,0,0,0,0,0,0,0,0,0,8921,8921,8921,8921,8921,8921,8921,8921,8921,8921,8921,8921,8921,8921,8921,8921,8921,8921,8921,8921,0,0,0,0,8921,8921,8921,8921,8921,8921,8921,8921,8921,8921,8921,8921,8921,8921,8921,8921,8921,8921,8921,8921,8921,8921,8921,8921,8921,8921,8921,8921,8921,8921,8921,0,0,0,0,0,0,8921,8921,0,0,8921,8921,8921,8921,8921,8921,8921,8921,8921,8921,8921,8921,8921,0,0,0,0,0,0,0,0,0,0,0,0,0,0,8921,8921,8921,8921,8921,8921,8921,8921,8921,8921,8921,8921,8921,8921,8921,8921,8921,8921,8921,8921,0,0,0,0,8921,8921,8921,8921,8921,8921,8921,8921,8921,8921,8921,8921,8921,8921,8921,8921,8921,8921,8921,8921,8921,8921,8921,8921,8921,8921,8921,8921,8921,8921,8921,8921,8921,8921,8921,8921,8921,8921,8921,8921,0,8921,8921,8921,8921,8921,8921,8921,8921,8921,8921,8921,8921,0,0,8921,8921,8921,8921,8921,0,0,8921,8921,8921,8921,8921,0,0,8921,8921,8921,8921,8921,8921,8921,8921,8921,8921,8921,8921,8921,8921,8921,8921,8921,8921,8921,0,0,0,0,8921,8921,8921,8921,8921,8921,8921,8921,8921,8921,8921,8921,8921,8921,8921,8921,8921,8921,8921,8921,8921,8921,8921,8921,8921,8921,8921,8921,8921,8921,8921,8921,8921,8921,8921,8921,8921,8921,8921,8921,0,0,8921,8921,8921,8921,8921,8921,8921,8921,8921,8921,8921,0,0,0,0,0,0,0,0,0,0,0,0,0,0,0,0,8921,8921,8921,8921,8921,8921,8921,8921,8921,8921,8921,8921,8921,8921,8921,8921,8921,8921,8921,0,0,0,0,8921,8921,8921,8921,8921,8921,8921,8921,8921,8921,8921,8921,8921,8921,8921,8921,8921,8921,8921,8921,8921,8921,8921,8921,8921,8921,8921,8921,8921,8921,8921,8921,8921,8921,8921,8921,8921,8921,8921,8921,0,0,8921,8921,8921,8921,8921,8921,8921,8921,8921,8921,8921,0,0,8921,8921,8921,8921,8921,0,0,8921,8921,8921,8921,8921,0,0,8921,8921,8921,8921,8921,8921,8921,8921,8921,8921,8921,8921,8921,8921,8921,8921,8921,8921,8921,0,0,0,0,8921,8921,8921,8921,8921,8921,8921,8921,8921,8921,8921,8921,8921,8921,8921,8921,8921,8921,8921,8921,8921,8921,8921,8921,8921,8921,8921,8921,8921,8921,8921,8921,8921,8921,8921,8921,8921,8921,8921,8921,0,0,0,8921,8921,8921,8921,8921,8921,8921,8921,8921,8921,0,0,0,0,0,0,0,0,0,0,0,0,0,0,0,0,0,0,0,0,0,0,0,0,0,0,0,0,0,0,0,0,0,0,0,0,0,0,0,8921,8921,8921,8921,8921,8921,8921,8921,8921,8921,8921,8921,8921,8921,8921,8921,8921,8921,8921,8921,8921,8921,8921,8921,8921,8921,8921,8921,8921,8921,8921,8921,8921,8921,8921,8921,8921,8921,8921,8921,0,0,0,8921,8921,8921,8921,8921,8921,8921,8921,8921,8921,0,0,8921,8921,8921,8921,8921,0,0,8921,8921,8921,8921,8921,0,0,0,0,0,0,0,0,0,0,0,0,0,0,0,0,0,0,0,0,0,0,0,0,0,8921,8921,8921,8921,8921,8921,8921,8921,8921,8921,8921,8921,8921,8921,8921,8921,8921,8921,8921,8921,8921,8921,8921,8921,8921,8921,8921,8921,8921,8921,8921,8921,8921,8921,8921,8921,8921,8921,8921,8921,8921,0,0,0,8921,8921,8921,8921,8921,8921,8921,8921,8921,0,0,0,0,0,0,0,0,0,0,0,0,0,0,0,0,0,0,0,0,0,0,0,0,0,0,0,0,0,0,0,0,0,0,0,0,0,0,0,8921,8921,8921,8921,8921,8921,8921,8921,8921,8921,8921,8921,8921,8921,8921,8921,8921,8921,8921,0,0,0,0,0,0,0,0,0,0,0,0,0,0,0,0,0,0,0,8921,8921,8921,8921,0,0,8921,8921,8921,8921,8921,8921,8921,8921,8921,8921,0,8921,8921,8921,8921,8921,0,0,8921,8921,8921,8921,8921,0,8921,8921,8921,8921,8921,8921,8921,8921,8921,8921,8921,8921,8921,8921,8921,8921,8921,8921,8921,8921,0,0,0,0,8921,8921,8921,8921,8921,8921,8921,8921,8921,8921,8921,8921,8921,8921,8921,8921,0,0,0,0,0,0,0,0,0,0,0,0,0,0,0,0,0,0,0,0,0,0,8921,8921,8921,8921,8921,0,8921,8921,8921,8921,8921,8921,8921,8921,8921,8921,8921,8921,8921,8921,8921,8921,8921,8921,8921,8921,8921,8921,8921,8921,8921,8921,8921,8921,8921,8921,8921,8921,8921,8921,8921,8921,8921,8921,8921,8921,8921,8921,8921,8921,0,0,0,0,8921,8921,8921,8921,8921,8921,8921,8921,8921,8921,8921,8921,8921,8921,8921,8921,0,0,0,0,0,0,0,0,0,0,0,0,0,0,0,0,0,0,0,0,0,0,8921,8921,8921,8921,8921,0,0,8921,8921,8921,8921,8921,8921,8921,8921,8921,8921,8921,8921,8921,8921,8921,8921,8921,8921,8921,8921,8921,8921,8921,8921,8921,8921,8921,8921,8921,8921,8921,8921,8921,8921,8921,8921,8921,8921,8921,8921,8921,8921,8921,0,0,0,0,8921,8921,8921,8921,8921,8921,8921,8921,8921,8921,8921,8921,8921,8921,8921,8921,0,0,0,0,0,0,0,0,0,0,0,0,0,0,0,0,0,0,0,0,0,0,8921,8921,8921,8921,8921,0,0,8921,8921,8921,8921,8921,8921,8921,8921,8921,8921,8921,8921,8921,8921,8921,8921,8921,8921,8921,8921,8921,8921,8921,8921,8921,8921,8921,8921,8921,8921,8921,8921,8921,8921,8921,8921,8921,8921,8921,8921,8921,8921,8921,0,0,0,0,8921,8921,8921,8921,8921,8921,8921,8921,8921,8921,8921,8921,8921,8921,8921,8921,0,0,0,0,0,0,0,0,0,0,0,0,0,0,0,0,0,0,0,0,0,0,8921,8921,8921,8921,8921,0,0,8921,8921,8921,8921,8921,8921,8921,8921,8921,8921,8921,8921,8921,8921,8921,8921,8921,8921,8921,8921,8921,8921,8921,8921,8921,8921,8921,8921,8921,8921,8921,8921,8921,8921,8921,8921,8921,8921,8921,8921,8921,8921,8921,0,0,0,0,8921,8921,8921,8921,8921,8921,8921,8921,8921,8921,8921,8921,8921,8921,0,0,0,0,0,0,0,0,0,0,0,0,0,0,0,0,0,0,0,0,0,0,0,0,0,0,0,0,0,0,0,0,8921,8921,8921,8921,8921,8921,8921,8921,8921,8921,8921,8921,8921,8921,8921,8921,8921,8921,8921,8921,8921,8921,8921,8921,8921,8921,8921,8921,8921,8921,8921,8921,8921,8921,8921,8921,8921,8921,8921,8921,8921,8921,0,0,0,0,8921,8921,8921,8921,8921,8921,8921,8921,8921,8921,8921,8921,8921,8921,0,0,0,0,0,0,0,0,0,0,0,0,0,0,0,0,0,0,0,0,0,0,0,0,0,0,0,0,0,0,0,0,0,8921,8921,8921,8921,8921,8921,8921,8921,8921,8921,8921,8921,8921,8921,8921,8921,8921,8921,8921,8921,8921,8921,8921,8921,8921,8921,8921,8921,8921,8921,8921,8921,8921,8921,8921,8921,8921,8921,8921,8921,8921,0,0,0,0,8921,8921,8921,8921,8921,8921,8921,8921,8921,8921,8921,8921,8921,8921,8921,8921,8921,8921,8921,8921,8921,8921,8921,8921,8921,8921,8921,8921,8921,8921,8921,8921,8921,8921,8921,8921,8921,8921,8921,8921,8921,8921,8921,8921,8921,8921,8921,8921,8921,8921,8921,8921,8921,8921,8921,8921,8921,8921,8921,8921,8921,8921,8921,8921,8921,8921,8921,8921,8921,8921,8921,8921,8921,8921,8921,8921,8921,8921,8921,8921,8921,8921,8921,8921,8921,8921,8921,8921,8921,8921,8921,8921,8921,8921,8921,8921,8921,8921,8921,8921,8921,8921,8921,8921,8921,8921,8921,8921,8921,8921,8921,8921,8921,8921,8921,8921,8921,8921,8921,8921,8921,8921,8921,8921,8921,8921,8921,8921,8921,8921,8921,8921,8921,8921,8921,8921,8921,8921,8921,8921,8921,8921,8921,8921,8921,8921,8921,8921,8921,8921,8921,8921,8921,8921,8921,8921,8921,8921,8921,8921,8921,8921,8921,8921,8921,8921,8921,8921,8921,8921,8921,8921,8921,8921,8921,8921,8921,8921,8921,8921,8921,8921,8921,8921,8921,8921,8921,8921,8921,8921,8921,8921,8921,8921,8921,8921,8921,8921,8921,8921,8921,8921,8921,8921,8921,8921,8921,8921,8921,8921,8921,8921,8921,8921,8921,8921,8921,8921,8921,8921,8921,8921,8921,8921,8921,8921,8921,8921,8921,8921,8921,8921,8921,8921,8921,8921,8921,8921,8921,8921,8921,8921,8921,8921,8921,8921,8921,8921,8921,8921,8921,8921,8921,8921,8921,8921,8921,8921,8921,8921,8921,8921,8921,8921,8921,8921,8921,8921,8921,8921,8921,8921,8921,8921,8921,8921,8921,8921,8921,8921,8921,8921,8921,8921,8921,8921,8921,8921,8921,8921,8921,8921,8921,8921,8921,8921,8921,8921,8921,8921,8921,8921,8921,8921,8921,8921,8921,8921,8921,8921,8921,8921,8921,8921,8921,8921,8921,8921,8921,8921,8921,8921,8921,8921,8921,8921,8921,8921,8921,8921,8921,8921,8921,8921,8921,8921,8921,8921,8921,8921,8921,8921,8921,8921,8921,8921,8921,8921,8921,8921,8921,8921,8921,8921,8921,8921,8921,8921,8921,8921,8921,8921,8921,8921,8921,8921,8921,8921,8921,8921,8921,8921,8921,8921,8921,8921,8921,8921,8921,8921,8921,8921,8921,8921,8921,8921,8921,8921,8921,8921,8921,8921,8921,8921,8921,8921,8921,8921,8921,8921,8921,8921,8921,8921,8921,8921,8921,8921,8921,8921,8921,8921,8921,8921,8921,8921,8921,8921,8921,8921,8921,8921,8921,8921,8921,8921,8921,8921,8921,8921,8921,8921,8921,8921,8921,8921,8921,8921,8921,8921,8921,8921,8921,8921,8921,8921,8921,8921,8921,8921,8921,8921,8921,8921,8921,8921,8921,8921,8921,8921,8921,8921,8921,8921,8921,8921,8921,8921,8921,8921,8921,8921,8921,8921,8921,8921,8921,8921,8921,8921,8921,8921,8921,8921,8921,8921,8921,8921,8921,8921,8921,8921,8921,8921,8921,8921,8921,8921,8921,8921,8921,8921,8921,8921,8921,8921,8921,8921,8921,8921,8921,8921,8921,8921,8921,8921,8921,8921,8921,8921,8921,8921,8921,8921,8921,8921,8921,8921,8921,8921,8921,8921,8921,8921,8921,8921,8921,8921,8921,8921,8921,8921,8921,8921,8921,8921,8921,8921,8921,8921,8921,8921,8921,8921,8921,8921,8921,8921,8921,8921,8921,8921,8921,8921,8921,8921,8921,8921,8921,8921,8921,8921,8921,8921,8921,8921,8921,8921,8921,8921,8921,8921,8921,8921,8921,8921,8921,8921,8921,8921,8921,8921,8921,8921,8921,8921,8921,8921,8921,8921,8921,8921,8921,8921,8921,8921,8921,8921,8921,8921,8921,8921,8921,8921,8921,8921,8921,8921,8921,8921,8921,8921,8921,8921,8921,8921,8921,8921,8921,8921,8921,8921,8921,8921,8921,8921,8921,8921,8921,8921,8921,8921,8921,8921,8921,8921,8921,8921,8921,8921,8921,8921,8921,8921,8921,8921,8921,8921,8921,8921,8921,8921,8921,8921,8921,8921,8921,8921,8921,8921,8921,8921,8921,8921,8921,8921,8921,8921,8921,8921,8921,8921,8921,8921,8921,8921,8921,8921,8921,8921,8921,8921,8921,8921,8921]},{"id":4,"name":"floorLayer","type":"objectgroup","x":0,"y":0,"visible":true,"opacity":1,"draworder":"topdown","objects":[]},{"id":5,"name":"campus-above","type":"tilelayer","x":0,"y":0,"width":92,"height":82,"visible":true,"opacity":1,"data":[1,2,3,4,5,6,7,8,9,10,11,12,13,0,0,0,0,0,0,0,0,0,0,0,0,0,0,0,0,0,0,0,0,0,0,0,0,0,0,0,0,0,0,0,0,0,0,0,0,0,0,0,0,0,0,0,0,0,0,0,0,0,0,0,0,0,0,0,0,0,0,0,0,0,0,0,0,0,0,0,0,0,0,0,0,0,0,0,0,0,0,0,72,73,74,75,76,77,78,79,80,81,82,83,84,0,0,0,0,0,0,0,0,0,0,0,0,0,0,0,0,0,0,0,0,0,0,0,0,0,0,0,0,0,0,0,0,0,0,0,0,0,0,0,0,0,0,0,0,0,0,0,0,0,0,0,0,0,0,0,0,0,0,0,0,0,0,0,0,0,0,0,0,0,0,0,0,0,0,0,0,0,0,0,143,144,145,146,147,148,149,150,151,152,153,154,155,0,0,0,0,0,0,0,0,0,0,0,0,0,0,0,0,0,0,0,0,0,0,0,0,0,0,0,0,0,0,0,0,0,0,0,0,0,0,0,0,0,0,0,0,0,0,0,0,0,0,0,0,0,0,0,0,0,0,0,0,0,0,0,0,0,0,0,0,0,0,0,0,0,0,0,0,0,0,0,214,215,216,217,218,219,220,221,222,223,224,225,226,0,0,0,0,0,0,0,0,0,0,0,0,0,6182,6183,6184,6185,6186,6187,6188,6189,6190,6191,6192,6193,6194,0,0,6195,10410,6197,6198,6199,6200,6201,6202,6203,6204,6205,6206,6207,0,0,0,0,0,0,0,0,0,0,0,0,0,0,0,0,0,0,0,0,0,0,0,0,0,0,0,0,0,0,0,0,0,0,0,0,0,0,285,286,287,288,289,290,291,292,293,294,295,296,297,0,0,0,0,0,0,0,0,0,0,0,6221,6222,6223,6224,6225,6226,6227,6228,6229,6230,6231,6232,6233,6234,6235,6236,6237,6238,6239,6240,6241,6242,6243,6244,6245,6246,6247,6248,6249,6250,6251,6252,0,0,0,0,0,0,0,0,0,0,0,0,0,0,0,0,0,0,0,0,0,0,0,0,0,0,0,0,0,0,0,0,0,0,0,0,357,358,359,360,361,362,363,364,365,366,367,368,369,0,0,0,0,0,0,0,0,0,0,0,6266,6267,6268,6269,6270,6271,6272,6273,6274,6275,6276,6277,6278,6279,6280,6281,6282,6283,6284,6285,6286,6287,6288,6289,6290,6291,6292,6293,6294,6295,6296,6297,0,0,0,0,0,0,0,0,0,0,0,0,0,0,0,0,0,0,0,0,0,0,0,0,0,0,0,0,0,0,0,0,0,0,0,0,428,429,430,431,432,433,434,435,436,437,438,439,440,0,0,0,0,0,0,0,0,0,0,0,6311,6312,6313,6314,6315,6316,6317,6318,6319,6320,6321,6322,6323,6324,6325,6326,6327,6328,6329,6330,6331,6332,6333,6334,6335,6336,6337,6338,6339,6340,6341,6342,0,0,0,0,0,0,0,0,0,0,0,0,0,0,0,0,0,0,0,0,0,0,0,0,0,0,0,0,0,0,0,0,0,0,0,0,500,501,502,503,504,505,506,507,508,509,510,511,512,0,0,0,0,0,0,0,0,0,0,0,6356,6357,6358,6359,6360,6361,6362,6363,6364,6365,6366,6367,6368,6369,6370,6371,6372,6373,6374,6375,6376,6377,6378,6379,6380,6381,6382,6383,6384,6385,6386,6387,0,0,0,0,0,0,0,0,0,0,0,0,0,0,0,0,0,0,0,0,0,0,0,0,0,0,0,0,0,0,0,0,0,0,0,0,573,574,575,576,577,578,579,580,581,582,583,584,585,0,0,0,0,0,0,0,0,0,0,0,6401,6402,6403,6404,6405,6406,6407,6408,6409,6410,6411,6412,6413,6414,6415,6416,6417,6418,6419,6420,6421,6422,6423,6424,6425,6426,6427,6428,6429,6430,6431,6432,0,0,0,0,0,0,0,0,0,0,0,0,0,0,0,0,0,0,0,0,0,0,0,0,0,0,0,0,0,0,0,0,0,0,0,0,646,647,648,649,650,651,652,653,654,655,656,657,658,0,0,0,0,0,0,0,0,0,0,0,6446,6447,6448,6449,6450,6451,6452,6453,6454,6455,6456,6457,6458,6459,6460,6461,6462,6463,6464,6465,6466,6467,6468,6469,6470,6471,6472,6473,6474,6475,6476,6477,0,0,0,0,0,0,0,0,0,0,0,0,0,0,0,0,0,0,0,0,0,0,0,0,0,0,0,0,0,0,0,0,0,0,0,0,715,716,717,718,719,720,721,722,723,724,725,726,727,0,0,0,0,0,0,0,0,0,0,0,6491,6492,6493,6494,6495,6496,6497,6498,6499,6500,6501,6502,6503,6504,6505,6506,6507,6508,6509,6510,6511,6512,6513,6514,6515,6516,6517,6518,6519,6520,6521,6522,0,0,0,0,0,0,0,0,0,0,0,0,0,0,0,0,0,0,0,0,0,0,0,0,0,0,0,0,0,0,0,0,0,0,0,0,790,791,792,793,794,795,796,797,798,799,800,801,802,0,0,0,0,0,0,0,0,0,0,0,6536,6537,6538,6539,6540,6541,6542,6543,6544,6545,6546,6547,6548,6549,6550,6551,6552,6553,6554,6555,6556,6557,6558,6559,6560,6561,6562,6563,6564,6565,6566,6567,0,0,0,0,0,0,0,0,0,0,0,0,0,0,0,0,0,0,0,0,0,0,0,0,0,0,0,0,0,0,0,0,0,0,0,0,866,867,868,869,870,871,872,873,874,875,876,877,878,0,0,0,0,0,0,0,0,0,0,0,6581,6582,6583,6584,6585,6586,6587,6588,6589,6590,6591,6592,6593,6594,6595,6596,6597,6598,6599,6600,6601,6602,6603,6604,6605,6606,6607,6608,6609,6610,6611,6612,0,0,0,0,0,0,0,0,0,0,0,0,0,0,0,0,0,0,0,0,0,0,0,0,0,0,0,0,0,0,0,0,0,0,0,0,944,945,946,947,948,949,950,951,952,953,954,955,956,0,0,0,0,0,0,0,0,0,0,0,6626,6627,6628,6629,6630,6631,6632,6633,6634,6635,6636,6637,6638,6639,6640,6641,6642,6643,6644,6645,6646,6647,6648,6649,6650,6651,6652,6653,6654,6655,6656,6657,0,0,0,0,0,0,0,0,0,0,0,0,0,0,0,0,0,0,0,0,0,0,0,0,0,0,0,0,0,0,0,0,0,0,0,0,1022,1023,1024,1025,1026,1027,1028,1029,1030,1031,1032,1033,1034,0,0,0,0,0,0,0,0,0,0,0,6671,6672,6673,6674,6675,6676,6677,6678,6679,6680,6681,6682,6683,6684,6685,6686,6687,6688,6689,6690,6691,6692,6693,6694,6695,6696,6697,6698,6699,6700,6701,6702,0,0,0,0,0,0,0,0,0,0,0,0,0,0,0,0,0,0,0,0,0,0,0,0,0,0,0,0,0,0,0,0,0,0,0,0,1103,1104,1105,1106,1107,1108,1109,1110,1111,1112,1113,1114,1115,0,0,0,0,0,0,0,0,0,0,0,6716,6717,6718,6719,6720,6721,6722,6723,6724,6725,6726,6727,6728,6729,6730,6731,6732,6733,6734,6735,6736,6737,6738,6739,6740,6741,6742,6743,6744,6745,6746,6747,0,0,0,0,0,0,0,0,0,0,0,0,0,0,0,0,0,0,0,0,0,0,0,0,0,0,0,0,0,0,0,0,0,0,0,0,1186,1187,1188,1189,1190,1191,1192,1193,1194,1195,1196,1197,1198,0,0,0,0,0,0,0,0,0,0,0,6761,6762,6763,6764,6765,6766,6767,6768,6769,6770,6771,6772,6773,6774,6775,6776,6777,6778,6779,6780,6781,6782,6783,6784,6785,6786,6787,6788,6789,6790,6791,6792,0,0,0,0,0,0,0,0,0,0,0,0,0,0,0,0,0,0,0,0,0,0,0,0,0,0,0,0,0,0,0,0,0,0,0,0,1270,1271,1272,1273,1274,1275,1276,1277,1278,1279,1280,1281,1282,0,0,0,0,0,0,0,0,0,0,0,6806,6807,6808,6809,6810,6811,6812,6813,6814,6815,6816,6817,6818,6819,6820,6821,6822,6823,6824,6825,6826,6827,6828,6829,6830,6831,6832,6833,6834,6835,6836,6837,0,0,0,6838,0,0,0,0,0,0,0,0,0,0,0,0,0,0,0,0,0,0,0,0,0,0,0,0,0,0,0,0,0,0,0,0,1355,1356,1357,1358,1359,1360,1361,1362,1363,1364,1365,1366,1367,0,0,0,0,0,0,0,0,0,0,0,0,6852,6853,6854,6855,6856,6857,6858,6859,6860,6861,6862,6863,6864,6865,6866,6867,6868,6869,6870,6871,6872,6873,6874,6875,6876,6877,6878,6879,6880,6881,6882,0,0,0,6838,0,0,0,0,0,0,0,0,0,0,0,0,0,0,0,0,0,0,0,0,0,0,0,0,0,0,0,0,0,0,0,0,1440,1441,1442,1443,1444,1445,1446,1447,1448,1449,1450,1451,1452,0,0,0,0,0,0,0,0,0,0,0,6896,6897,6898,6899,6900,6901,6902,6903,6904,6905,6906,6907,6908,6909,6910,6911,6912,6913,6914,6915,6916,6917,6918,6919,6920,6921,6922,6923,6924,6925,6926,6927,0,0,0,6928,0,0,0,0,0,0,0,0,0,0,0,0,0,0,0,0,0,0,0,0,0,0,0,0,0,0,0,0,0,0,0,0,1525,1526,1527,1528,1529,1530,1531,1532,1533,1534,1535,1536,1537,0,0,0,0,0,0,0,0,0,0,0,6942,6943,6944,6945,6946,6947,6948,6949,6950,6951,6952,6953,6954,6955,6956,6957,6958,6959,6960,6961,6962,6963,6964,6965,6966,6967,6968,6969,6970,6971,6972,6973,0,0,0,6928,0,0,6974,0,6974,0,6974,0,0,0,0,0,0,0,0,0,0,0,0,0,0,0,0,0,0,0,0,0,0,0,0,0,1611,1612,1613,1614,1615,1616,1617,1618,1619,1620,1621,1622,1623,0,0,0,0,0,0,0,0,0,0,0,6988,6989,6990,6991,6992,6993,6994,6995,6996,6997,6998,6999,7000,7001,7002,7003,7004,7005,7006,7007,7008,7009,7010,7011,7012,7013,7014,7015,7016,7017,7018,7019,0,0,0,0,0,0,0,0,0,0,0,0,0,0,0,0,0,0,0,0,0,0,0,0,0,0,0,0,0,0,0,0,0,0,0,0,1697,1698,1699,1700,1701,1702,1703,1704,1705,1706,1707,1708,1709,0,0,0,0,0,0,0,0,0,0,0,7033,7034,7035,7036,7037,7038,7039,7040,7041,7042,7043,7044,7045,7046,7047,7048,7049,7050,7051,7052,7053,7054,7055,7056,7057,7058,7059,7060,7061,7062,7063,7064,0,0,0,0,0,0,0,0,0,0,0,0,0,0,0,0,0,0,0,0,0,0,0,0,0,0,0,0,0,0,0,0,0,0,0,0,1783,1784,1785,1786,1787,1788,1789,1790,1791,1792,1793,1794,1795,0,0,0,0,0,0,0,0,0,0,0,0,0,0,0,0,7078,0,0,0,7079,0,0,0,0,0,0,0,0,0,0,0,0,0,0,0,0,0,0,0,0,0,0,0,0,0,7080,0,0,0,0,0,0,0,0,0,0,0,0,0,0,0,0,0,0,0,0,0,0,0,0,0,0,0,0,0,0,0,0,1865,1866,1867,1868,1869,1870,1871,1872,1873,1874,1875,1876,1877,0,0,0,0,0,0,0,0,0,0,0,0,0,0,0,0,0,0,0,0,0,0,0,0,0,0,0,0,0,0,0,0,0,0,0,0,0,0,0,0,0,0,0,0,0,0,6928,0,0,7094,0,7094,0,7094,0,0,0,0,0,0,0,0,0,0,0,0,0,0,0,0,0,0,0,0,0,0,0,0,0,1948,1949,1950,1951,1952,1953,1954,1955,1956,1957,1958,1959,1960,0,0,0,0,0,0,0,0,0,0,0,0,0,0,0,0,0,0,0,0,0,0,0,0,0,0,0,0,0,0,0,7108,7109,0,0,0,7108,7109,0,0,0,0,0,0,0,0,6928,0,0,0,0,0,0,0,0,0,0,0,0,0,0,0,0,0,0,0,0,0,0,0,0,0,0,0,0,0,0,0,0,2030,2031,2032,2033,2034,2035,2036,2037,2038,2039,2040,2041,2042,0,0,0,0,0,0,0,0,0,0,0,0,0,0,0,0,0,0,7094,0,0,0,0,0,0,0,0,0,0,0,0,0,0,0,0,0,0,0,0,0,0,0,0,0,0,0,6928,0,0,0,0,0,0,0,0,0,0,0,0,0,0,0,0,0,0,0,0,0,0,0,0,0,0,0,0,0,0,0,0,2112,2113,2114,2115,2116,2117,2118,2119,2120,2121,2122,2123,2124,0,0,0,0,0,0,0,0,0,0,0,0,0,0,0,0,0,0,0,0,0,0,0,0,0,0,0,0,0,0,0,0,0,0,0,0,0,0,0,0,0,0,0,0,0,0,6928,0,0,0,0,0,0,0,0,0,0,0,0,0,0,0,0,0,0,0,0,0,0,0,0,0,0,0,0,0,0,0,0,2192,2193,2194,2195,2196,2197,2198,2199,2200,2201,2202,2203,2204,0,0,0,0,0,0,0,0,0,0,0,0,0,0,0,0,0,0,0,0,0,0,0,0,0,0,0,0,0,0,0,0,0,0,0,0,0,0,0,0,0,0,0,0,0,0,10411,0,0,0,0,0,0,0,0,0,0,0,0,0,0,0,0,0,0,0,0,0,0,0,0,0,0,0,0,0,0,0,0,2264,2265,2266,2267,2268,2269,2270,2271,2272,2273,2274,2275,2276,0,0,0,0,0,0,0,0,0,0,0,0,0,0,0,0,0,0,0,0,0,0,0,0,0,0,0,0,10412,0,0,0,0,0,0,0,0,0,0,0,0,0,0,0,0,0,0,0,0,0,0,0,0,0,0,0,0,0,0,0,0,0,0,0,0,0,0,0,0,0,0,0,0,0,0,0,0,0,0,2337,2338,2339,2340,2341,2342,2343,2344,2345,2346,2347,2348,2349,0,0,0,0,0,0,0,0,0,0,0,0,0,7175,7176,7177,7178,7179,7180,7181,7182,7183,7184,7185,0,0,0,0,0,7176,7177,7178,7179,7180,7181,7182,7183,7184,7185,7187,7188,0,0,0,0,0,0,0,0,0,0,0,0,0,0,0,0,0,0,0,0,0,0,0,0,0,0,0,0,0,0,0,0,0,0,0,0,0,0,2420,2421,2422,2423,2424,2425,2426,2427,2428,2429,2430,2431,2432,0,0,0,0,0,0,0,0,0,0,0,0,0,0,0,0,0,0,0,0,0,0,0,0,0,0,0,0,0,0,0,0,0,0,0,0,0,0,0,0,0,0,0,0,0,0,0,0,0,0,0,0,0,0,0,0,0,0,0,0,0,0,0,0,0,0,0,0,0,0,0,0,0,0,0,0,0,0,0,2505,2506,2507,2508,2509,2510,2511,2512,2513,2514,2515,2516,2517,0,0,0,0,0,0,0,0,0,0,0,0,0,0,0,0,0,0,0,0,0,0,0,0,0,0,0,0,0,0,0,0,0,0,0,0,0,0,0,0,0,0,0,0,0,0,0,0,0,0,0,0,0,0,0,0,0,0,0,0,0,0,0,0,0,0,0,0,0,0,0,0,0,0,0,0,0,0,0,2572,2573,2574,2575,2576,2577,2578,2579,2580,2581,2582,2583,2584,0,0,0,0,0,0,0,0,0,0,0,0,0,0,0,0,0,0,0,0,0,0,0,0,0,0,0,0,0,0,0,0,0,0,0,0,0,0,0,0,0,0,0,0,0,0,0,0,0,0,0,0,0,0,0,0,0,0,0,0,0,0,0,0,0,0,0,0,0,0,0,0,0,0,0,0,0,0,0,2639,2640,2641,2642,2643,2644,2645,2646,2647,2648,2649,2650,2651,0,0,0,0,0,0,0,0,0,0,0,0,0,0,0,0,0,0,0,0,0,0,0,0,0,0,0,0,0,0,0,0,0,0,0,0,0,0,0,0,0,0,0,0,0,0,0,0,0,0,0,0,0,0,0,0,0,0,0,0,0,0,0,0,0,0,0,0,0,0,0,0,0,0,0,0,0,0,0,7241,7242,7243,7244,7245,7246,7247,7248,7249,7250,7251,7252,7253,0,0,0,0,0,0,0,10413,10414,10415,10416,10417,10418,10419,10420,10421,10422,10423,10424,10425,10426,10427,10428,10429,10430,0,0,7272,10431,10432,10433,10434,10435,10436,10437,10438,10439,10440,10441,10442,10443,10444,10445,10446,10447,10448,10449,0,0,0,0,0,0,0,0,0,0,0,0,0,0,0,0,0,0,0,0,0,0,0,0,0,0,0,0,0,0,0,0,0,0,0,0,0,0,0,0,0,0,0,0,0,0,0,0,0,0,0,0,2798,2799,2800,2801,2802,2803,2804,2805,2806,2807,2808,2809,2810,2811,2812,2813,2814,7309,0,0,7310,110,111,112,113,114,115,116,117,118,119,120,121,122,123,124,125,2819,2820,2821,0,0,0,0,0,0,0,0,0,0,0,0,0,0,0,0,0,0,0,0,0,0,0,0,0,0,0,0,0,0,0,0,0,0,0,0,0,0,0,0,0,0,0,0,0,0,0,0,0,0,0,0,2870,2871,2872,2873,2874,2875,2876,2877,2878,2879,2880,2881,2882,2883,2884,2885,2886,7347,0,0,7348,181,182,183,184,185,186,187,188,189,190,191,192,193,194,195,196,2891,2892,2893,0,0,0,0,0,0,0,0,0,0,0,0,0,0,0,0,0,0,0,0,0,0,0,0,0,0,0,0,0,0,0,0,0,0,0,0,0,0,0,0,0,0,0,0,0,0,0,0,0,0,0,0,2942,2943,2944,2945,2946,2947,2948,7375,7376,7377,7378,2953,2954,2955,2956,2957,2958,7385,0,0,7386,2963,2964,783,784,785,786,787,2965,2966,2967,2968,2969,2970,2971,2972,2973,2974,2975,2976,0,0,0,0,0,0,0,0,0,0,0,0,0,0,0,0,0,0,0,0,0,0,0,0,0,0,0,0,0,0,0,0,0,0,0,0,0,0,0,0,0,0,0,0,0,0,0,0,0,0,0,0,3025,3026,3027,3028,7410,7411,7412,7413,0,0,7414,7415,7416,7417,3039,3040,3041,7421,0,0,7422,3046,3047,858,859,860,861,862,863,864,3048,3049,3050,3051,3052,3053,3054,3055,3056,7441,0,0,0,0,0,0,0,0,0,0,0,0,0,0,0,0,0,0,0,0,0,0,0,0,0,0,0,0,0,0,0,0,0,0,0,0,0,0,0,0,0,0,0,0,0,0,0,0,0,0,0,0,3110,3111,3112,7445,7446,0,0,0,0,0,0,0,0,7447,7448,3125,3126,7451,0,0,7452,3131,3132,934,935,936,937,938,939,940,3133,3134,3135,3136,3137,3138,3139,3140,3141,7471,0,0,0,0,0,0,0,0,0,0,0,0,0,0,0,0,0,0,0,0,0,0,0,0,0,0,0,0,0,0,0,0,0,0,0,0,0,0,0,0,0,0,0,0,0,0,0,0,0,0,0,0,3195,3196,7474,7475,0,0,0,0,0,0,0,0,0,0,7476,7477,3211,7479,0,0,7480,3216,3217,1012,1013,1014,1015,1016,1017,1018,1019,1020,3218,3219,3220,3221,3222,3223,3224,7499,0,0,0,0,0,0,0,0,0,0,0,0,0,0,0,0,0,0,0,0,0,0,0,0,0,0,0,0,0,0,0,0,0,0,7500,0,0,0,0,0,0,0,0,0,0,0,0,0,0,7501,0,0,3278,7503,7504,0,0,0,0,0,0,0,0,0,0,0,0,7505,3294,7507,0,0,7508,3299,3300,1090,1091,1092,1093,1094,1095,1096,1097,1098,3301,3302,3303,3304,3305,3306,3307,7527,0,0,0,0,0,0,0,0,0,0,0,0,0,0,0,0,0,0,0,0,0,0,0,0,0,0,0,0,0,0,0,0,0,0,7528,0,0,0,0,0,0,0,0,0,0,0,0,0,0,7529,0,0,3361,7531,0,0,0,0,0,0,0,0,0,0,0,0,0,0,7532,7533,0,0,7534,7535,7536,1171,1172,1173,1174,1175,1176,1177,1178,1179,1180,1181,1182,3386,3387,3388,3389,7553,0,0,0,0,0,0,0,0,0,0,0,0,0,0,0,0,0,0,0,0,0,0,0,0,0,0,0,0,0,0,0,0,0,0,7554,7555,10450,10451,0,0,0,10450,10451,0,0,0,10450,10451,0,7529,0,0,3443,7557,0,0,0,0,0,0,0,0,0,0,0,0,0,0,7558,7559,0,0,7560,7561,7562,1254,1255,1256,1257,1258,1259,1260,1261,1262,1263,1264,1265,1266,1267,10452,10453,10454,0,0,0,0,0,0,0,0,0,0,0,0,0,0,0,0,0,0,0,0,0,0,0,0,0,0,0,0,0,0,0,0,0,0,7580,7581,7582,0,0,0,0,0,0,0,0,0,0,0,0,10455,0,0,10456,10457,0,0,0,0,0,0,0,0,0,0,0,0,0,0,0,0,0,0,7586,7587,7588,7589,7590,3548,3549,3550,3551,3552,3553,3554,3555,3556,3557,10458,10459,10460,10461,10462,0,0,0,0,0,0,0,0,0,0,0,0,0,0,0,0,0,0,0,0,0,0,0,0,0,0,0,0,0,0,0,0,0,0,0,7606,7607,0,0,0,0,0,0,0,0,0,0,0,0,0,0,0,0,0,0,0,0,0,0,0,0,0,0,0,0,0,0,0,0,0,0,0,7610,7611,7612,7613,3639,3640,3641,3642,3643,3644,3645,3646,3647,3648,3649,10463,0,0,0,0,0,0,0,0,0,0,0,0,0,0,0,0,0,0,0,0,0,0,0,0,0,0,0,0,0,0,0,0,0,0,0,0,0,0,0,0,0,0,0,0,0,0,0,0,0,0,0,0,0,0,0,0,0,0,0,0,0,0,0,0,0,0,0,0,0,0,0,0,0,0,0,0,0,7632,7633,7634,7635,7636,7637,7638,7639,7640,7641,7642,7643,7644,7645,10464,0,0,0,0,0,0,0,0,0,0,0,0,0,0,0,0,0,0,0,0,0,0,0,0,0,0,0,0,0,0,0,0,0,0,0,0,0,0,0,0,10450,10451,0,0,0,10450,10451,0,0,0,10450,10451,0,0,0,0,0,0,0,0,0,0,0,0,0,0,0,0,0,0,0,0,0,0,0,0,0,0,0,0,0,0,0,0,0,0,0,0,0,0,0,0,0,0,0,0,0,0,0,0,0,0,0,0,0,0,0,0,0,0,0,0,0,0,0,0,0,0,0,0,0,0,0,0,0,0,0,0,0,0,0,0,0,0,0,0,0,0,0,0,0,0,0,0,0,0,0,0,0,0,0,0,0,0,0,0,0,0,0,0,0,0,0,0,0,0,0,0,0,0,0,0,0,0,0,0,0,0,0,0,0,0,0,0,0,0,0,0,0,0,0,0,0,0,0,0,0,0,0,0,0,0,0,0,0,0,0,0,0,0,0,0,0,0,0,0,0,0,0,0,0,0,0,0,0,0,0,0,0,0,0,0,0,0,0,0,0,0,0,0,7651,7652,7653,7654,7655,7656,7657,7658,7659,7660,7661,7662,7663,7664,7665,7666,7667,7668,0,0,7669,7670,7671,7672,7673,7674,7675,7676,7677,7678,7679,7680,7681,7682,7683,10465,10466,10467,10468,10469,0,0,0,0,0,0,0,0,0,0,0,0,7689,7690,0,0,7691,0,0,0,0,0,0,0,0,0,0,0,0,0,0,0,0,0,0,0,0,0,0,0,0,0,0,0,0,0,0,0,0,0,0,0,4075,4076,4077,4078,4079,4080,4081,4082,4083,4084,4085,4086,4087,4088,4089,4090,4091,7709,0,0,7710,4096,4097,4098,4099,4100,4101,4102,4103,4104,4105,4106,4107,4108,4109,4110,10470,10471,10472,10473,0,0,0,0,0,0,0,0,0,0,0,0,7730,7731,0,0,7732,0,0,0,0,0,0,0,0,0,0,0,0,0,0,0,0,0,0,0,0,0,0,0,0,0,0,0,0,0,0,0,0,0,0,0,4167,4168,4169,4170,4171,4172,4173,4174,4175,4176,4177,4178,4179,4180,4181,4182,4183,7750,0,0,7751,4188,4189,4190,4191,4192,4193,4194,4195,4196,4197,4198,4199,4200,4201,4202,4203,4204,4205,7770,0,0,0,0,0,0,0,0,0,0,0,0,0,7771,0,0,7772,0,0,0,0,0,0,0,0,0,0,0,0,0,0,0,0,0,0,0,0,0,0,0,0,0,0,0,0,0,0,0,0,0,0,0,4259,4260,4261,4262,4263,4264,4265,4266,4267,4268,4269,4270,4271,4272,4273,4274,4275,7790,0,0,7791,4280,4281,4282,4283,4284,4285,4286,4287,4288,4289,4290,4291,4292,4293,4294,4295,4296,4297,7810,0,0,0,0,0,0,0,0,7811,7812,7813,7814,0,0,0,0,0,0,7815,7816,0,0,0,0,0,0,0,0,0,0,0,0,0,0,0,0,0,0,0,0,0,0,0,0,0,0,0,0,0,0,0,0,4351,4352,4353,4354,4355,4356,4357,4358,4359,4360,4361,4362,4363,4364,4365,4366,4367,7834,0,0,7835,4372,4373,4374,4375,4376,4377,4378,4379,4380,4381,4382,4383,4384,4385,4386,4387,4388,4389,7854,0,0,0,0,0,0,0,0,7855,7856,7857,7858,0,0,0,0,0,0,7859,7860,0,0,0,0,0,0,0,0,0,0,0,0,0,0,0,0,0,0,0,0,0,0,0,0,0,0,0,0,0,0,0,0,4443,4444,4445,4446,4447,4448,4449,4450,4451,4452,4453,4454,4455,4456,4457,4458,4459,7878,0,0,7879,4464,4465,4466,4467,4468,4469,4470,4471,4472,4473,4474,4475,4476,4477,4478,4479,4480,4481,7898,0,0,0,0,0,0,0,0,0,7899,7900,0,0,0,0,0,0,0,7901,7902,0,0,0,0,0,0,0,0,0,0,0,0,0,0,0,0,0,0,0,0,0,0,0,0,0,0,0,0,0,0,0,0,4535,4536,4537,4538,4539,4540,4541,4542,4543,4544,4545,4546,4547,4548,4549,4550,4551,7920,0,0,7921,4556,4557,4558,4559,4560,4561,4562,4563,4564,4565,4566,4567,4568,4569,4570,4571,4572,4573,7940,0,0,0,0,0,0,0,0,0,0,7941,7942,0,0,0,0,0,7943,7944,7945,0,0,0,0,0,0,0,0,0,0,0,0,0,0,0,0,0,0,0,0,0,7946,7947,0,0,0,0,0,0,0,0,0,0,0,0,0,0,0,0,0,0,0,0,0,0,0,0,7948,7949,7950,0,0,0,7951,7952,0,0,0,0,0,0,0,0,0,0,0,0,0,0,0,0,0,0,0,0,0,0,0,0,0,0,0,0,0,0,7953,0,0,7954,0,0,0,0,0,0,0,0,0,0,0,0,0,0,0,0,0,0,0,0,0,0,0,0,7955,7956,0,0,0,0,0,0,0,0,0,0,0,0,0,0,0,0,0,0,0,0,0,0,0,0,7957,7958,7959,0,0,7960,7961,7962,0,0,0,0,0,0,0,0,0,0,0,0,0,0,0,0,0,0,0,0,0,0,0,0,0,0,0,0,0,0,7963,7964,7965,7966,0,0,0,0,0,0,0,0,0,0,0,0,0,0,0,0,0,0,0,0,0,0,0,0,0,0,0,0,0,0,0,0,0,0,0,0,0,0,0,0,0,0,0,0,0,0,0,0,0,0,7967,7968,7969,0,0,7970,7971,7972,0,0,0,0,0,0,0,0,0,0,0,0,0,0,0,0,0,0,0,0,0,0,0,0,0,0,7973,7974,0,0,7975,7976,7977,7978,0,0,0,0,0,0,0,0,0,0,0,0,0,0,0,0,0,0,0,0,0,0,0,0,0,0,0,0,0,0,0,0,0,0,0,0,0,0,0,0,0,0,0,0,0,0,0,0,0,0,7979,7980,7981,0,0,7982,7983,7984,0,0,0,0,0,0,0,0,0,0,0,0,0,0,0,0,0,0,0,0,0,0,0,0,0,0,7985,10474,0,0,0,0,0,0,0,0,0,0,0,0,0,0,0,0,0,0,0,0,0,0,0,0,0,10475,10476,10477,10478,10479,0,0,10478,10479,10475,10476,10477,0,0,0,0,0,0,0,0,0,0,0,0,0,0,0,0,0,0,0,7987,7988,0,0,0,0,7989,7990,0,0,0,0,0,0,0,0,0,0,0,0,0,0,10480,10481,0,0,0,0,0,0,0,0,0,10482,10483,0,0,0,0,0,0,0,0,10484,10485,10486,0,0,0,0,0,0,0,0,0,0,0,0,0,8015,0,0,0,0,0,0,0,0,0,0,0,0,0,0,8016,0,0,0,0,0,0,0,0,0,0,0,0,0,0,0,0,0,8017,8018,8019,0,0,8020,8021,8022,0,0,0,0,0,0,0,0,0,0,0,0,0,0,10487,10488,10489,10490,10491,10492,10493,10494,10495,10496,10497,5086,10498,10499,10500,10501,10502,10503,10504,10505,10506,10507,10508,8046,0,0,0,0,0,0,0,0,0,0,0,0,0,8047,0,10475,10476,10477,10478,10479,0,0,10478,10479,10475,10476,10477,0,7529,0,0,8048,8049,8050,8051,8052,8053,8054,8055,8056,8057,8058,8059,8060,8061,8062,8063,8064,8065,0,0,8066,8067,8068,0,0,0,0,0,0,0,0,0,0,0,0,0,0,10509,10510,10511,10512,10513,10514,10515,10516,10517,10518,10519,10520,10521,10522,10523,10524,10525,10526,10527,10528,10529,10530,10531,10532,0,0,0,0,0,0,0,0,0,0,0,0,0,8093,8094,0,0,0,0,0,0,0,0,0,0,0,0,0,10533,0,0,8095,8096,8097,8098,8099,8100,8101,8102,8103,8104,8105,8106,8107,8108,8109,8110,8111,8112,0,0,8113,8114,8115,0,0,0,0,0,0,0,0,0,0,0,0,0,0,5259,5260,5261,5262,5263,5264,5265,5266,5267,5268,5269,5270,5271,5272,5273,5274,5275,5276,5277,5278,5279,5280,5281,8139,0,0,0,0,0,0,0,0,0,0,0,0,0,8140,8141,10534,10476,10477,10478,10479,0,0,10478,10479,10475,10476,10477,0,10535,0,0,0,0,0,0,0,0,0,0,0,0,0,0,0,0,0,0,0,0,0,0,8144,8145,8146,0,0,0,0,0,0,0,0,0,0,0,0,0,0,5351,5352,5353,5354,5355,5356,5357,5358,5359,5360,5361,5362,5363,5364,5365,5366,5367,5368,5369,5370,5371,5372,5373,8170,0,0,0,0,0,0,0,0,0,0,0,0,0,0,8171,8172,8173,0,0,0,0,0,0,0,0,0,0,0,0,0,0,0,0,0,0,0,0,0,0,0,0,0,0,0,0,0,0,0,0,0,0,8174,8175,8176,0,0,0,0,0,0,0,0,0,0,0,0,0,0,8177,8178,8179,8180,8181,8182,8183,8184,8185,8186,8187,8188,8189,8190,8191,8192,8193,8194,8195,8196,8197,8198,8199,8200,0,0,0,0,0,0,0,0,0,0,0,0,0,0,0,10475,10476,10477,10478,10479,0,0,10478,10479,10475,10476,10477,0,0,0,0,0,0,0,0,0,0,0,0,0,0,0,0,0,0,0,8201,8202,0,0,0,8203,8204,8205,0,0,0,0,0,0,0,0,0,0,0,0,0,0,0,10536,10537,0,0,0,0,0,0,0,0,0,0,0,0,0,0,0,0,0,0,0,10538,10539,0,0,0,0,0,0,0,0,0,0,0,0,0,0,0,0,0,0,0,0,0,0,0,0,0,0,0,0,0,0,0,0,0,0,0,0,0,0,0,0,0,0,0,0,0,0,8211,8212,8213,0,0,0,8214,8215,0,0,0,0,0,0,0,0,0,0,0,0,0,0,0,0,0,0,0,0,0,0,0,0,0,0,0,0,0,0,0,0,0,0,0,0,10540,10541,0,0,0,0,0,0,0,0,0,0,0,0,0,0,0,0,0,0,0,0,0,0,0,0,0,0,0,0,0,0,0,0,0,0,0,0,0,0,0,0,0,0,0,0,0,0,8218,8219,8220,0,0,0,8221,8222,0,0,0,0,0,0,0,0,0,0,0,0,0,0,0,0,0,0,0,0,0,0,0,0,0,0,0,0,0,0,0,0,0,0,0,0,0,10542,0,0,0,0,0,0,0,0,0,0,0,0,0,0,0,0,0,0,0,0,0,0,0,0,0,0,0,0,0,0,0,0,0,0,0,0,0,0,0,0,0,0,0,0,0,0,8225,8226,0,0,0,8227,8228,8229,0,0,0,0,0,0,0,0,0,0,0,0,0,0,0,0,0,0,0,0,0,0,0,0,0,0,0,0,0,0,0,0,0,0,0,0,0,10543,0,0,0,0,0,0,0,0,0,0,0,0,0,0,0,0,0,0,0,0,0,0,0,0,0,0,0,0,0,0,0,0,0,0,0,0,0,0,0,0,0,0,0,0,0,0,8232,8233,0,0,0,8234,8235,8236,0,0,0,0,0,0,0,0,0,0,0,0,0,0,0,0,0,0,0,0,0,0,0,0,0,0,0,0,0,0,0,0,0,0,0,0,0,0,0,0,0,0,0,0,0,0,0,0,0,0,0,0,0,0,0,0,0,0,0,0,0,0,0,0,0,0,0,0,0,0,0,0,0,0,0,0,0,0,0,0,0,0,0,0,8239,8240,0,0,0,0,8241,8242,0,0,0,0,0,0,0,0,0,0,0,0,0,0,0,0,0,0,0,0,0,0,0,0,0,0,0,0,0,0,0,0,0,0,0,0,0,0,0,0,0,0,0,0,0,0,0,0,0,0,0,0,0,0,0,0,0,0,0,0,0,0,0,0,0,0,0,0,0,0,0,0,0,0,0,0,0,0,0,0,0,0,0,0,8243,8244,8245,0,0,8246,8247,8248,0,0,0,0,0,0,0,0,0,0,0,0,0,0,0,0,0,0,0,0,0,0,0,0,0,0,0,0,0,0,0,0,0,0,0,0,0,0,0,0,0,0,0,0,0,0,0,0,0,0,0,0,0,0,0,0,0,0,0,0,0,0,0,0,0,0,0,0,0,0,0,0,0,0,0,0,0,0,0,0,0,0,0,0,0,0,0,0,0,0,0,0,0,0,0,0,0,0,0,0,0,0,0,0,0,0,0,0,0,0,0,0,0,0,0,0,0,0,0,0,0,0,0,0,0,0,0,0,0,0,0,0,0,0,0,0,0,0,0,0,0,0,0,0,0,0,0,0,0,0,0,0,0,0,0,0,0,0,0,0,0,0,0,0,0,0,0,0,0,0,0,0,0,0,0,0,0,0,0,0,0,0,0,0,0,0,0,0,0,0,0,0,0,0,0,0,0,0,0,0,0,0,0,0,0,0,0,0,0,0,0,0,0,0,0,0,0,0,0,0,0,0,0,0,0,0,0,0,0,0,0,0,0,0,0,0,0,0,0,0,0,0,0,0,0,0,0,0,0,0,0,0,0,0,0,0,0,0,0,0,0,0,0,0,0,0,0,0,0,0,0,0,0,0,0,0,0,0,0,0,0,0,0,0,0,0,0,0,0,0,0,0,0,0,0,0,0,0,0,0,0,0,0,0,0,0,0,0,0,0,0,0,0,0,0,0,0,0,0,0,0,0,0,0,0,0,0,0,0,0,0,0,0,0,0,0,0,0,0,0,0,0,0,0,0,0,0,0,0,0,0,0,0,0,0,0,0,0,0,0,0,0,0,0,0,0,0,0,0,0,0,0,0,0,0,0,0,0,0,0,0,0,0,0,0,0,0,0,0,0,0,0,0,0,0,0,0,0,0,0,0,0,0,0,0,0,0,0,0,0,0,0,0,0,0,0,0,0,0,0,0,0,0,0,0,0,0,0,0,0,0,0,0,0,0,0,0,0,0,0,0,0,0,0,0,0,0,0,0,0,0,0,0,0,0,0,0,0,0,0,0,0,0,0,0,0,0,0,0,0,0,0,0,0,0,0,0,0,0,0,0,0,0,0,0,0,0,0,0,0,0,0,0,0,0,0,0,0,0,0,0,0,0,0,0,0,0,0,0,0,0,0,0,0,0,0,0,0,0,0,0,0,0,0,0,0,0,0,0,0,0,0,0,0,0,0,0,0,0,0,0,0,0,0,0,0,0,0,0,0,0,0,0,0,0,0,0,0,0,0,0,0,0,0,0,0,0,0,0,0,0,0,0,0,0,0,0,0,0,0,0,0,0,0,0,0,0,0,0,0,0,0,0,0,0,0,0,0,0,0,0,0,0,0,0,0,0,0,0,0,0,0,0,0,0,0,0,0,0,0,0,0,0,0,0,0,0,0,0,0,0,0,0,0,0,0,0,0,0,0,0,0,0,0,0,0,0,0,0,0,0,0,0,0,0,0,0,0,0,0,0,0,0,0,0,0,0,0,0,0,0,0,0,0,0,0,0,0,0,0,0,0,0,0,0,0,0,0,0,0,0,0,0,0,0,0,0,0,0,0,0,0,0,0,0,0,0,0,0,0,0,0,0,0,0,0,0,0,0,0,0,0,0,0,0,0,0,0,0,0,0,0,0,0,0,0,0,0,0,0,0,0,0,0,0,0,0,0,0,0,0,0,0,0,0,0,0,0,0,0,0,0,0,0,0,0,0,0,0,0,0,0,0,0,0,0,0,0,0,0,0,0,0,0,0]},{"id":6,"name":"campus-areas","type":"objectgroup","x":0,"y":0,"visible":true,"opacity":1,"draworder":"topdown","objects":[{"id":1,"name":"start","class":"area","type":"area","x":920,"y":1552,"width":32,"height":32,"visible":true,"properties":[{"name":"start","type":"bool","value":true}]},{"id":2,"name":"StudentHub","class":"area","type":"area","x":720,"y":64,"width":1536,"height":960,"visible":true,"properties":[{"name":"liveServiceConfigured","type":"bool","value":false}]},{"id":3,"name":"Classroom","class":"area","type":"area","x":64,"y":1280,"width":512,"height":384,"visible":true,"properties":[{"name":"liveServiceConfigured","type":"bool","value":false}]},{"id":4,"name":"Event hall","class":"area","type":"area","x":64,"y":1776,"width":512,"height":544,"visible":true,"properties":[{"name":"liveServiceConfigured","type":"bool","value":false}]},{"id":5,"name":"Fountain court","class":"area","type":"area","x":640,"y":1120,"width":1280,"height":704,"visible":true,"properties":[{"name":"liveServiceConfigured","type":"bool","value":false}]},{"id":6,"name":"Riverside","class":"area","type":"area","x":1904,"y":1248,"width":1024,"height":1024,"visible":true,"properties":[{"name":"liveServiceConfigured","type":"bool","value":false}]},{"id":7,"name":"Market","class":"area","type":"area","x":1824,"y":1968,"width":768,"height":320,"visible":true,"properties":[{"name":"liveServiceConfigured","type":"bool","value":false}]},{"id":8,"name":"spawn-quiet-start","class":"area","type":"area","x":896,"y":1536,"width":96,"height":96,"visible":true,"properties":[{"name":"silent","type":"bool","value":true}]},{"id":9,"name":"ambient-fountain-0","class":"area","type":"area","visible":true,"x":712,"y":1231,"width":448,"height":384,"properties":[{"name":"playAudio","type":"string","value":"../../v9/map32/audio/fountain-soft.mp3"},{"name":"audioLoop","type":"bool","value":true},{"name":"audioVolume","type":"float","value":0.35}]},{"id":10,"name":"ambient-fountain-1","class":"area","type":"area","visible":true,"x":760,"y":1279,"width":352,"height":288,"properties":[{"name":"playAudio","type":"string","value":"../../v9/map32/audio/fountain-soft.mp3"},{"name":"audioLoop","type":"bool","value":true},{"name":"audioVolume","type":"float","value":0.7}]},{"id":11,"name":"ambient-fountain-2","class":"area","type":"area","visible":true,"x":808,"y":1327,"width":256,"height":192,"properties":[{"name":"playAudio","type":"string","value":"../../v9/map32/audio/fountain-soft.mp3"},{"name":"audioLoop","type":"bool","value":true},{"name":"audioVolume","type":"float","value":1}]},{"id":12,"name":"ambient-fire-0","class":"area","type":"area","visible":true,"x":2108,"y":1480,"width":576,"height":576,"properties":[{"name":"playAudio","type":"string","value":"../../v9/map32/audio/fire-soft.mp3"},{"name":"audioLoop","type":"bool","value":true},{"name":"audioVolume","type":"float","value":0.35}]},{"id":13,"name":"ambient-fire-1","class":"area","type":"area","visible":true,"x":2156,"y":1528,"width":480,"height":480,"properties":[{"name":"playAudio","type":"string","value":"../../v9/map32/audio/fire-soft.mp3"},{"name":"audioLoop","type":"bool","value":true},{"name":"audioVolume","type":"float","value":0.7}]},{"id":14,"name":"ambient-fire-2","class":"area","type":"area","visible":true,"x":2204,"y":1576,"width":384,"height":384,"properties":[{"name":"playAudio","type":"string","value":"../../v9/map32/audio/fire-soft.mp3"},{"name":"audioLoop","type":"bool","value":true},{"name":"audioVolume","type":"float","value":1}]}]}],"nextobjectid":15,"infinite":false,"orientation":"orthogonal","renderorder":"right-down","tiledversion":"1.11.2","type":"map","version":"1.10","backgroundcolor":"#0c2029","tilesets":[{"firstgid":1,"name":"campus-base-p0","image":"../../v9/map32/campus-base-p0.png","imagewidth":1024,"imageheight":1024,"tilewidth":32,"tileheight":32,"margin":0,"spacing":0,"columns":32,"tilecount":1024},{"firstgid":1025,"name":"campus-base-p1","image":"../../v9/map32/campus-base-p1.png","imagewidth":1024,"imageheight":1024,"tilewidth":32,"tileheight":32,"margin":0,"spacing":0,"columns":32,"tilecount":1024},{"firstgid":2049,"name":"campus-base-p2","image":"../../v9/map32/campus-base-p2.png","imagewidth":1024,"imageheight":1024,"tilewidth":32,"tileheight":32,"margin":0,"spacing":0,"columns":32,"tilecount":1024},{"firstgid":3073,"name":"campus-base-p3","image":"../../v9/map32/campus-base-p3.png","imagewidth":1024,"imageheight":1024,"tilewidth":32,"tileheight":32,"margin":0,"spacing":0,"columns":32,"tilecount":1024},{"firstgid":4097,"name":"campus-base-p4","image":"../../v9/map32/campus-base-p4.png","imagewidth":1024,"imageheight":1024,"tilewidth":32,"tileheight":32,"margin":0,"spacing":0,"columns":32,"tilecount":1024},{"firstgid":5121,"name":"campus-base-p5","image":"../../v9/map32/campus-base-p5.png","imagewidth":1024,"imageheight":1024,"tilewidth":32,"tileheight":32,"margin":0,"spacing":0,"columns":32,"tilecount":1009},{"firstgid":6130,"name":"campus-above-p0","image":"../../v9/map32/campus-above-p0.png","imagewidth":1024,"imageheight":1024,"tilewidth":32,"tileheight":32,"margin":0,"spacing":0,"columns":32,"tilecount":1024},{"firstgid":7154,"name":"campus-above-p1","image":"../../v9/map32/campus-above-p1.png","imagewidth":1024,"imageheight":1024,"tilewidth":32,"tileheight":32,"margin":0,"spacing":0,"columns":32,"tilecount":1024},{"firstgid":8178,"name":"campus-above-p2","image":"../../v9/map32/campus-above-p2.png","imagewidth":1024,"imageheight":96,"tilewidth":32,"tileheight":32,"margin":0,"spacing":0,"columns":32,"tilecount":71},{"firstgid":8921,"name":"exact-collision","image":"../../v9/map32/collision-cell.png","imagewidth":32,"imageheight":32,"tilewidth":32,"tileheight":32,"margin":0,"spacing":0,"columns":1,"tilecount":1,"tiles":[{"id":0,"properties":[{"name":"collides","type":"bool","value":true}]}]},{"firstgid":8922,"name":"campus10-changed-p0","image":"campus10-changed-p0.png","imagewidth":1024,"imageheight":1024,"tilewidth":32,"tileheight":32,"margin":0,"spacing":0,"columns":32,"tilecount":1024},{"firstgid":9946,"name":"campus10-changed-p1","image":"campus10-changed-p1.png","imagewidth":1024,"imageheight":608,"tilewidth":32,"tileheight":32,"margin":0,"spacing":0,"columns":32,"tilecount":598},{"firstgid":10544,"name":"fountain-water-p0","image":"fountain-water-p0.png","imagewidth":1024,"imageheight":320,"tilewidth":32,"tileheight":32,"margin":0,"spacing":0,"columns":32,"tilecount":302,"tiles":[{"id":16,"animation":[{"tileid":0,"duration":100},{"tileid":1,"duration":100},{"tileid":2,"duration":100},{"tileid":3,"duration":100},{"tileid":4,"duration":100},{"tileid":5,"duration":100},{"tileid":6,"duration":100},{"tileid":7,"duration":100},{"tileid":8,"duration":100},{"tileid":9,"duration":100},{"tileid":10,"duration":100},{"tileid":11,"duration":100},{"tileid":12,"duration":100},{"tileid":13,"duration":100},{"tileid":14,"duration":100},{"tileid":15,"duration":100}]},{"id":33,"animation":[{"tileid":17,"duration":100},{"tileid":18,"duration":100},{"tileid":19,"duration":100},{"tileid":20,"duration":100},{"tileid":21,"duration":100},{"tileid":22,"duration":100},{"tileid":23,"duration":100},{"tileid":24,"duration":100},{"tileid":25,"duration":100},{"tileid":26,"duration":100},{"tileid":27,"duration":100},{"tileid":28,"duration":100},{"tileid":29,"duration":100},{"tileid":30,"duration":100},{"tileid":31,"duration":100},{"tileid":32,"duration":100}]},{"id":44,"animation":[{"tileid":34,"duration":100},{"tileid":35,"duration":100},{"tileid":35,"duration":100},{"tileid":35,"duration":100},{"tileid":36,"duration":100},{"tileid":37,"duration":100},{"tileid":38,"duration":100},{"tileid":35,"duration":100},{"tileid":35,"duration":100},{"tileid":39,"duration":100},{"tileid":40,"duration":100},{"tileid":41,"duration":100},{"tileid":35,"duration":100},{"tileid":35,"duration":100},{"tileid":42,"duration":100},{"tileid":43,"duration":100}]},{"id":61,"animation":[{"tileid":45,"duration":100},{"tileid":46,"duration":100},{"tileid":47,"duration":100},{"tileid":48,"duration":100},{"tileid":49,"duration":100},{"tileid":50,"duration":100},{"tileid":51,"duration":100},{"tileid":52,"duration":100},{"tileid":53,"duration":100},{"tileid":54,"duration":100},{"tileid":55,"duration":100},{"tileid":56,"duration":100},{"tileid":57,"duration":100},{"tileid":58,"duration":100},{"tileid":59,"duration":100},{"tileid":60,"duration":100}]},{"id":78,"animation":[{"tileid":62,"duration":100},{"tileid":63,"duration":100},{"tileid":64,"duration":100},{"tileid":65,"duration":100},{"tileid":66,"duration":100},{"tileid":67,"duration":100},{"tileid":68,"duration":100},{"tileid":69,"duration":100},{"tileid":70,"duration":100},{"tileid":71,"duration":100},{"tileid":72,"duration":100},{"tileid":73,"duration":100},{"tileid":74,"duration":100},{"tileid":75,"duration":100},{"tileid":76,"duration":100},{"tileid":77,"duration":100}]},{"id":95,"animation":[{"tileid":79,"duration":100},{"tileid":80,"duration":100},{"tileid":81,"duration":100},{"tileid":82,"duration":100},{"tileid":83,"duration":100},{"tileid":84,"duration":100},{"tileid":85,"duration":100},{"tileid":86,"duration":100},{"tileid":87,"duration":100},{"tileid":88,"duration":100},{"tileid":89,"duration":100},{"tileid":90,"duration":100},{"tileid":91,"duration":100},{"tileid":92,"duration":100},{"tileid":93,"duration":100},{"tileid":94,"duration":100}]},{"id":101,"animation":[{"tileid":96,"duration":100},{"tileid":97,"duration":100},{"tileid":97,"duration":100},{"tileid":97,"duration":100},{"tileid":97,"duration":100},{"tileid":98,"duration":100},{"tileid":97,"duration":100},{"tileid":97,"duration":100},{"tileid":97,"duration":100},{"tileid":97,"duration":100},{"tileid":98,"duration":100},{"tileid":99,"duration":100},{"tileid":97,"duration":100},{"tileid":97,"duration":100},{"tileid":97,"duration":100},{"tileid":100,"duration":100}]},{"id":118,"animation":[{"tileid":102,"duration":100},{"tileid":103,"duration":100},{"tileid":104,"duration":100},{"tileid":105,"duration":100},{"tileid":106,"duration":100},{"tileid":107,"duration":100},{"tileid":108,"duration":100},{"tileid":109,"duration":100},{"tileid":110,"duration":100},{"tileid":111,"duration":100},{"tileid":112,"duration":100},{"tileid":113,"duration":100},{"tileid":114,"duration":100},{"tileid":115,"duration":100},{"tileid":116,"duration":100},{"tileid":117,"duration":100}]},{"id":132,"animation":[{"tileid":119,"duration":100},{"tileid":120,"duration":100},{"tileid":121,"duration":100},{"tileid":122,"duration":100},{"tileid":123,"duration":100},{"tileid":124,"duration":100},{"tileid":125,"duration":100},{"tileid":126,"duration":100},{"tileid":122,"duration":100},{"tileid":122,"duration":100},{"tileid":127,"duration":100},{"tileid":128,"duration":100},{"tileid":129,"duration":100},{"tileid":130,"duration":100},{"tileid":122,"duration":100},{"tileid":131,"duration":100}]},{"id":146,"animation":[{"tileid":133,"duration":100},{"tileid":134,"duration":100},{"tileid":135,"duration":100},{"tileid":136,"duration":100},{"tileid":137,"duration":100},{"tileid":138,"duration":100},{"tileid":139,"duration":100},{"tileid":140,"duration":100},{"tileid":141,"duration":100},{"tileid":134,"duration":100},{"tileid":142,"duration":100},{"tileid":136,"duration":100},{"tileid":137,"duration":100},{"tileid":143,"duration":100},{"tileid":144,"duration":100},{"tileid":145,"duration":100}]},{"id":163,"animation":[{"tileid":147,"duration":100},{"tileid":148,"duration":100},{"tileid":149,"duration":100},{"tileid":150,"duration":100},{"tileid":151,"duration":100},{"tileid":152,"duration":100},{"tileid":153,"duration":100},{"tileid":154,"duration":100},{"tileid":155,"duration":100},{"tileid":156,"duration":100},{"tileid":157,"duration":100},{"tileid":158,"duration":100},{"tileid":159,"duration":100},{"tileid":160,"duration":100},{"tileid":161,"duration":100},{"tileid":162,"duration":100}]},{"id":180,"animation":[{"tileid":164,"duration":100},{"tileid":165,"duration":100},{"tileid":166,"duration":100},{"tileid":167,"duration":100},{"tileid":168,"duration":100},{"tileid":169,"duration":100},{"tileid":170,"duration":100},{"tileid":171,"duration":100},{"tileid":172,"duration":100},{"tileid":173,"duration":100},{"tileid":174,"duration":100},{"tileid":175,"duration":100},{"tileid":176,"duration":100},{"tileid":177,"duration":100},{"tileid":178,"duration":100},{"tileid":179,"duration":100}]},{"id":197,"animation":[{"tileid":181,"duration":100},{"tileid":182,"duration":100},{"tileid":183,"duration":100},{"tileid":184,"duration":100},{"tileid":185,"duration":100},{"tileid":186,"duration":100},{"tileid":187,"duration":100},{"tileid":188,"duration":100},{"tileid":189,"duration":100},{"tileid":190,"duration":100},{"tileid":191,"duration":100},{"tileid":192,"duration":100},{"tileid":193,"duration":100},{"tileid":194,"duration":100},{"tileid":195,"duration":100},{"tileid":196,"duration":100}]},{"id":203,"animation":[{"tileid":198,"duration":100},{"tileid":199,"duration":100},{"tileid":200,"duration":100},{"tileid":201,"duration":100},{"tileid":202,"duration":100},{"tileid":202,"duration":100},{"tileid":202,"duration":100},{"tileid":202,"duration":100},{"tileid":198,"duration":100},{"tileid":199,"duration":100},{"tileid":200,"duration":100},{"tileid":201,"duration":100},{"tileid":202,"duration":100},{"tileid":202,"duration":100},{"tileid":202,"duration":100},{"tileid":202,"duration":100}]},{"id":210,"animation":[{"tileid":202,"duration":100},{"tileid":202,"duration":100},{"tileid":204,"duration":100},{"tileid":205,"duration":100},{"tileid":206,"duration":100},{"tileid":207,"duration":100},{"tileid":208,"duration":100},{"tileid":209,"duration":100},{"tileid":202,"duration":100},{"tileid":202,"duration":100},{"tileid":204,"duration":100},{"tileid":205,"duration":100},{"tileid":206,"duration":100},{"tileid":207,"duration":100},{"tileid":208,"duration":100},{"tileid":209,"duration":100}]},{"id":227,"animation":[{"tileid":211,"duration":100},{"tileid":212,"duration":100},{"tileid":213,"duration":100},{"tileid":214,"duration":100},{"tileid":215,"duration":100},{"tileid":216,"duration":100},{"tileid":217,"duration":100},{"tileid":218,"duration":100},{"tileid":219,"duration":100},{"tileid":220,"duration":100},{"tileid":221,"duration":100},{"tileid":222,"duration":100},{"tileid":223,"duration":100},{"tileid":224,"duration":100},{"tileid":225,"duration":100},{"tileid":226,"duration":100}]},{"id":236,"animation":[{"tileid":228,"duration":100},{"tileid":229,"duration":100},{"tileid":230,"duration":100},{"tileid":231,"duration":100},{"tileid":232,"duration":100},{"tileid":233,"duration":100},{"tileid":234,"duration":100},{"tileid":235,"duration":100},{"tileid":228,"duration":100},{"tileid":229,"duration":100},{"tileid":230,"duration":100},{"tileid":231,"duration":100},{"tileid":232,"duration":100},{"tileid":233,"duration":100},{"tileid":234,"duration":100},{"tileid":235,"duration":100}]},{"id":245,"animation":[{"tileid":237,"duration":100},{"tileid":238,"duration":100},{"tileid":239,"duration":100},{"tileid":240,"duration":100},{"tileid":241,"duration":100},{"tileid":242,"duration":100},{"tileid":243,"duration":100},{"tileid":244,"duration":100},{"tileid":237,"duration":100},{"tileid":238,"duration":100},{"tileid":239,"duration":100},{"tileid":240,"duration":100},{"tileid":241,"duration":100},{"tileid":242,"duration":100},{"tileid":243,"duration":100},{"tileid":244,"duration":100}]},{"id":262,"animation":[{"tileid":246,"duration":100},{"tileid":247,"duration":100},{"tileid":248,"duration":100},{"tileid":249,"duration":100},{"tileid":250,"duration":100},{"tileid":251,"duration":100},{"tileid":252,"duration":100},{"tileid":253,"duration":100},{"tileid":254,"duration":100},{"tileid":255,"duration":100},{"tileid":256,"duration":100},{"tileid":257,"duration":100},{"tileid":258,"duration":100},{"tileid":259,"duration":100},{"tileid":260,"duration":100},{"tileid":261,"duration":100}]},{"id":278,"animation":[{"tileid":263,"duration":100},{"tileid":264,"duration":100},{"tileid":265,"duration":100},{"tileid":266,"duration":100},{"tileid":267,"duration":100},{"tileid":268,"duration":100},{"tileid":269,"duration":100},{"tileid":270,"duration":100},{"tileid":263,"duration":100},{"tileid":271,"duration":100},{"tileid":272,"duration":100},{"tileid":273,"duration":100},{"tileid":274,"duration":100},{"tileid":275,"duration":100},{"tileid":276,"duration":100},{"tileid":277,"duration":100}]},{"id":287,"animation":[{"tileid":279,"duration":100},{"tileid":280,"duration":100},{"tileid":281,"duration":100},{"tileid":282,"duration":100},{"tileid":283,"duration":100},{"tileid":284,"duration":100},{"tileid":285,"duration":100},{"tileid":286,"duration":100},{"tileid":279,"duration":100},{"tileid":280,"duration":100},{"tileid":281,"duration":100},{"tileid":282,"duration":100},{"tileid":283,"duration":100},{"tileid":284,"duration":100},{"tileid":285,"duration":100},{"tileid":286,"duration":100}]},{"id":301,"animation":[{"tileid":288,"duration":100},{"tileid":289,"duration":100},{"tileid":290,"duration":100},{"tileid":291,"duration":100},{"tileid":292,"duration":100},{"tileid":293,"duration":100},{"tileid":294,"duration":100},{"tileid":295,"duration":100},{"tileid":296,"duration":100},{"tileid":297,"duration":100},{"tileid":290,"duration":100},{"tileid":298,"duration":100},{"tileid":292,"duration":100},{"tileid":293,"duration":100},{"tileid":299,"duration":100},{"tileid":300,"duration":100}]}]},{"firstgid":10846,"name":"river-water-p0","image":"river-water-p0.png","imagewidth":1024,"imageheight":1024,"tilewidth":32,"tileheight":32,"margin":0,"spacing":0,"columns":32,"tilecount":1020,"tiles":[{"id":15,"animation":[{"tileid":0,"duration":140},{"tileid":1,"duration":140},{"tileid":2,"duration":140},{"tileid":3,"duration":140},{"tileid":4,"duration":140},{"tileid":5,"duration":140},{"tileid":6,"duration":140},{"tileid":7,"duration":140},{"tileid":8,"duration":140},{"tileid":9,"duration":140},{"tileid":10,"duration":140},{"tileid":11,"duration":140},{"tileid":12,"duration":140},{"tileid":13,"duration":140},{"tileid":14,"duration":140},{"tileid":0,"duration":140}]},{"id":21,"animation":[{"tileid":0,"duration":140},{"tileid":0,"duration":140},{"tileid":0,"duration":140},{"tileid":0,"duration":140},{"tileid":0,"duration":140},{"tileid":0,"duration":140},{"tileid":0,"duration":140},{"tileid":0,"duration":140},{"tileid":0,"duration":140},{"tileid":0,"duration":140},{"tileid":16,"duration":140},{"tileid":17,"duration":140},{"tileid":18,"duration":140},{"tileid":19,"duration":140},{"tileid":20,"duration":140},{"tileid":0,"duration":140}]},{"id":24,"animation":[{"tileid":0,"duration":140},{"tileid":0,"duration":140},{"tileid":0,"duration":140},{"tileid":0,"duration":140},{"tileid":0,"duration":140},{"tileid":0,"duration":140},{"tileid":0,"duration":140},{"tileid":0,"duration":140},{"tileid":0,"duration":140},{"tileid":0,"duration":140},{"tileid":0,"duration":140},{"tileid":22,"duration":140},{"tileid":23,"duration":140},{"tileid":0,"duration":140},{"tileid":0,"duration":140},{"tileid":0,"duration":140}]},{"id":32,"animation":[{"tileid":0,"duration":140},{"tileid":0,"duration":140},{"tileid":0,"duration":140},{"tileid":0,"duration":140},{"tileid":0,"duration":140},{"tileid":0,"duration":140},{"tileid":0,"duration":140},{"tileid":0,"duration":140},{"tileid":0,"duration":140},{"tileid":25,"duration":140},{"tileid":26,"duration":140},{"tileid":27,"duration":140},{"tileid":28,"duration":140},{"tileid":29,"duration":140},{"tileid":30,"duration":140},{"tileid":31,"duration":140}]},{"id":48,"animation":[{"tileid":33,"duration":140},{"tileid":34,"duration":140},{"tileid":35,"duration":140},{"tileid":36,"duration":140},{"tileid":37,"duration":140},{"tileid":38,"duration":140},{"tileid":39,"duration":140},{"tileid":40,"duration":140},{"tileid":41,"duration":140},{"tileid":42,"duration":140},{"tileid":0,"duration":140},{"tileid":43,"duration":140},{"tileid":44,"duration":140},{"tileid":45,"duration":140},{"tileid":46,"duration":140},{"tileid":47,"duration":140}]},{"id":65,"animation":[{"tileid":49,"duration":140},{"tileid":50,"duration":140},{"tileid":51,"duration":140},{"tileid":52,"duration":140},{"tileid":53,"duration":140},{"tileid":54,"duration":140},{"tileid":55,"duration":140},{"tileid":56,"duration":140},{"tileid":57,"duration":140},{"tileid":58,"duration":140},{"tileid":59,"duration":140},{"tileid":60,"duration":140},{"tileid":61,"duration":140},{"tileid":62,"duration":140},{"tileid":63,"duration":140},{"tileid":64,"duration":140}]},{"id":80,"animation":[{"tileid":66,"duration":140},{"tileid":67,"duration":140},{"tileid":0,"duration":140},{"tileid":0,"duration":140},{"tileid":68,"duration":140},{"tileid":69,"duration":140},{"tileid":70,"duration":140},{"tileid":71,"duration":140},{"tileid":72,"duration":140},{"tileid":73,"duration":140},{"tileid":74,"duration":140},{"tileid":75,"duration":140},{"tileid":76,"duration":140},{"tileid":77,"duration":140},{"tileid":78,"duration":140},{"tileid":79,"duration":140}]},{"id":84,"animation":[{"tileid":81,"duration":140},{"tileid":0,"duration":140},{"tileid":0,"duration":140},{"tileid":0,"duration":140},{"tileid":0,"duration":140},{"tileid":0,"duration":140},{"tileid":0,"duration":140},{"tileid":0,"duration":140},{"tileid":0,"duration":140},{"tileid":0,"duration":140},{"tileid":0,"duration":140},{"tileid":0,"duration":140},{"tileid":0,"duration":140},{"tileid":0,"duration":140},{"tileid":82,"duration":140},{"tileid":83,"duration":140}]},{"id":96,"animation":[{"tileid":85,"duration":140},{"tileid":86,"duration":140},{"tileid":87,"duration":140},{"tileid":0,"duration":140},{"tileid":0,"duration":140},{"tileid":0,"duration":140},{"tileid":0,"duration":140},{"tileid":0,"duration":140},{"tileid":88,"duration":140},{"tileid":89,"duration":140},{"tileid":90,"duration":140},{"tileid":91,"duration":140},{"tileid":92,"duration":140},{"tileid":93,"duration":140},{"tileid":94,"duration":140},{"tileid":95,"duration":140}]},{"id":109,"animation":[{"tileid":97,"duration":140},{"tileid":98,"duration":140},{"tileid":99,"duration":140},{"tileid":100,"duration":140},{"tileid":0,"duration":140},{"tileid":0,"duration":140},{"tileid":0,"duration":140},{"tileid":0,"duration":140},{"tileid":101,"duration":140},{"tileid":102,"duration":140},{"tileid":103,"duration":140},{"tileid":104,"duration":140},{"tileid":105,"duration":140},{"tileid":106,"duration":140},{"tileid":107,"duration":140},{"tileid":108,"duration":140}]},{"id":115,"animation":[{"tileid":110,"duration":140},{"tileid":111,"duration":140},{"tileid":112,"duration":140},{"tileid":113,"duration":140},{"tileid":0,"duration":140},{"tileid":0,"duration":140},{"tileid":0,"duration":140},{"tileid":0,"duration":140},{"tileid":0,"duration":140},{"tileid":0,"duration":140},{"tileid":0,"duration":140},{"tileid":0,"duration":140},{"tileid":0,"duration":140},{"tileid":0,"duration":140},{"tileid":0,"duration":140},{"tileid":114,"duration":140}]},{"id":124,"animation":[{"tileid":116,"duration":140},{"tileid":117,"duration":140},{"tileid":118,"duration":140},{"tileid":119,"duration":140},{"tileid":0,"duration":140},{"tileid":0,"duration":140},{"tileid":0,"duration":140},{"tileid":0,"duration":140},{"tileid":0,"duration":140},{"tileid":0,"duration":140},{"tileid":0,"duration":140},{"tileid":0,"duration":140},{"tileid":120,"duration":140},{"tileid":121,"duration":140},{"tileid":122,"duration":140},{"tileid":123,"duration":140}]},{"id":141,"animation":[{"tileid":125,"duration":140},{"tileid":126,"duration":140},{"tileid":127,"duration":140},{"tileid":128,"duration":140},{"tileid":129,"duration":140},{"tileid":130,"duration":140},{"tileid":131,"duration":140},{"tileid":132,"duration":140},{"tileid":133,"duration":140},{"tileid":134,"duration":140},{"tileid":135,"duration":140},{"tileid":136,"duration":140},{"tileid":137,"duration":140},{"tileid":138,"duration":140},{"tileid":139,"duration":140},{"tileid":140,"duration":140}]},{"id":149,"animation":[{"tileid":0,"duration":140},{"tileid":142,"duration":140},{"tileid":143,"duration":140},{"tileid":144,"duration":140},{"tileid":145,"duration":140},{"tileid":146,"duration":140},{"tileid":147,"duration":140},{"tileid":148,"duration":140},{"tileid":0,"duration":140},{"tileid":0,"duration":140},{"tileid":0,"duration":140},{"tileid":0,"duration":140},{"tileid":0,"duration":140},{"tileid":0,"duration":140},{"tileid":0,"duration":140},{"tileid":0,"duration":140}]},{"id":160,"animation":[{"tileid":150,"duration":140},{"tileid":151,"duration":140},{"tileid":152,"duration":140},{"tileid":153,"duration":140},{"tileid":154,"duration":140},{"tileid":155,"duration":140},{"tileid":156,"duration":140},{"tileid":157,"duration":140},{"tileid":0,"duration":140},{"tileid":0,"duration":140},{"tileid":0,"duration":140},{"tileid":0,"duration":140},{"tileid":0,"duration":140},{"tileid":0,"duration":140},{"tileid":158,"duration":140},{"tileid":159,"duration":140}]},{"id":177,"animation":[{"tileid":161,"duration":140},{"tileid":162,"duration":140},{"tileid":163,"duration":140},{"tileid":164,"duration":140},{"tileid":165,"duration":140},{"tileid":166,"duration":140},{"tileid":167,"duration":140},{"tileid":168,"duration":140},{"tileid":169,"duration":140},{"tileid":170,"duration":140},{"tileid":171,"duration":140},{"tileid":172,"duration":140},{"tileid":173,"duration":140},{"tileid":174,"duration":140},{"tileid":175,"duration":140},{"tileid":176,"duration":140}]},{"id":188,"animation":[{"tileid":178,"duration":140},{"tileid":179,"duration":140},{"tileid":180,"duration":140},{"tileid":181,"duration":140},{"tileid":182,"duration":140},{"tileid":183,"duration":140},{"tileid":0,"duration":140},{"tileid":0,"duration":140},{"tileid":0,"duration":140},{"tileid":0,"duration":140},{"tileid":0,"duration":140},{"tileid":0,"duration":140},{"tileid":184,"duration":140},{"tileid":185,"duration":140},{"tileid":186,"duration":140},{"tileid":187,"duration":140}]},{"id":196,"animation":[{"tileid":189,"duration":140},{"tileid":190,"duration":140},{"tileid":191,"duration":140},{"tileid":0,"duration":140},{"tileid":0,"duration":140},{"tileid":0,"duration":140},{"tileid":0,"duration":140},{"tileid":0,"duration":140},{"tileid":0,"duration":140},{"tileid":0,"duration":140},{"tileid":0,"duration":140},{"tileid":0,"duration":140},{"tileid":192,"duration":140},{"tileid":193,"duration":140},{"tileid":194,"duration":140},{"tileid":195,"duration":140}]},{"id":205,"animation":[{"tileid":197,"duration":140},{"tileid":198,"duration":140},{"tileid":199,"duration":140},{"tileid":200,"duration":140},{"tileid":201,"duration":140},{"tileid":202,"duration":140},{"tileid":203,"duration":140},{"tileid":204,"duration":140},{"tileid":0,"duration":140},{"tileid":0,"duration":140},{"tileid":0,"duration":140},{"tileid":0,"duration":140},{"tileid":0,"duration":140},{"tileid":0,"duration":140},{"tileid":0,"duration":140},{"tileid":0,"duration":140}]},{"id":218,"animation":[{"tileid":206,"duration":140},{"tileid":207,"duration":140},{"tileid":208,"duration":140},{"tileid":209,"duration":140},{"tileid":210,"duration":140},{"tileid":211,"duration":140},{"tileid":212,"duration":140},{"tileid":213,"duration":140},{"tileid":214,"duration":140},{"tileid":215,"duration":140},{"tileid":216,"duration":140},{"tileid":217,"duration":140},{"tileid":0,"duration":140},{"tileid":0,"duration":140},{"tileid":0,"duration":140},{"tileid":0,"duration":140}]},{"id":235,"animation":[{"tileid":219,"duration":140},{"tileid":220,"duration":140},{"tileid":221,"duration":140},{"tileid":222,"duration":140},{"tileid":223,"duration":140},{"tileid":224,"duration":140},{"tileid":225,"duration":140},{"tileid":226,"duration":140},{"tileid":227,"duration":140},{"tileid":228,"duration":140},{"tileid":229,"duration":140},{"tileid":230,"duration":140},{"tileid":231,"duration":140},{"tileid":232,"duration":140},{"tileid":233,"duration":140},{"tileid":234,"duration":140}]},{"id":252,"animation":[{"tileid":236,"duration":140},{"tileid":237,"duration":140},{"tileid":238,"duration":140},{"tileid":239,"duration":140},{"tileid":240,"duration":140},{"tileid":241,"duration":140},{"tileid":242,"duration":140},{"tileid":243,"duration":140},{"tileid":244,"duration":140},{"tileid":245,"duration":140},{"tileid":246,"duration":140},{"tileid":247,"duration":140},{"tileid":248,"duration":140},{"tileid":249,"duration":140},{"tileid":250,"duration":140},{"tileid":251,"duration":140}]},{"id":257,"animation":[{"tileid":0,"duration":140},{"tileid":0,"duration":140},{"tileid":0,"duration":140},{"tileid":0,"duration":140},{"tileid":0,"duration":140},{"tileid":0,"duration":140},{"tileid":0,"duration":140},{"tileid":0,"duration":140},{"tileid":0,"duration":140},{"tileid":0,"duration":140},{"tileid":0,"duration":140},{"tileid":253,"duration":140},{"tileid":254,"duration":140},{"tileid":255,"duration":140},{"tileid":256,"duration":140},{"tileid":0,"duration":140}]},{"id":271,"animation":[{"tileid":0,"duration":140},{"tileid":0,"duration":140},{"tileid":258,"duration":140},{"tileid":259,"duration":140},{"tileid":260,"duration":140},{"tileid":261,"duration":140},{"tileid":262,"duration":140},{"tileid":263,"duration":140},{"tileid":264,"duration":140},{"tileid":265,"duration":140},{"tileid":266,"duration":140},{"tileid":267,"duration":140},{"tileid":268,"duration":140},{"tileid":269,"duration":140},{"tileid":270,"duration":140},{"tileid":0,"duration":140}]},{"id":287,"animation":[{"tileid":272,"duration":140},{"tileid":273,"duration":140},{"tileid":274,"duration":140},{"tileid":275,"duration":140},{"tileid":276,"duration":140},{"tileid":277,"duration":140},{"tileid":278,"duration":140},{"tileid":279,"duration":140},{"tileid":280,"duration":140},{"tileid":0,"duration":140},{"tileid":281,"duration":140},{"tileid":282,"duration":140},{"tileid":283,"duration":140},{"tileid":284,"duration":140},{"tileid":285,"duration":140},{"tileid":286,"duration":140}]},{"id":304,"animation":[{"tileid":288,"duration":140},{"tileid":289,"duration":140},{"tileid":290,"duration":140},{"tileid":291,"duration":140},{"tileid":292,"duration":140},{"tileid":293,"duration":140},{"tileid":294,"duration":140},{"tileid":295,"duration":140},{"tileid":296,"duration":140},{"tileid":297,"duration":140},{"tileid":298,"duration":140},{"tileid":299,"duration":140},{"tileid":300,"duration":140},{"tileid":301,"duration":140},{"tileid":302,"duration":140},{"tileid":303,"duration":140}]},{"id":309,"animation":[{"tileid":0,"duration":140},{"tileid":0,"duration":140},{"tileid":0,"duration":140},{"tileid":305,"duration":140},{"tileid":306,"duration":140},{"tileid":307,"duration":140},{"tileid":308,"duration":140},{"tileid":0,"duration":140},{"tileid":0,"duration":140},{"tileid":0,"duration":140},{"tileid":0,"duration":140},{"tileid":0,"duration":140},{"tileid":0,"duration":140},{"tileid":0,"duration":140},{"tileid":0,"duration":140},{"tileid":0,"duration":140}]},{"id":326,"animation":[{"tileid":310,"duration":140},{"tileid":311,"duration":140},{"tileid":312,"duration":140},{"tileid":313,"duration":140},{"tileid":314,"duration":140},{"tileid":315,"duration":140},{"tileid":316,"duration":140},{"tileid":317,"duration":140},{"tileid":318,"duration":140},{"tileid":319,"duration":140},{"tileid":320,"duration":140},{"tileid":321,"duration":140},{"tileid":322,"duration":140},{"tileid":323,"duration":140},{"tileid":324,"duration":140},{"tileid":325,"duration":140}]},{"id":342,"animation":[{"tileid":327,"duration":140},{"tileid":328,"duration":140},{"tileid":329,"duration":140},{"tileid":330,"duration":140},{"tileid":331,"duration":140},{"tileid":332,"duration":140},{"tileid":333,"duration":140},{"tileid":334,"duration":140},{"tileid":335,"duration":140},{"tileid":336,"duration":140},{"tileid":337,"duration":140},{"tileid":338,"duration":140},{"tileid":0,"duration":140},{"tileid":339,"duration":140},{"tileid":340,"duration":140},{"tileid":341,"duration":140}]},{"id":351,"animation":[{"tileid":0,"duration":140},{"tileid":0,"duration":140},{"tileid":0,"duration":140},{"tileid":0,"duration":140},{"tileid":343,"duration":140},{"tileid":344,"duration":140},{"tileid":345,"duration":140},{"tileid":346,"duration":140},{"tileid":347,"duration":140},{"tileid":348,"duration":140},{"tileid":349,"duration":140},{"tileid":350,"duration":140},{"tileid":0,"duration":140},{"tileid":0,"duration":140},{"tileid":0,"duration":140},{"tileid":0,"duration":140}]},{"id":366,"animation":[{"tileid":352,"duration":140},{"tileid":353,"duration":140},{"tileid":354,"duration":140},{"tileid":0,"duration":140},{"tileid":0,"duration":140},{"tileid":355,"duration":140},{"tileid":356,"duration":140},{"tileid":357,"duration":140},{"tileid":358,"duration":140},{"tileid":359,"duration":140},{"tileid":360,"duration":140},{"tileid":361,"duration":140},{"tileid":362,"duration":140},{"tileid":363,"duration":140},{"tileid":364,"duration":140},{"tileid":365,"duration":140}]},{"id":377,"animation":[{"tileid":0,"duration":140},{"tileid":0,"duration":140},{"tileid":0,"duration":140},{"tileid":0,"duration":140},{"tileid":0,"duration":140},{"tileid":367,"duration":140},{"tileid":368,"duration":140},{"tileid":369,"duration":140},{"tileid":370,"duration":140},{"tileid":371,"duration":140},{"tileid":372,"duration":140},{"tileid":373,"duration":140},{"tileid":374,"duration":140},{"tileid":375,"duration":140},{"tileid":376,"duration":140},{"tileid":0,"duration":140}]},{"id":381,"animation":[{"tileid":0,"duration":140},{"tileid":0,"duration":140},{"tileid":0,"duration":140},{"tileid":0,"duration":140},{"tileid":0,"duration":140},{"tileid":0,"duration":140},{"tileid":0,"duration":140},{"tileid":0,"duration":140},{"tileid":0,"duration":140},{"tileid":0,"duration":140},{"tileid":378,"duration":140},{"tileid":379,"duration":140},{"tileid":380,"duration":140},{"tileid":0,"duration":140},{"tileid":0,"duration":140},{"tileid":0,"duration":140}]},{"id":396,"animation":[{"tileid":382,"duration":140},{"tileid":0,"duration":140},{"tileid":0,"duration":140},{"tileid":383,"duration":140},{"tileid":384,"duration":140},{"tileid":385,"duration":140},{"tileid":386,"duration":140},{"tileid":387,"duration":140},{"tileid":388,"duration":140},{"tileid":389,"duration":140},{"tileid":390,"duration":140},{"tileid":391,"duration":140},{"tileid":392,"duration":140},{"tileid":393,"duration":140},{"tileid":394,"duration":140},{"tileid":395,"duration":140}]},{"id":413,"animation":[{"tileid":397,"duration":140},{"tileid":398,"duration":140},{"tileid":399,"duration":140},{"tileid":400,"duration":140},{"tileid":401,"duration":140},{"tileid":402,"duration":140},{"tileid":403,"duration":140},{"tileid":404,"duration":140},{"tileid":405,"duration":140},{"tileid":406,"duration":140},{"tileid":407,"duration":140},{"tileid":408,"duration":140},{"tileid":409,"duration":140},{"tileid":410,"duration":140},{"tileid":411,"duration":140},{"tileid":412,"duration":140}]},{"id":428,"animation":[{"tileid":0,"duration":140},{"tileid":414,"duration":140},{"tileid":415,"duration":140},{"tileid":416,"duration":140},{"tileid":417,"duration":140},{"tileid":418,"duration":140},{"tileid":419,"duration":140},{"tileid":420,"duration":140},{"tileid":421,"duration":140},{"tileid":422,"duration":140},{"tileid":423,"duration":140},{"tileid":424,"duration":140},{"tileid":425,"duration":140},{"tileid":426,"duration":140},{"tileid":427,"duration":140},{"tileid":0,"duration":140}]},{"id":439,"animation":[{"tileid":0,"duration":140},{"tileid":429,"duration":140},{"tileid":430,"duration":140},{"tileid":431,"duration":140},{"tileid":432,"duration":140},{"tileid":433,"duration":140},{"tileid":434,"duration":140},{"tileid":435,"duration":140},{"tileid":436,"duration":140},{"tileid":437,"duration":140},{"tileid":438,"duration":140},{"tileid":0,"duration":140},{"tileid":0,"duration":140},{"tileid":0,"duration":140},{"tileid":0,"duration":140},{"tileid":0,"duration":140}]},{"id":452,"animation":[{"tileid":440,"duration":140},{"tileid":441,"duration":140},{"tileid":442,"duration":140},{"tileid":443,"duration":140},{"tileid":444,"duration":140},{"tileid":445,"duration":140},{"tileid":446,"duration":140},{"tileid":447,"duration":140},{"tileid":0,"duration":140},{"tileid":0,"duration":140},{"tileid":0,"duration":140},{"tileid":0,"duration":140},{"tileid":448,"duration":140},{"tileid":449,"duration":140},{"tileid":450,"duration":140},{"tileid":451,"duration":140}]},{"id":469,"animation":[{"tileid":453,"duration":140},{"tileid":454,"duration":140},{"tileid":455,"duration":140},{"tileid":456,"duration":140},{"tileid":457,"duration":140},{"tileid":458,"duration":140},{"tileid":459,"duration":140},{"tileid":460,"duration":140},{"tileid":461,"duration":140},{"tileid":462,"duration":140},{"tileid":463,"duration":140},{"tileid":464,"duration":140},{"tileid":465,"duration":140},{"tileid":466,"duration":140},{"tileid":467,"duration":140},{"tileid":468,"duration":140}]},{"id":482,"animation":[{"tileid":470,"duration":140},{"tileid":0,"duration":140},{"tileid":0,"duration":140},{"tileid":0,"duration":140},{"tileid":0,"duration":140},{"tileid":471,"duration":140},{"tileid":472,"duration":140},{"tileid":473,"duration":140},{"tileid":474,"duration":140},{"tileid":475,"duration":140},{"tileid":476,"duration":140},{"tileid":477,"duration":140},{"tileid":478,"duration":140},{"tileid":479,"duration":140},{"tileid":480,"duration":140},{"tileid":481,"duration":140}]},{"id":495,"animation":[{"tileid":483,"duration":140},{"tileid":0,"duration":140},{"tileid":0,"duration":140},{"tileid":0,"duration":140},{"tileid":0,"duration":140},{"tileid":484,"duration":140},{"tileid":485,"duration":140},{"tileid":486,"duration":140},{"tileid":487,"duration":140},{"tileid":488,"duration":140},{"tileid":489,"duration":140},{"tileid":490,"duration":140},{"tileid":491,"duration":140},{"tileid":492,"duration":140},{"tileid":493,"duration":140},{"tileid":494,"duration":140}]},{"id":504,"animation":[{"tileid":496,"duration":140},{"tileid":0,"duration":140},{"tileid":0,"duration":140},{"tileid":0,"duration":140},{"tileid":0,"duration":140},{"tileid":0,"duration":140},{"tileid":0,"duration":140},{"tileid":0,"duration":140},{"tileid":0,"duration":140},{"tileid":497,"duration":140},{"tileid":498,"duration":140},{"tileid":499,"duration":140},{"tileid":500,"duration":140},{"tileid":501,"duration":140},{"tileid":502,"duration":140},{"tileid":503,"duration":140}]},{"id":517,"animation":[{"tileid":505,"duration":140},{"tileid":506,"duration":140},{"tileid":507,"duration":140},{"tileid":508,"duration":140},{"tileid":509,"duration":140},{"tileid":0,"duration":140},{"tileid":0,"duration":140},{"tileid":0,"duration":140},{"tileid":0,"duration":140},{"tileid":510,"duration":140},{"tileid":511,"duration":140},{"tileid":512,"duration":140},{"tileid":513,"duration":140},{"tileid":514,"duration":140},{"tileid":515,"duration":140},{"tileid":516,"duration":140}]},{"id":524,"animation":[{"tileid":518,"duration":140},{"tileid":0,"duration":140},{"tileid":0,"duration":140},{"tileid":0,"duration":140},{"tileid":0,"duration":140},{"tileid":0,"duration":140},{"tileid":0,"duration":140},{"tileid":0,"duration":140},{"tileid":0,"duration":140},{"tileid":0,"duration":140},{"tileid":0,"duration":140},{"tileid":519,"duration":140},{"tileid":520,"duration":140},{"tileid":521,"duration":140},{"tileid":522,"duration":140},{"tileid":523,"duration":140}]},{"id":541,"animation":[{"tileid":525,"duration":140},{"tileid":526,"duration":140},{"tileid":527,"duration":140},{"tileid":528,"duration":140},{"tileid":529,"duration":140},{"tileid":530,"duration":140},{"tileid":531,"duration":140},{"tileid":532,"duration":140},{"tileid":533,"duration":140},{"tileid":534,"duration":140},{"tileid":535,"duration":140},{"tileid":536,"duration":140},{"tileid":537,"duration":140},{"tileid":538,"duration":140},{"tileid":539,"duration":140},{"tileid":540,"duration":140}]},{"id":554,"animation":[{"tileid":542,"duration":140},{"tileid":543,"duration":140},{"tileid":544,"duration":140},{"tileid":545,"duration":140},{"tileid":546,"duration":140},{"tileid":547,"duration":140},{"tileid":548,"duration":140},{"tileid":549,"duration":140},{"tileid":550,"duration":140},{"tileid":0,"duration":140},{"tileid":0,"duration":140},{"tileid":0,"duration":140},{"tileid":0,"duration":140},{"tileid":551,"duration":140},{"tileid":552,"duration":140},{"tileid":553,"duration":140}]},{"id":570,"animation":[{"tileid":555,"duration":140},{"tileid":556,"duration":140},{"tileid":0,"duration":140},{"tileid":557,"duration":140},{"tileid":558,"duration":140},{"tileid":559,"duration":140},{"tileid":560,"duration":140},{"tileid":561,"duration":140},{"tileid":562,"duration":140},{"tileid":563,"duration":140},{"tileid":564,"duration":140},{"tileid":565,"duration":140},{"tileid":566,"duration":140},{"tileid":567,"duration":140},{"tileid":568,"duration":140},{"tileid":569,"duration":140}]},{"id":586,"animation":[{"tileid":571,"duration":140},{"tileid":572,"duration":140},{"tileid":0,"duration":140},{"tileid":573,"duration":140},{"tileid":574,"duration":140},{"tileid":575,"duration":140},{"tileid":576,"duration":140},{"tileid":577,"duration":140},{"tileid":578,"duration":140},{"tileid":579,"duration":140},{"tileid":580,"duration":140},{"tileid":581,"duration":140},{"tileid":582,"duration":140},{"tileid":583,"duration":140},{"tileid":584,"duration":140},{"tileid":585,"duration":140}]},{"id":594,"animation":[{"tileid":587,"duration":140},{"tileid":588,"duration":140},{"tileid":589,"duration":140},{"tileid":590,"duration":140},{"tileid":591,"duration":140},{"tileid":592,"duration":140},{"tileid":593,"duration":140},{"tileid":0,"duration":140},{"tileid":0,"duration":140},{"tileid":0,"duration":140},{"tileid":0,"duration":140},{"tileid":0,"duration":140},{"tileid":0,"duration":140},{"tileid":0,"duration":140},{"tileid":0,"duration":140},{"tileid":0,"duration":140}]},{"id":608,"animation":[{"tileid":595,"duration":140},{"tileid":596,"duration":140},{"tileid":597,"duration":140},{"tileid":598,"duration":140},{"tileid":599,"duration":140},{"tileid":600,"duration":140},{"tileid":601,"duration":140},{"tileid":602,"duration":140},{"tileid":603,"duration":140},{"tileid":604,"duration":140},{"tileid":605,"duration":140},{"tileid":606,"duration":140},{"tileid":0,"duration":140},{"tileid":0,"duration":140},{"tileid":0,"duration":140},{"tileid":607,"duration":140}]},{"id":625,"animation":[{"tileid":609,"duration":140},{"tileid":610,"duration":140},{"tileid":611,"duration":140},{"tileid":612,"duration":140},{"tileid":613,"duration":140},{"tileid":614,"duration":140},{"tileid":615,"duration":140},{"tileid":616,"duration":140},{"tileid":617,"duration":140},{"tileid":618,"duration":140},{"tileid":619,"duration":140},{"tileid":620,"duration":140},{"tileid":621,"duration":140},{"tileid":622,"duration":140},{"tileid":623,"duration":140},{"tileid":624,"duration":140}]},{"id":636,"animation":[{"tileid":626,"duration":140},{"tileid":627,"duration":140},{"tileid":0,"duration":140},{"tileid":0,"duration":140},{"tileid":0,"duration":140},{"tileid":0,"duration":140},{"tileid":628,"duration":140},{"tileid":629,"duration":140},{"tileid":630,"duration":140},{"tileid":631,"duration":140},{"tileid":632,"duration":140},{"tileid":633,"duration":140},{"tileid":634,"duration":140},{"tileid":0,"duration":140},{"tileid":0,"duration":140},{"tileid":635,"duration":140}]},{"id":652,"animation":[{"tileid":0,"duration":140},{"tileid":637,"duration":140},{"tileid":638,"duration":140},{"tileid":639,"duration":140},{"tileid":640,"duration":140},{"tileid":641,"duration":140},{"tileid":642,"duration":140},{"tileid":643,"duration":140},{"tileid":644,"duration":140},{"tileid":645,"duration":140},{"tileid":646,"duration":140},{"tileid":647,"duration":140},{"tileid":648,"duration":140},{"tileid":649,"duration":140},{"tileid":650,"duration":140},{"tileid":651,"duration":140}]},{"id":669,"animation":[{"tileid":653,"duration":140},{"tileid":654,"duration":140},{"tileid":655,"duration":140},{"tileid":656,"duration":140},{"tileid":657,"duration":140},{"tileid":658,"duration":140},{"tileid":659,"duration":140},{"tileid":660,"duration":140},{"tileid":661,"duration":140},{"tileid":662,"duration":140},{"tileid":663,"duration":140},{"tileid":664,"duration":140},{"tileid":665,"duration":140},{"tileid":666,"duration":140},{"tileid":667,"duration":140},{"tileid":668,"duration":140}]},{"id":686,"animation":[{"tileid":670,"duration":140},{"tileid":671,"duration":140},{"tileid":672,"duration":140},{"tileid":673,"duration":140},{"tileid":674,"duration":140},{"tileid":675,"duration":140},{"tileid":676,"duration":140},{"tileid":677,"duration":140},{"tileid":678,"duration":140},{"tileid":679,"duration":140},{"tileid":680,"duration":140},{"tileid":681,"duration":140},{"tileid":682,"duration":140},{"tileid":683,"duration":140},{"tileid":684,"duration":140},{"tileid":685,"duration":140}]},{"id":697,"animation":[{"tileid":687,"duration":140},{"tileid":688,"duration":140},{"tileid":689,"duration":140},{"tileid":690,"duration":140},{"tileid":0,"duration":140},{"tileid":0,"duration":140},{"tileid":0,"duration":140},{"tileid":0,"duration":140},{"tileid":0,"duration":140},{"tileid":0,"duration":140},{"tileid":691,"duration":140},{"tileid":692,"duration":140},{"tileid":693,"duration":140},{"tileid":694,"duration":140},{"tileid":695,"duration":140},{"tileid":696,"duration":140}]},{"id":714,"animation":[{"tileid":698,"duration":140},{"tileid":699,"duration":140},{"tileid":700,"duration":140},{"tileid":701,"duration":140},{"tileid":702,"duration":140},{"tileid":703,"duration":140},{"tileid":704,"duration":140},{"tileid":705,"duration":140},{"tileid":706,"duration":140},{"tileid":707,"duration":140},{"tileid":708,"duration":140},{"tileid":709,"duration":140},{"tileid":710,"duration":140},{"tileid":711,"duration":140},{"tileid":712,"duration":140},{"tileid":713,"duration":140}]},{"id":729,"animation":[{"tileid":715,"duration":140},{"tileid":716,"duration":140},{"tileid":717,"duration":140},{"tileid":718,"duration":140},{"tileid":719,"duration":140},{"tileid":720,"duration":140},{"tileid":721,"duration":140},{"tileid":722,"duration":140},{"tileid":723,"duration":140},{"tileid":724,"duration":140},{"tileid":725,"duration":140},{"tileid":726,"duration":140},{"tileid":0,"duration":140},{"tileid":0,"duration":140},{"tileid":727,"duration":140},{"tileid":728,"duration":140}]},{"id":742,"animation":[{"tileid":730,"duration":140},{"tileid":731,"duration":140},{"tileid":732,"duration":140},{"tileid":733,"duration":140},{"tileid":734,"duration":140},{"tileid":735,"duration":140},{"tileid":736,"duration":140},{"tileid":737,"duration":140},{"tileid":738,"duration":140},{"tileid":739,"duration":140},{"tileid":0,"duration":140},{"tileid":0,"duration":140},{"tileid":0,"duration":140},{"tileid":0,"duration":140},{"tileid":740,"duration":140},{"tileid":741,"duration":140}]},{"id":747,"animation":[{"tileid":0,"duration":140},{"tileid":0,"duration":140},{"tileid":0,"duration":140},{"tileid":0,"duration":140},{"tileid":0,"duration":140},{"tileid":0,"duration":140},{"tileid":0,"duration":140},{"tileid":0,"duration":140},{"tileid":743,"duration":140},{"tileid":744,"duration":140},{"tileid":745,"duration":140},{"tileid":746,"duration":140},{"tileid":0,"duration":140},{"tileid":0,"duration":140},{"tileid":0,"duration":140},{"tileid":0,"duration":140}]},{"id":760,"animation":[{"tileid":0,"duration":140},{"tileid":0,"duration":140},{"tileid":748,"duration":140},{"tileid":749,"duration":140},{"tileid":750,"duration":140},{"tileid":751,"duration":140},{"tileid":752,"duration":140},{"tileid":753,"duration":140},{"tileid":754,"duration":140},{"tileid":755,"duration":140},{"tileid":756,"duration":140},{"tileid":757,"duration":140},{"tileid":758,"duration":140},{"tileid":759,"duration":140},{"tileid":0,"duration":140},{"tileid":0,"duration":140}]},{"id":769,"animation":[{"tileid":0,"duration":140},{"tileid":0,"duration":140},{"tileid":0,"duration":140},{"tileid":0,"duration":140},{"tileid":0,"duration":140},{"tileid":0,"duration":140},{"tileid":761,"duration":140},{"tileid":762,"duration":140},{"tileid":763,"duration":140},{"tileid":764,"duration":140},{"tileid":765,"duration":140},{"tileid":766,"duration":140},{"tileid":767,"duration":140},{"tileid":768,"duration":140},{"tileid":0,"duration":140},{"tileid":0,"duration":140}]},{"id":786,"animation":[{"tileid":770,"duration":140},{"tileid":771,"duration":140},{"tileid":772,"duration":140},{"tileid":773,"duration":140},{"tileid":774,"duration":140},{"tileid":775,"duration":140},{"tileid":776,"duration":140},{"tileid":777,"duration":140},{"tileid":778,"duration":140},{"tileid":779,"duration":140},{"tileid":780,"duration":140},{"tileid":781,"duration":140},{"tileid":782,"duration":140},{"tileid":783,"duration":140},{"tileid":784,"duration":140},{"tileid":785,"duration":140}]},{"id":799,"animation":[{"tileid":787,"duration":140},{"tileid":0,"duration":140},{"tileid":0,"duration":140},{"tileid":0,"duration":140},{"tileid":0,"duration":140},{"tileid":788,"duration":140},{"tileid":789,"duration":140},{"tileid":790,"duration":140},{"tileid":791,"duration":140},{"tileid":792,"duration":140},{"tileid":793,"duration":140},{"tileid":794,"duration":140},{"tileid":795,"duration":140},{"tileid":796,"duration":140},{"tileid":797,"duration":140},{"tileid":798,"duration":140}]},{"id":816,"animation":[{"tileid":800,"duration":140},{"tileid":801,"duration":140},{"tileid":802,"duration":140},{"tileid":803,"duration":140},{"tileid":804,"duration":140},{"tileid":805,"duration":140},{"tileid":806,"duration":140},{"tileid":807,"duration":140},{"tileid":808,"duration":140},{"tileid":809,"duration":140},{"tileid":810,"duration":140},{"tileid":811,"duration":140},{"tileid":812,"duration":140},{"tileid":813,"duration":140},{"tileid":814,"duration":140},{"tileid":815,"duration":140}]},{"id":832,"animation":[{"tileid":817,"duration":140},{"tileid":818,"duration":140},{"tileid":819,"duration":140},{"tileid":820,"duration":140},{"tileid":821,"duration":140},{"tileid":822,"duration":140},{"tileid":823,"duration":140},{"tileid":824,"duration":140},{"tileid":825,"duration":140},{"tileid":826,"duration":140},{"tileid":827,"duration":140},{"tileid":0,"duration":140},{"tileid":828,"duration":140},{"tileid":829,"duration":140},{"tileid":830,"duration":140},{"tileid":831,"duration":140}]},{"id":849,"animation":[{"tileid":833,"duration":140},{"tileid":834,"duration":140},{"tileid":835,"duration":140},{"tileid":836,"duration":140},{"tileid":837,"duration":140},{"tileid":838,"duration":140},{"tileid":839,"duration":140},{"tileid":840,"duration":140},{"tileid":841,"duration":140},{"tileid":842,"duration":140},{"tileid":843,"duration":140},{"tileid":844,"duration":140},{"tileid":845,"duration":140},{"tileid":846,"duration":140},{"tileid":847,"duration":140},{"tileid":848,"duration":140}]},{"id":866,"animation":[{"tileid":850,"duration":140},{"tileid":851,"duration":140},{"tileid":852,"duration":140},{"tileid":853,"duration":140},{"tileid":854,"duration":140},{"tileid":855,"duration":140},{"tileid":856,"duration":140},{"tileid":857,"duration":140},{"tileid":858,"duration":140},{"tileid":859,"duration":140},{"tileid":860,"duration":140},{"tileid":861,"duration":140},{"tileid":862,"duration":140},{"tileid":863,"duration":140},{"tileid":864,"duration":140},{"tileid":865,"duration":140}]},{"id":879,"animation":[{"tileid":867,"duration":140},{"tileid":868,"duration":140},{"tileid":869,"duration":140},{"tileid":870,"duration":140},{"tileid":871,"duration":140},{"tileid":0,"duration":140},{"tileid":0,"duration":140},{"tileid":0,"duration":140},{"tileid":0,"duration":140},{"tileid":872,"duration":140},{"tileid":873,"duration":140},{"tileid":874,"duration":140},{"tileid":875,"duration":140},{"tileid":876,"duration":140},{"tileid":877,"duration":140},{"tileid":878,"duration":140}]},{"id":881,"animation":[{"tileid":0,"duration":140},{"tileid":0,"duration":140},{"tileid":0,"duration":140},{"tileid":0,"duration":140},{"tileid":0,"duration":140},{"tileid":0,"duration":140},{"tileid":0,"duration":140},{"tileid":0,"duration":140},{"tileid":0,"duration":140},{"tileid":0,"duration":140},{"tileid":880,"duration":140},{"tileid":0,"duration":140},{"tileid":0,"duration":140},{"tileid":0,"duration":140},{"tileid":0,"duration":140},{"tileid":0,"duration":140}]},{"id":897,"animation":[{"tileid":882,"duration":140},{"tileid":883,"duration":140},{"tileid":884,"duration":140},{"tileid":885,"duration":140},{"tileid":0,"duration":140},{"tileid":886,"duration":140},{"tileid":887,"duration":140},{"tileid":888,"duration":140},{"tileid":889,"duration":140},{"tileid":890,"duration":140},{"tileid":891,"duration":140},{"tileid":892,"duration":140},{"tileid":893,"duration":140},{"tileid":894,"duration":140},{"tileid":895,"duration":140},{"tileid":896,"duration":140}]},{"id":914,"animation":[{"tileid":898,"duration":140},{"tileid":899,"duration":140},{"tileid":900,"duration":140},{"tileid":901,"duration":140},{"tileid":902,"duration":140},{"tileid":903,"duration":140},{"tileid":904,"duration":140},{"tileid":905,"duration":140},{"tileid":906,"duration":140},{"tileid":907,"duration":140},{"tileid":908,"duration":140},{"tileid":909,"duration":140},{"tileid":910,"duration":140},{"tileid":911,"duration":140},{"tileid":912,"duration":140},{"tileid":913,"duration":140}]},{"id":928,"animation":[{"tileid":915,"duration":140},{"tileid":916,"duration":140},{"tileid":917,"duration":140},{"tileid":918,"duration":140},{"tileid":919,"duration":140},{"tileid":920,"duration":140},{"tileid":921,"duration":140},{"tileid":922,"duration":140},{"tileid":923,"duration":140},{"tileid":0,"duration":140},{"tileid":0,"duration":140},{"tileid":0,"duration":140},{"tileid":924,"duration":140},{"tileid":925,"duration":140},{"tileid":926,"duration":140},{"tileid":927,"duration":140}]},{"id":933,"animation":[{"tileid":929,"duration":140},{"tileid":0,"duration":140},{"tileid":0,"duration":140},{"tileid":0,"duration":140},{"tileid":0,"duration":140},{"tileid":0,"duration":140},{"tileid":0,"duration":140},{"tileid":0,"duration":140},{"tileid":0,"duration":140},{"tileid":0,"duration":140},{"tileid":0,"duration":140},{"tileid":0,"duration":140},{"tileid":0,"duration":140},{"tileid":930,"duration":140},{"tileid":931,"duration":140},{"tileid":932,"duration":140}]},{"id":940,"animation":[{"tileid":0,"duration":140},{"tileid":934,"duration":140},{"tileid":935,"duration":140},{"tileid":936,"duration":140},{"tileid":937,"duration":140},{"tileid":938,"duration":140},{"tileid":939,"duration":140},{"tileid":0,"duration":140},{"tileid":0,"duration":140},{"tileid":0,"duration":140},{"tileid":0,"duration":140},{"tileid":0,"duration":140},{"tileid":0,"duration":140},{"tileid":0,"duration":140},{"tileid":0,"duration":140},{"tileid":0,"duration":140}]},{"id":956,"animation":[{"tileid":941,"duration":140},{"tileid":942,"duration":140},{"tileid":943,"duration":140},{"tileid":944,"duration":140},{"tileid":945,"duration":140},{"tileid":946,"duration":140},{"tileid":0,"duration":140},{"tileid":947,"duration":140},{"tileid":948,"duration":140},{"tileid":949,"duration":140},{"tileid":950,"duration":140},{"tileid":951,"duration":140},{"tileid":952,"duration":140},{"tileid":953,"duration":140},{"tileid":954,"duration":140},{"tileid":955,"duration":140}]},{"id":973,"animation":[{"tileid":957,"duration":140},{"tileid":958,"duration":140},{"tileid":959,"duration":140},{"tileid":960,"duration":140},{"tileid":961,"duration":140},{"tileid":962,"duration":140},{"tileid":963,"duration":140},{"tileid":964,"duration":140},{"tileid":965,"duration":140},{"tileid":966,"duration":140},{"tileid":967,"duration":140},{"tileid":968,"duration":140},{"tileid":969,"duration":140},{"tileid":970,"duration":140},{"tileid":971,"duration":140},{"tileid":972,"duration":140}]},{"id":988,"animation":[{"tileid":974,"duration":140},{"tileid":975,"duration":140},{"tileid":976,"duration":140},{"tileid":977,"duration":140},{"tileid":978,"duration":140},{"tileid":979,"duration":140},{"tileid":980,"duration":140},{"tileid":981,"duration":140},{"tileid":982,"duration":140},{"tileid":983,"duration":140},{"tileid":984,"duration":140},{"tileid":985,"duration":140},{"tileid":986,"duration":140},{"tileid":0,"duration":140},{"tileid":0,"duration":140},{"tileid":987,"duration":140}]},{"id":1002,"animation":[{"tileid":989,"duration":140},{"tileid":0,"duration":140},{"tileid":0,"duration":140},{"tileid":0,"duration":140},{"tileid":990,"duration":140},{"tileid":991,"duration":140},{"tileid":992,"duration":140},{"tileid":993,"duration":140},{"tileid":994,"duration":140},{"tileid":995,"duration":140},{"tileid":996,"duration":140},{"tileid":997,"duration":140},{"tileid":998,"duration":140},{"tileid":999,"duration":140},{"tileid":1000,"duration":140},{"tileid":1001,"duration":140}]},{"id":1019,"animation":[{"tileid":1003,"duration":140},{"tileid":1004,"duration":140},{"tileid":1005,"duration":140},{"tileid":1006,"duration":140},{"tileid":1007,"duration":140},{"tileid":1008,"duration":140},{"tileid":1009,"duration":140},{"tileid":1010,"duration":140},{"tileid":1011,"duration":140},{"tileid":1012,"duration":140},{"tileid":1013,"duration":140},{"tileid":1014,"duration":140},{"tileid":1015,"duration":140},{"tileid":1016,"duration":140},{"tileid":1017,"duration":140},{"tileid":1018,"duration":140}]}]},{"firstgid":11866,"name":"river-water-p1","image":"river-water-p1.png","imagewidth":1024,"imageheight":544,"tilewidth":32,"tileheight":32,"margin":0,"spacing":0,"columns":32,"tilecount":537,"tiles":[{"id":15,"animation":[{"tileid":0,"duration":140},{"tileid":1,"duration":140},{"tileid":2,"duration":140},{"tileid":3,"duration":140},{"tileid":4,"duration":140},{"tileid":5,"duration":140},{"tileid":6,"duration":140},{"tileid":7,"duration":140},{"tileid":8,"duration":140},{"tileid":9,"duration":140},{"tileid":9,"duration":140},{"tileid":10,"duration":140},{"tileid":11,"duration":140},{"tileid":12,"duration":140},{"tileid":13,"duration":140},{"tileid":14,"duration":140}]},{"id":31,"animation":[{"tileid":16,"duration":140},{"tileid":17,"duration":140},{"tileid":18,"duration":140},{"tileid":19,"duration":140},{"tileid":9,"duration":140},{"tileid":20,"duration":140},{"tileid":21,"duration":140},{"tileid":22,"duration":140},{"tileid":23,"duration":140},{"tileid":24,"duration":140},{"tileid":25,"duration":140},{"tileid":26,"duration":140},{"tileid":27,"duration":140},{"tileid":28,"duration":140},{"tileid":29,"duration":140},{"tileid":30,"duration":140}]},{"id":45,"animation":[{"tileid":32,"duration":140},{"tileid":33,"duration":140},{"tileid":34,"duration":140},{"tileid":35,"duration":140},{"tileid":36,"duration":140},{"tileid":37,"duration":140},{"tileid":38,"duration":140},{"tileid":39,"duration":140},{"tileid":40,"duration":140},{"tileid":41,"duration":140},{"tileid":42,"duration":140},{"tileid":9,"duration":140},{"tileid":9,"duration":140},{"tileid":9,"duration":140},{"tileid":43,"duration":140},{"tileid":44,"duration":140}]},{"id":59,"animation":[{"tileid":46,"duration":140},{"tileid":47,"duration":140},{"tileid":48,"duration":140},{"tileid":49,"duration":140},{"tileid":50,"duration":140},{"tileid":51,"duration":140},{"tileid":52,"duration":140},{"tileid":53,"duration":140},{"tileid":54,"duration":140},{"tileid":55,"duration":140},{"tileid":56,"duration":140},{"tileid":9,"duration":140},{"tileid":9,"duration":140},{"tileid":9,"duration":140},{"tileid":57,"duration":140},{"tileid":58,"duration":140}]},{"id":69,"animation":[{"tileid":9,"duration":140},{"tileid":9,"duration":140},{"tileid":60,"duration":140},{"tileid":61,"duration":140},{"tileid":62,"duration":140},{"tileid":63,"duration":140},{"tileid":64,"duration":140},{"tileid":65,"duration":140},{"tileid":66,"duration":140},{"tileid":67,"duration":140},{"tileid":68,"duration":140},{"tileid":9,"duration":140},{"tileid":9,"duration":140},{"tileid":9,"duration":140},{"tileid":9,"duration":140},{"tileid":9,"duration":140}]},{"id":86,"animation":[{"tileid":70,"duration":140},{"tileid":71,"duration":140},{"tileid":72,"duration":140},{"tileid":73,"duration":140},{"tileid":74,"duration":140},{"tileid":75,"duration":140},{"tileid":76,"duration":140},{"tileid":77,"duration":140},{"tileid":78,"duration":140},{"tileid":79,"duration":140},{"tileid":80,"duration":140},{"tileid":81,"duration":140},{"tileid":82,"duration":140},{"tileid":83,"duration":140},{"tileid":84,"duration":140},{"tileid":85,"duration":140}]},{"id":103,"animation":[{"tileid":87,"duration":140},{"tileid":88,"duration":140},{"tileid":89,"duration":140},{"tileid":90,"duration":140},{"tileid":91,"duration":140},{"tileid":92,"duration":140},{"tileid":93,"duration":140},{"tileid":94,"duration":140},{"tileid":95,"duration":140},{"tileid":96,"duration":140},{"tileid":97,"duration":140},{"tileid":98,"duration":140},{"tileid":99,"duration":140},{"tileid":100,"duration":140},{"tileid":101,"duration":140},{"tileid":102,"duration":140}]},{"id":113,"animation":[{"tileid":9,"duration":140},{"tileid":9,"duration":140},{"tileid":9,"duration":140},{"tileid":9,"duration":140},{"tileid":9,"duration":140},{"tileid":104,"duration":140},{"tileid":105,"duration":140},{"tileid":106,"duration":140},{"tileid":107,"duration":140},{"tileid":108,"duration":140},{"tileid":109,"duration":140},{"tileid":110,"duration":140},{"tileid":111,"duration":140},{"tileid":112,"duration":140},{"tileid":9,"duration":140},{"tileid":9,"duration":140}]},{"id":123,"animation":[{"tileid":9,"duration":140},{"tileid":9,"duration":140},{"tileid":9,"duration":140},{"tileid":9,"duration":140},{"tileid":9,"duration":140},{"tileid":9,"duration":140},{"tileid":9,"duration":140},{"tileid":114,"duration":140},{"tileid":115,"duration":140},{"tileid":116,"duration":140},{"tileid":117,"duration":140},{"tileid":118,"duration":140},{"tileid":119,"duration":140},{"tileid":120,"duration":140},{"tileid":121,"duration":140},{"tileid":122,"duration":140}]},{"id":136,"animation":[{"tileid":124,"duration":140},{"tileid":125,"duration":140},{"tileid":9,"duration":140},{"tileid":9,"duration":140},{"tileid":9,"duration":140},{"tileid":9,"duration":140},{"tileid":126,"duration":140},{"tileid":127,"duration":140},{"tileid":128,"duration":140},{"tileid":129,"duration":140},{"tileid":130,"duration":140},{"tileid":131,"duration":140},{"tileid":132,"duration":140},{"tileid":133,"duration":140},{"tileid":134,"duration":140},{"tileid":135,"duration":140}]},{"id":153,"animation":[{"tileid":137,"duration":140},{"tileid":138,"duration":140},{"tileid":139,"duration":140},{"tileid":140,"duration":140},{"tileid":141,"duration":140},{"tileid":142,"duration":140},{"tileid":143,"duration":140},{"tileid":144,"duration":140},{"tileid":145,"duration":140},{"tileid":146,"duration":140},{"tileid":147,"duration":140},{"tileid":148,"duration":140},{"tileid":149,"duration":140},{"tileid":150,"duration":140},{"tileid":151,"duration":140},{"tileid":152,"duration":140}]},{"id":170,"animation":[{"tileid":154,"duration":140},{"tileid":155,"duration":140},{"tileid":156,"duration":140},{"tileid":157,"duration":140},{"tileid":158,"duration":140},{"tileid":159,"duration":140},{"tileid":160,"duration":140},{"tileid":161,"duration":140},{"tileid":162,"duration":140},{"tileid":163,"duration":140},{"tileid":164,"duration":140},{"tileid":165,"duration":140},{"tileid":166,"duration":140},{"tileid":167,"duration":140},{"tileid":168,"duration":140},{"tileid":169,"duration":140}]},{"id":187,"animation":[{"tileid":171,"duration":140},{"tileid":172,"duration":140},{"tileid":173,"duration":140},{"tileid":174,"duration":140},{"tileid":175,"duration":140},{"tileid":176,"duration":140},{"tileid":177,"duration":140},{"tileid":178,"duration":140},{"tileid":179,"duration":140},{"tileid":180,"duration":140},{"tileid":181,"duration":140},{"tileid":182,"duration":140},{"tileid":183,"duration":140},{"tileid":184,"duration":140},{"tileid":185,"duration":140},{"tileid":186,"duration":140}]},{"id":201,"animation":[{"tileid":188,"duration":140},{"tileid":189,"duration":140},{"tileid":190,"duration":140},{"tileid":191,"duration":140},{"tileid":192,"duration":140},{"tileid":193,"duration":140},{"tileid":9,"duration":140},{"tileid":9,"duration":140},{"tileid":9,"duration":140},{"tileid":194,"duration":140},{"tileid":195,"duration":140},{"tileid":196,"duration":140},{"tileid":197,"duration":140},{"tileid":198,"duration":140},{"tileid":199,"duration":140},{"tileid":200,"duration":140}]},{"id":210,"animation":[{"tileid":202,"duration":140},{"tileid":203,"duration":140},{"tileid":9,"duration":140},{"tileid":9,"duration":140},{"tileid":9,"duration":140},{"tileid":9,"duration":140},{"tileid":9,"duration":140},{"tileid":9,"duration":140},{"tileid":9,"duration":140},{"tileid":9,"duration":140},{"tileid":204,"duration":140},{"tileid":205,"duration":140},{"tileid":206,"duration":140},{"tileid":207,"duration":140},{"tileid":208,"duration":140},{"tileid":209,"duration":140}]},{"id":215,"animation":[{"tileid":9,"duration":140},{"tileid":9,"duration":140},{"tileid":9,"duration":140},{"tileid":9,"duration":140},{"tileid":9,"duration":140},{"tileid":9,"duration":140},{"tileid":9,"duration":140},{"tileid":9,"duration":140},{"tileid":9,"duration":140},{"tileid":9,"duration":140},{"tileid":9,"duration":140},{"tileid":9,"duration":140},{"tileid":211,"duration":140},{"tileid":212,"duration":140},{"tileid":213,"duration":140},{"tileid":214,"duration":140}]},{"id":223,"animation":[{"tileid":9,"duration":140},{"tileid":9,"duration":140},{"tileid":9,"duration":140},{"tileid":9,"duration":140},{"tileid":216,"duration":140},{"tileid":217,"duration":140},{"tileid":218,"duration":140},{"tileid":9,"duration":140},{"tileid":9,"duration":140},{"tileid":9,"duration":140},{"tileid":9,"duration":140},{"tileid":9,"duration":140},{"tileid":219,"duration":140},{"tileid":220,"duration":140},{"tileid":221,"duration":140},{"tileid":222,"duration":140}]},{"id":239,"animation":[{"tileid":224,"duration":140},{"tileid":225,"duration":140},{"tileid":226,"duration":140},{"tileid":9,"duration":140},{"tileid":227,"duration":140},{"tileid":228,"duration":140},{"tileid":229,"duration":140},{"tileid":230,"duration":140},{"tileid":231,"duration":140},{"tileid":232,"duration":140},{"tileid":233,"duration":140},{"tileid":234,"duration":140},{"tileid":235,"duration":140},{"tileid":236,"duration":140},{"tileid":237,"duration":140},{"tileid":238,"duration":140}]},{"id":254,"animation":[{"tileid":240,"duration":140},{"tileid":241,"duration":140},{"tileid":242,"duration":140},{"tileid":243,"duration":140},{"tileid":244,"duration":140},{"tileid":245,"duration":140},{"tileid":246,"duration":140},{"tileid":247,"duration":140},{"tileid":248,"duration":140},{"tileid":249,"duration":140},{"tileid":9,"duration":140},{"tileid":9,"duration":140},{"tileid":250,"duration":140},{"tileid":251,"duration":140},{"tileid":252,"duration":140},{"tileid":253,"duration":140}]},{"id":263,"animation":[{"tileid":255,"duration":140},{"tileid":256,"duration":140},{"tileid":257,"duration":140},{"tileid":258,"duration":140},{"tileid":259,"duration":140},{"tileid":260,"duration":140},{"tileid":9,"duration":140},{"tileid":9,"duration":140},{"tileid":9,"duration":140},{"tileid":9,"duration":140},{"tileid":9,"duration":140},{"tileid":9,"duration":140},{"tileid":9,"duration":140},{"tileid":9,"duration":140},{"tileid":261,"duration":140},{"tileid":262,"duration":140}]},{"id":280,"animation":[{"tileid":264,"duration":140},{"tileid":265,"duration":140},{"tileid":266,"duration":140},{"tileid":267,"duration":140},{"tileid":268,"duration":140},{"tileid":269,"duration":140},{"tileid":270,"duration":140},{"tileid":271,"duration":140},{"tileid":272,"duration":140},{"tileid":273,"duration":140},{"tileid":274,"duration":140},{"tileid":275,"duration":140},{"tileid":276,"duration":140},{"tileid":277,"duration":140},{"tileid":278,"duration":140},{"tileid":279,"duration":140}]},{"id":283,"animation":[{"tileid":9,"duration":140},{"tileid":281,"duration":140},{"tileid":282,"duration":140},{"tileid":9,"duration":140},{"tileid":9,"duration":140},{"tileid":9,"duration":140},{"tileid":9,"duration":140},{"tileid":9,"duration":140},{"tileid":9,"duration":140},{"tileid":9,"duration":140},{"tileid":9,"duration":140},{"tileid":9,"duration":140},{"tileid":9,"duration":140},{"tileid":9,"duration":140},{"tileid":9,"duration":140},{"tileid":9,"duration":140}]},{"id":300,"animation":[{"tileid":284,"duration":140},{"tileid":285,"duration":140},{"tileid":286,"duration":140},{"tileid":287,"duration":140},{"tileid":288,"duration":140},{"tileid":289,"duration":140},{"tileid":290,"duration":140},{"tileid":291,"duration":140},{"tileid":292,"duration":140},{"tileid":293,"duration":140},{"tileid":294,"duration":140},{"tileid":295,"duration":140},{"tileid":296,"duration":140},{"tileid":297,"duration":140},{"tileid":298,"duration":140},{"tileid":299,"duration":140}]},{"id":317,"animation":[{"tileid":301,"duration":140},{"tileid":302,"duration":140},{"tileid":303,"duration":140},{"tileid":304,"duration":140},{"tileid":305,"duration":140},{"tileid":306,"duration":140},{"tileid":307,"duration":140},{"tileid":308,"duration":140},{"tileid":309,"duration":140},{"tileid":310,"duration":140},{"tileid":311,"duration":140},{"tileid":312,"duration":140},{"tileid":313,"duration":140},{"tileid":314,"duration":140},{"tileid":315,"duration":140},{"tileid":316,"duration":140}]},{"id":326,"animation":[{"tileid":9,"duration":140},{"tileid":9,"duration":140},{"tileid":9,"duration":140},{"tileid":318,"duration":140},{"tileid":319,"duration":140},{"tileid":320,"duration":140},{"tileid":321,"duration":140},{"tileid":322,"duration":140},{"tileid":323,"duration":140},{"tileid":324,"duration":140},{"tileid":9,"duration":140},{"tileid":9,"duration":140},{"tileid":9,"duration":140},{"tileid":9,"duration":140},{"tileid":9,"duration":140},{"tileid":325,"duration":140}]},{"id":334,"animation":[{"tileid":9,"duration":140},{"tileid":9,"duration":140},{"tileid":9,"duration":140},{"tileid":327,"duration":140},{"tileid":328,"duration":140},{"tileid":329,"duration":140},{"tileid":330,"duration":140},{"tileid":331,"duration":140},{"tileid":332,"duration":140},{"tileid":333,"duration":140},{"tileid":9,"duration":140},{"tileid":9,"duration":140},{"tileid":9,"duration":140},{"tileid":9,"duration":140},{"tileid":9,"duration":140},{"tileid":9,"duration":140}]},{"id":351,"animation":[{"tileid":335,"duration":140},{"tileid":336,"duration":140},{"tileid":337,"duration":140},{"tileid":338,"duration":140},{"tileid":339,"duration":140},{"tileid":340,"duration":140},{"tileid":341,"duration":140},{"tileid":342,"duration":140},{"tileid":343,"duration":140},{"tileid":344,"duration":140},{"tileid":345,"duration":140},{"tileid":346,"duration":140},{"tileid":347,"duration":140},{"tileid":348,"duration":140},{"tileid":349,"duration":140},{"tileid":350,"duration":140}]},{"id":363,"animation":[{"tileid":9,"duration":140},{"tileid":9,"duration":140},{"tileid":9,"duration":140},{"tileid":9,"duration":140},{"tileid":352,"duration":140},{"tileid":353,"duration":140},{"tileid":354,"duration":140},{"tileid":355,"duration":140},{"tileid":356,"duration":140},{"tileid":357,"duration":140},{"tileid":358,"duration":140},{"tileid":359,"duration":140},{"tileid":360,"duration":140},{"tileid":361,"duration":140},{"tileid":362,"duration":140},{"tileid":9,"duration":140}]},{"id":374,"animation":[{"tileid":9,"duration":140},{"tileid":9,"duration":140},{"tileid":9,"duration":140},{"tileid":364,"duration":140},{"tileid":365,"duration":140},{"tileid":366,"duration":140},{"tileid":367,"duration":140},{"tileid":368,"duration":140},{"tileid":369,"duration":140},{"tileid":370,"duration":140},{"tileid":371,"duration":140},{"tileid":372,"duration":140},{"tileid":373,"duration":140},{"tileid":9,"duration":140},{"tileid":9,"duration":140},{"tileid":9,"duration":140}]},{"id":391,"animation":[{"tileid":375,"duration":140},{"tileid":376,"duration":140},{"tileid":377,"duration":140},{"tileid":378,"duration":140},{"tileid":379,"duration":140},{"tileid":380,"duration":140},{"tileid":381,"duration":140},{"tileid":382,"duration":140},{"tileid":383,"duration":140},{"tileid":384,"duration":140},{"tileid":385,"duration":140},{"tileid":386,"duration":140},{"tileid":387,"duration":140},{"tileid":388,"duration":140},{"tileid":389,"duration":140},{"tileid":390,"duration":140}]},{"id":408,"animation":[{"tileid":392,"duration":140},{"tileid":393,"duration":140},{"tileid":394,"duration":140},{"tileid":395,"duration":140},{"tileid":396,"duration":140},{"tileid":397,"duration":140},{"tileid":398,"duration":140},{"tileid":399,"duration":140},{"tileid":400,"duration":140},{"tileid":401,"duration":140},{"tileid":402,"duration":140},{"tileid":403,"duration":140},{"tileid":404,"duration":140},{"tileid":405,"duration":140},{"tileid":406,"duration":140},{"tileid":407,"duration":140}]},{"id":424,"animation":[{"tileid":409,"duration":140},{"tileid":410,"duration":140},{"tileid":411,"duration":140},{"tileid":412,"duration":140},{"tileid":413,"duration":140},{"tileid":414,"duration":140},{"tileid":415,"duration":140},{"tileid":416,"duration":140},{"tileid":417,"duration":140},{"tileid":418,"duration":140},{"tileid":419,"duration":140},{"tileid":420,"duration":140},{"tileid":9,"duration":140},{"tileid":421,"duration":140},{"tileid":422,"duration":140},{"tileid":423,"duration":140}]},{"id":441,"animation":[{"tileid":425,"duration":140},{"tileid":426,"duration":140},{"tileid":427,"duration":140},{"tileid":428,"duration":140},{"tileid":429,"duration":140},{"tileid":430,"duration":140},{"tileid":431,"duration":140},{"tileid":432,"duration":140},{"tileid":433,"duration":140},{"tileid":434,"duration":140},{"tileid":435,"duration":140},{"tileid":436,"duration":140},{"tileid":437,"duration":140},{"tileid":438,"duration":140},{"tileid":439,"duration":140},{"tileid":440,"duration":140}]},{"id":449,"animation":[{"tileid":9,"duration":140},{"tileid":9,"duration":140},{"tileid":9,"duration":140},{"tileid":9,"duration":140},{"tileid":9,"duration":140},{"tileid":9,"duration":140},{"tileid":9,"duration":140},{"tileid":442,"duration":140},{"tileid":443,"duration":140},{"tileid":444,"duration":140},{"tileid":445,"duration":140},{"tileid":446,"duration":140},{"tileid":447,"duration":140},{"tileid":448,"duration":140},{"tileid":9,"duration":140},{"tileid":9,"duration":140}]},{"id":452,"animation":[{"tileid":9,"duration":140},{"tileid":9,"duration":140},{"tileid":9,"duration":140},{"tileid":9,"duration":140},{"tileid":9,"duration":140},{"tileid":9,"duration":140},{"tileid":9,"duration":140},{"tileid":450,"duration":140},{"tileid":451,"duration":140},{"tileid":9,"duration":140},{"tileid":9,"duration":140},{"tileid":9,"duration":140},{"tileid":9,"duration":140},{"tileid":9,"duration":140},{"tileid":9,"duration":140},{"tileid":9,"duration":140}]},{"id":456,"animation":[{"tileid":9,"duration":140},{"tileid":9,"duration":140},{"tileid":9,"duration":140},{"tileid":9,"duration":140},{"tileid":9,"duration":140},{"tileid":9,"duration":140},{"tileid":9,"duration":140},{"tileid":9,"duration":140},{"tileid":9,"duration":140},{"tileid":453,"duration":140},{"tileid":454,"duration":140},{"tileid":455,"duration":140},{"tileid":9,"duration":140},{"tileid":9,"duration":140},{"tileid":9,"duration":140},{"tileid":9,"duration":140}]},{"id":470,"animation":[{"tileid":457,"duration":140},{"tileid":458,"duration":140},{"tileid":459,"duration":140},{"tileid":460,"duration":140},{"tileid":461,"duration":140},{"tileid":462,"duration":140},{"tileid":9,"duration":140},{"tileid":9,"duration":140},{"tileid":9,"duration":140},{"tileid":463,"duration":140},{"tileid":464,"duration":140},{"tileid":465,"duration":140},{"tileid":466,"duration":140},{"tileid":467,"duration":140},{"tileid":468,"duration":140},{"tileid":469,"duration":140}]},{"id":487,"animation":[{"tileid":471,"duration":140},{"tileid":472,"duration":140},{"tileid":473,"duration":140},{"tileid":474,"duration":140},{"tileid":475,"duration":140},{"tileid":476,"duration":140},{"tileid":477,"duration":140},{"tileid":478,"duration":140},{"tileid":479,"duration":140},{"tileid":480,"duration":140},{"tileid":481,"duration":140},{"tileid":482,"duration":140},{"tileid":483,"duration":140},{"tileid":484,"duration":140},{"tileid":485,"duration":140},{"tileid":486,"duration":140}]},{"id":504,"animation":[{"tileid":488,"duration":140},{"tileid":489,"duration":140},{"tileid":490,"duration":140},{"tileid":491,"duration":140},{"tileid":492,"duration":140},{"tileid":493,"duration":140},{"tileid":494,"duration":140},{"tileid":495,"duration":140},{"tileid":496,"duration":140},{"tileid":497,"duration":140},{"tileid":498,"duration":140},{"tileid":499,"duration":140},{"tileid":500,"duration":140},{"tileid":501,"duration":140},{"tileid":502,"duration":140},{"tileid":503,"duration":140}]},{"id":519,"animation":[{"tileid":505,"duration":140},{"tileid":506,"duration":140},{"tileid":507,"duration":140},{"tileid":508,"duration":140},{"tileid":509,"duration":140},{"tileid":510,"duration":140},{"tileid":511,"duration":140},{"tileid":512,"duration":140},{"tileid":513,"duration":140},{"tileid":514,"duration":140},{"tileid":9,"duration":140},{"tileid":9,"duration":140},{"tileid":515,"duration":140},{"tileid":516,"duration":140},{"tileid":517,"duration":140},{"tileid":518,"duration":140}]},{"id":536,"animation":[{"tileid":520,"duration":140},{"tileid":521,"duration":140},{"tileid":522,"duration":140},{"tileid":523,"duration":140},{"tileid":524,"duration":140},{"tileid":525,"duration":140},{"tileid":526,"duration":140},{"tileid":527,"duration":140},{"tileid":528,"duration":140},{"tileid":529,"duration":140},{"tileid":530,"duration":140},{"tileid":531,"duration":140},{"tileid":532,"duration":140},{"tileid":533,"duration":140},{"tileid":534,"duration":140},{"tileid":535,"duration":140}]}]},{"firstgid":12403,"name":"fire-flame-p0","image":"fire-flame-p0.png","imagewidth":1024,"imageheight":96,"tilewidth":32,"tileheight":32,"margin":0,"spacing":0,"columns":32,"tilecount":78,"tiles":[{"id":7,"animation":[{"tileid":0,"duration":90},{"tileid":1,"duration":90},{"tileid":2,"duration":90},{"tileid":0,"duration":90},{"tileid":0,"duration":90},{"tileid":3,"duration":90},{"tileid":4,"duration":90},{"tileid":0,"duration":90},{"tileid":0,"duration":90},{"tileid":5,"duration":90},{"tileid":6,"duration":90},{"tileid":0,"duration":90}]},{"id":18,"animation":[{"tileid":8,"duration":90},{"tileid":9,"duration":90},{"tileid":9,"duration":90},{"tileid":10,"duration":90},{"tileid":11,"duration":90},{"tileid":12,"duration":90},{"tileid":13,"duration":90},{"tileid":14,"duration":90},{"tileid":14,"duration":90},{"tileid":15,"duration":90},{"tileid":16,"duration":90},{"tileid":17,"duration":90}]},{"id":31,"animation":[{"tileid":19,"duration":90},{"tileid":20,"duration":90},{"tileid":21,"duration":90},{"tileid":22,"duration":90},{"tileid":23,"duration":90},{"tileid":24,"duration":90},{"tileid":25,"duration":90},{"tileid":26,"duration":90},{"tileid":27,"duration":90},{"tileid":28,"duration":90},{"tileid":29,"duration":90},{"tileid":30,"duration":90}]},{"id":44,"animation":[{"tileid":32,"duration":90},{"tileid":33,"duration":90},{"tileid":34,"duration":90},{"tileid":35,"duration":90},{"tileid":36,"duration":90},{"tileid":37,"duration":90},{"tileid":38,"duration":90},{"tileid":39,"duration":90},{"tileid":40,"duration":90},{"tileid":41,"duration":90},{"tileid":42,"duration":90},{"tileid":43,"duration":90}]},{"id":55,"animation":[{"tileid":45,"duration":90},{"tileid":46,"duration":90},{"tileid":46,"duration":90},{"tileid":47,"duration":90},{"tileid":48,"duration":90},{"tileid":49,"duration":90},{"tileid":50,"duration":90},{"tileid":51,"duration":90},{"tileid":51,"duration":90},{"tileid":52,"duration":90},{"tileid":53,"duration":90},{"tileid":54,"duration":90}]},{"id":66,"animation":[{"tileid":56,"duration":90},{"tileid":57,"duration":90},{"tileid":57,"duration":90},{"tileid":58,"duration":90},{"tileid":59,"duration":90},{"tileid":60,"duration":90},{"tileid":61,"duration":90},{"tileid":62,"duration":90},{"tileid":62,"duration":90},{"tileid":63,"duration":90},{"tileid":64,"duration":90},{"tileid":65,"duration":90}]},{"id":77,"animation":[{"tileid":67,"duration":90},{"tileid":68,"duration":90},{"tileid":68,"duration":90},{"tileid":69,"duration":90},{"tileid":70,"duration":90},{"tileid":71,"duration":90},{"tileid":72,"duration":90},{"tileid":73,"duration":90},{"tileid":73,"duration":90},{"tileid":74,"duration":90},{"tileid":75,"duration":90},{"tileid":76,"duration":90}]}]},{"firstgid":12481,"name":"garden-life-p0","image":"garden-life-p0.png","imagewidth":1024,"imageheight":128,"tilewidth":32,"tileheight":32,"margin":0,"spacing":0,"columns":32,"tilecount":109,"tiles":[{"id":16,"animation":[{"tileid":0,"duration":160},{"tileid":1,"duration":160},{"tileid":2,"duration":160},{"tileid":3,"duration":160},{"tileid":4,"duration":160},{"tileid":5,"duration":160},{"tileid":6,"duration":160},{"tileid":7,"duration":160},{"tileid":8,"duration":160},{"tileid":9,"duration":160},{"tileid":10,"duration":160},{"tileid":11,"duration":160},{"tileid":12,"duration":160},{"tileid":13,"duration":160},{"tileid":14,"duration":160},{"tileid":15,"duration":160}]},{"id":33,"animation":[{"tileid":17,"duration":160},{"tileid":18,"duration":160},{"tileid":19,"duration":160},{"tileid":20,"duration":160},{"tileid":21,"duration":160},{"tileid":22,"duration":160},{"tileid":23,"duration":160},{"tileid":24,"duration":160},{"tileid":25,"duration":160},{"tileid":26,"duration":160},{"tileid":27,"duration":160},{"tileid":28,"duration":160},{"tileid":29,"duration":160},{"tileid":30,"duration":160},{"tileid":31,"duration":160},{"tileid":32,"duration":160}]},{"id":44,"animation":[{"tileid":34,"duration":160},{"tileid":35,"duration":160},{"tileid":36,"duration":160},{"tileid":36,"duration":160},{"tileid":36,"duration":160},{"tileid":36,"duration":160},{"tileid":36,"duration":160},{"tileid":36,"duration":160},{"tileid":34,"duration":160},{"tileid":37,"duration":160},{"tileid":38,"duration":160},{"tileid":39,"duration":160},{"tileid":40,"duration":160},{"tileid":41,"duration":160},{"tileid":42,"duration":160},{"tileid":43,"duration":160}]},{"id":53,"animation":[{"tileid":45,"duration":160},{"tileid":46,"duration":160},{"tileid":47,"duration":160},{"tileid":48,"duration":160},{"tileid":49,"duration":160},{"tileid":50,"duration":160},{"tileid":51,"duration":160},{"tileid":52,"duration":160},{"tileid":45,"duration":160},{"tileid":36,"duration":160},{"tileid":36,"duration":160},{"tileid":36,"duration":160},{"tileid":36,"duration":160},{"tileid":36,"duration":160},{"tileid":36,"duration":160},{"tileid":36,"duration":160}]},{"id":59,"animation":[{"tileid":36,"duration":160},{"tileid":36,"duration":160},{"tileid":36,"duration":160},{"tileid":36,"duration":160},{"tileid":54,"duration":160},{"tileid":55,"duration":160},{"tileid":56,"duration":160},{"tileid":57,"duration":160},{"tileid":58,"duration":160},{"tileid":36,"duration":160},{"tileid":36,"duration":160},{"tileid":36,"duration":160},{"tileid":36,"duration":160},{"tileid":36,"duration":160},{"tileid":36,"duration":160},{"tileid":36,"duration":160}]},{"id":74,"animation":[{"tileid":60,"duration":160},{"tileid":61,"duration":160},{"tileid":62,"duration":160},{"tileid":63,"duration":160},{"tileid":64,"duration":160},{"tileid":65,"duration":160},{"tileid":36,"duration":160},{"tileid":36,"duration":160},{"tileid":66,"duration":160},{"tileid":67,"duration":160},{"tileid":68,"duration":160},{"tileid":69,"duration":160},{"tileid":70,"duration":160},{"tileid":71,"duration":160},{"tileid":72,"duration":160},{"tileid":73,"duration":160}]},{"id":91,"animation":[{"tileid":75,"duration":160},{"tileid":76,"duration":160},{"tileid":77,"duration":160},{"tileid":78,"duration":160},{"tileid":79,"duration":160},{"tileid":80,"duration":160},{"tileid":81,"duration":160},{"tileid":82,"duration":160},{"tileid":83,"duration":160},{"tileid":84,"duration":160},{"tileid":85,"duration":160},{"tileid":86,"duration":160},{"tileid":87,"duration":160},{"tileid":88,"duration":160},{"tileid":89,"duration":160},{"tileid":90,"duration":160}]},{"id":108,"animation":[{"tileid":92,"duration":160},{"tileid":93,"duration":160},{"tileid":94,"duration":160},{"tileid":95,"duration":160},{"tileid":96,"duration":160},{"tileid":97,"duration":160},{"tileid":98,"duration":160},{"tileid":99,"duration":160},{"tileid":100,"duration":160},{"tileid":101,"duration":160},{"tileid":102,"duration":160},{"tileid":103,"duration":160},{"tileid":104,"duration":160},{"tileid":105,"duration":160},{"tileid":106,"duration":160},{"tileid":107,"duration":160}]}]}],"nextlayerid":7,"properties":[{"name":"nativeWorldWidth","type":"int","value":2944},{"name":"nativeWorldHeight","type":"int","value":2624},{"name":"artScale","type":"int","value":1},{"name":"wokaScale","type":"int","value":1},{"name":"status","type":"string","value":"Revision10 native32 feedback candidate; browser and physical-device acceptance pending"},{"name":"gateRoomUrl","type":"string","value":""}]}
