{"type":"map","version":"1.10","tiledversion":"1.11.2","orientation":"orthogonal","renderorder":"right-down","infinite":false,"width":30,"height":45,"tilewidth":32,"tileheight":32,"backgroundcolor":"#0d1a24","layers":[{"id":1,"name":"permanent-collisions","type":"tilelayer","width":30,"height":45,"x":0,"y":0,"opacity":1,"visible":true,"data":[1,1,1,1,1,1,1,1,1,1,1,1,1,1,1,1,1,1,1,1,1,1,1,1,1,1,1,1,1,1,1,1,1,1,1,1,1,1,1,1,1,1,1,1,1,1,1,1,1,1,1,1,1,1,1,1,1,1,1,1,1,1,1,1,1,1,1,1,1,1,1,1,1,1,1,1,1,1,1,1,1,1,1,1,1,1,1,1,1,1,1,1,1,1,1,1,1,1,1,1,1,1,1,1,1,1,1,1,1,1,1,1,1,1,1,1,1,1,1,1,1,1,1,1,1,1,1,1,1,1,1,1,1,1,1,1,1,1,1,1,1,1,1,1,1,1,1,1,1,1,1,1,1,1,1,1,1,1,1,1,1,1,1,1,1,1,1,1,1,1,1,1,1,1,1,1,1,1,1,1,1,1,1,1,1,1,1,1,1,1,1,1,1,1,1,1,1,1,1,1,1,1,1,1,1,1,1,1,1,1,1,1,1,1,1,1,1,1,1,1,1,1,1,1,1,1,1,1,1,1,1,1,1,1,1,1,1,1,1,1,1,1,1,1,1,1,1,1,1,1,1,1,1,1,1,1,1,1,1,1,1,1,1,1,1,1,1,1,1,1,1,1,1,1,1,1,1,1,1,1,1,1,1,1,1,1,1,1,1,1,1,1,1,1,1,1,1,1,1,1,1,1,1,1,1,1,1,1,1,1,1,1,1,1,1,1,1,1,1,1,1,1,1,1,1,1,1,1,1,1,1,1,1,1,1,1,1,1,1,1,1,1,1,1,1,1,1,1,1,1,1,1,1,1,1,1,1,1,1,1,1,1,1,1,1,1,1,1,1,1,1,1,1,1,1,1,1,1,1,1,1,1,1,1,1,1,1,1,1,1,1,1,1,1,1,1,1,1,1,1,1,1,1,1,1,1,1,1,1,1,1,1,1,1,1,1,1,1,1,1,1,1,1,1,1,1,1,1,1,1,1,1,1,1,1,1,1,1,1,1,1,1,1,1,1,1,1,1,1,1,1,1,1,1,1,1,1,1,1,1,1,1,1,1,1,1,1,1,1,1,1,1,1,1,1,1,1,1,1,1,1,1,1,1,1,1,1,1,1,1,1,1,1,1,1,1,1,1,1,1,1,1,1,1,1,1,1,1,1,1,1,1,1,1,1,1,1,1,1,1,1,1,1,1,0,0,0,0,1,1,1,1,1,1,1,1,1,1,1,1,1,1,1,1,1,1,1,1,1,1,1,1,1,1,0,0,0,0,1,1,1,1,1,1,1,1,1,1,1,1,1,1,1,1,1,1,1,1,1,1,1,1,1,0,0,0,0,0,0,1,1,1,1,1,1,1,1,1,1,1,1,1,1,1,1,1,1,1,1,1,1,1,1,0,0,0,0,0,0,1,1,1,1,1,1,1,1,1,1,1,1,1,1,1,1,1,1,1,1,1,1,1,1,0,0,0,0,0,0,1,1,1,1,1,1,1,1,1,1,1,1,1,1,1,1,1,1,1,1,1,1,1,1,0,0,0,0,0,0,1,1,1,1,1,1,1,1,1,1,1,1,1,1,1,1,1,1,1,1,1,1,1,0,0,0,0,0,0,0,0,1,1,1,1,1,1,1,1,1,1,1,1,1,1,1,1,1,1,1,1,1,1,0,0,0,0,0,0,0,0,1,1,1,1,1,1,1,1,1,1,1,1,1,1,1,1,1,1,1,1,1,1,0,0,0,0,0,0,0,0,1,1,1,1,1,1,1,1,1,1,1,1,1,1,1,1,1,1,1,1,1,1,0,0,0,0,0,0,0,0,1,1,1,1,1,1,1,1,1,1,1,1,1,1,1,1,1,1,1,1,1,1,0,0,0,0,0,0,0,0,1,1,1,1,1,1,1,1,1,1,1,1,1,1,1,1,1,1,1,1,1,0,0,0,0,0,0,0,0,0,0,1,1,1,1,1,1,1,1,1,1,1,1,1,1,1,1,1,1,1,1,0,0,0,0,0,0,0,0,0,0,1,1,1,1,1,1,1,1,1,1,1,1,1,1,1,1,1,1,1,1,0,0,0,0,0,0,0,0,0,0,1,1,1,1,1,1,1,1,1,1,1,1,1,1,1,1,1,1,1,1,0,0,0,0,0,0,0,0,0,0,1,1,1,1,1,1,1,1,1,1,1,1,1,1,1,1,1,1,1,1,0,0,0,0,0,0,0,0,0,0,1,1,1,1,1,1,1,1,1,1,1,1,1,1,1,1,1,1,1,1,0,0,0,0,0,0,0,0,0,0,1,1,1,1,1,1,1,1,1,1,1,1,1,1,1,1,1,1,1,1,0,0,0,0,0,0,0,0,0,0,1,1,1,1,1,1,1,1,1,1,1,1,1,1,1,1,1,1,1,0,0,0,0,0,0,0,0,0,0,0,0,1,1,1,1,1,1,1,1,1,1,1,1,1,1,1,1,1,1,0,0,0,0,0,0,0,0,0,0,0,0,1,1,1,1,1,1,1,1,1,1,1,1,1,1,1,1,1,1,0,0,0,0,0,0,0,0,0,0,0,0,1,1,1,1,1,1,1,1,1,1,1,1,1,1,1,1,1,1,0,0,0,0,0,0,0,0,0,0,0,0,1,1,1,1,1,1,1,1,1,1,1,1,1,1,1,1,1,1,0,0,0,0,0,0,0,0,0,0,0,0,1,1,1,1,1,1,1,1,1,1,1,1,1,1,1,1,1,1,0,0,0,0,0,0,0,0,0,0,0,0,1,1,1,1,1,1,1,1,1,1,1,1,1,1,1,1,1,1,0,0,0,0,0,0,0,0,0,0,0,0,1,1,1,1,1,1,1,1,1,1,1,1,1,1,1,1,1,1,0,0,0,0,0,0,0,0,0,0,0,0,1,1,1,1,1,1,1,1,1,1,1,1,1,1,1,1,1,1,0,0,0,0,0,0,0,0,0,0,0,0,1,1,1,1,1,1,1,1,1,1,1,1,1,1,1,1,1,1,0,0,0,0,0,0,0,0,0,0,0,0,1,1,1,1,1,1,1,1]},{"id":2,"name":"start","type":"tilelayer","width":30,"height":45,"x":0,"y":0,"opacity":1,"visible":true,"data":[0,0,0,0,0,0,0,0,0,0,0,0,0,0,0,0,0,0,0,0,0,0,0,0,0,0,0,0,0,0,0,0,0,0,0,0,0,0,0,0,0,0,0,0,0,0,0,0,0,0,0,0,0,0,0,0,0,0,0,0,0,0,0,0,0,0,0,0,0,0,0,0,0,0,0,0,0,0,0,0,0,0,0,0,0,0,0,0,0,0,0,0,0,0,0,0,0,0,0,0,0,0,0,0,0,0,0,0,0,0,0,0,0,0,0,0,0,0,0,0,0,0,0,0,0,0,0,0,0,0,0,0,0,0,0,0,0,0,0,0,0,0,0,0,0,0,0,0,0,0,0,0,0,0,0,0,0,0,0,0,0,0,0,0,0,0,0,0,0,0,0,0,0,0,0,0,0,0,0,0,0,0,0,0,0,0,0,0,0,0,0,0,0,0,0,0,0,0,0,0,0,0,0,0,0,0,0,0,0,0,0,0,0,0,0,0,0,0,0,0,0,0,0,0,0,0,0,0,0,0,0,0,0,0,0,0,0,0,0,0,0,0,0,0,0,0,0,0,0,0,0,0,0,0,0,0,0,0,0,0,0,0,0,0,0,0,0,0,0,0,0,0,0,0,0,0,0,0,0,0,0,0,0,0,0,0,0,0,0,0,0,0,0,0,0,0,0,0,0,0,0,0,0,0,0,0,0,0,0,0,0,0,0,0,0,0,0,0,0,0,0,0,0,0,0,0,0,0,0,0,0,0,0,0,0,0,0,0,0,0,0,0,0,0,0,0,0,0,0,0,0,0,0,0,0,0,0,0,0,0,0,0,0,0,0,0,0,0,0,0,0,0,0,0,0,0,0,0,0,0,0,0,0,0,0,0,0,0,0,0,0,0,0,0,0,0,0,0,0,0,0,0,0,0,0,0,0,0,0,0,0,0,0,0,0,0,0,0,0,0,0,0,0,0,0,0,0,0,0,0,0,0,0,0,0,0,0,0,0,0,0,0,0,0,0,0,0,0,0,0,0,0,0,0,0,0,0,0,0,0,0,0,0,0,0,0,0,0,0,0,0,0,0,0,0,0,0,0,0,0,0,0,0,0,0,0,0,0,0,0,0,0,0,0,0,0,0,0,0,0,0,0,0,0,0,0,0,0,0,0,0,0,0,0,0,0,0,0,0,0,0,0,0,0,0,0,0,0,0,0,0,0,0,0,0,0,0,0,0,0,0,0,0,0,0,0,0,0,0,0,0,0,0,0,0,0,0,0,0,0,0,0,0,0,0,0,0,0,0,0,0,0,0,0,0,0,0,0,0,0,0,0,0,0,0,0,0,0,0,0,0,0,0,0,0,0,0,0,0,0,0,0,0,0,0,0,0,0,0,0,0,0,0,0,0,0,0,0,0,0,0,0,0,0,0,0,0,0,0,0,0,0,0,0,0,0,0,0,0,0,0,0,0,0,0,0,0,0,0,0,0,0,0,0,0,0,0,0,0,0,0,0,0,0,0,0,0,0,0,0,0,0,0,0,0,0,0,0,0,0,0,0,0,0,0,0,0,0,0,0,0,0,0,0,0,0,0,0,0,0,0,0,0,0,0,0,0,0,0,0,0,0,0,0,0,0,0,0,0,0,0,0,0,0,0,0,0,0,0,0,0,0,0,0,0,0,0,0,0,0,0,0,0,0,0,0,0,0,0,0,0,0,0,0,0,0,0,0,0,0,0,0,0,0,0,0,0,0,0,0,0,0,0,0,0,0,0,0,0,0,0,0,0,0,0,0,0,0,0,0,0,0,0,0,0,0,0,0,0,0,0,0,0,0,0,0,0,0,0,0,0,0,0,0,0,0,0,0,0,0,0,0,0,0,0,0,0,0,0,0,0,0,0,0,0,0,0,0,0,0,0,0,0,0,0,0,0,0,0,0,0,0,0,0,0,0,0,0,0,0,0,0,0,0,0,0,0,0,0,0,0,0,0,0,0,0,0,0,0,0,0,0,0,0,0,0,0,0,0,0,0,0,0,0,0,0,0,0,0,0,0,0,0,0,0,0,0,0,0,0,0,0,0,0,0,0,0,0,0,0,0,0,0,0,0,0,0,0,0,0,0,0,0,0,0,0,0,0,0,0,0,0,0,0,0,0,0,0,0,0,0,0,0,0,0,0,0,0,0,0,0,0,0,0,0,0,0,0,0,0,0,0,0,0,0,0,0,0,0,0,0,0,0,0,0,0,0,0,0,0,0,0,0,0,0,0,0,0,0,0,0,0,0,0,0,0,0,0,0,0,0,0,0,0,0,0,0,0,0,0,0,0,0,0,0,0,0,0,0,0,0,0,0,0,0,0,0,0,0,0,0,0,0,0,0,0,0,0,0,0,0,0,0,0,0,0,0,0,0,0,0,0,0,0,0,2,0,0,0,0,0,0,0,0,0,0,0,0,0,0,0,0,0,0,0,0,0,0,0,0,0,0,0,0,0,0,0,0,0,0,0,0,0,0,0,0,0,0,0,0,0,0,0,0,0,0,0,0,0,0,0,0,0,0,0,0,0,0,0,0,0,0,0,0,0,0,0,0,0,0,0,0,0,0,0,0,0,0,0,0,0,0,0,0,0,0,0,0,0,0,0,0,0,0,0,0,0,0,0,0,0,0,0,0,0,0,0,0,0,0,0,0,0,0,0,0,0,0,0,0,0,0,0,0,0,0,0,0,0,0,0,0,0,0,0,0,0,0,0,0,0,0,0,0,0,0,0,0,0,0,0,0,0,0,0,0,0,0,0,0,0,0,0,0,0,0,0,0,0,0,0,0,0,0,0,0,0,0,0,0,0,0,0,0,0,0,0,0,0,0,0,0,0,0,0,0,0,0,0,0,0,0,0,0,0,0,0,0,0,0,0,0,0,0,0,0,0,0,0,0,0,0,0,0,0,0,0,0,0,0,0,0,0,0,0,0,0,0,0,0,0,0,0,0,0,0,0,0,0,0,0,0,0,0,0,0,0,0,0,0,0,0,0,0,0,0,0,0,0,0,0,0,0,0,0,0,0,0,0,0],"properties":[{"name":"start","type":"bool","value":true}]},{"id":3,"name":"campus-audio-control","type":"tilelayer","width":30,"height":45,"x":0,"y":0,"opacity":1,"visible":true,"data":[2,2,2,2,2,2,2,2,2,2,2,2,2,2,2,2,2,2,2,2,2,2,2,2,2,2,2,2,2,2,2,2,2,2,2,2,2,2,2,2,2,2,2,2,2,2,2,2,2,2,2,2,2,2,2,2,2,2,2,2,2,2,2,2,2,2,2,2,2,2,2,2,2,2,2,2,2,2,2,2,2,2,2,2,2,2,2,2,2,2,2,2,2,2,2,2,2,2,2,2,2,2,2,2,2,2,2,2,2,2,2,2,2,2,2,2,2,2,2,2,2,2,2,2,2,2,2,2,2,2,2,2,2,2,2,2,2,2,2,2,2,2,2,2,2,2,2,2,2,2,2,2,2,2,2,2,2,2,2,2,2,2,2,2,2,2,2,2,2,2,2,2,2,2,2,2,2,2,2,2,2,2,2,2,2,2,2,2,2,2,2,2,2,2,2,2,2,2,2,2,2,2,2,2,2,2,2,2,2,2,2,2,2,2,2,2,2,2,2,2,2,2,2,2,2,2,2,2,2,2,2,2,2,2,2,2,2,2,2,2,2,2,2,2,2,2,2,2,2,2,2,2,2,2,2,2,2,2,2,2,2,2,2,2,2,2,2,2,2,2,2,2,2,2,2,2,2,2,2,2,2,2,2,2,2,2,2,2,2,2,2,2,2,2,2,2,2,2,2,2,2,2,2,2,2,2,2,2,2,2,2,2,2,2,2,2,2,2,2,2,2,2,2,2,2,2,2,2,2,2,2,2,2,2,2,2,2,2,2,2,2,2,2,2,2,2,2,2,2,2,2,2,2,2,2,2,2,2,2,2,2,2,2,2,2,2,2,2,2,2,2,2,2,2,2,2,2,2,2,2,2,2,2,2,2,2,2,2,2,2,2,2,2,2,2,2,2,2,2,2,2,2,2,2,2,2,2,2,2,2,2,2,2,2,2,2,2,2,2,2,2,2,2,2,2,2,2,2,2,2,2,2,2,2,2,2,2,2,2,2,2,2,2,2,2,2,2,2,2,2,2,2,2,2,2,2,2,2,2,2,2,2,2,2,2,2,2,2,2,2,2,2,2,2,2,2,2,2,2,2,2,2,2,2,2,2,2,2,2,2,2,2,2,2,2,2,2,2,2,2,2,2,2,2,2,2,2,2,2,2,2,2,2,2,2,2,2,2,2,2,2,2,2,2,2,2,2,2,2,2,2,2,2,2,2,2,2,2,2,2,2,2,2,2,2,2,2,2,2,2,2,2,2,2,2,2,2,2,2,2,2,2,2,2,2,2,2,2,2,2,2,2,2,2,2,2,2,2,2,2,2,2,2,2,2,2,2,2,2,2,2,2,2,2,2,2,2,2,2,2,2,2,2,2,2,2,2,2,2,2,2,2,2,2,2,2,2,2,2,2,2,2,2,2,2,2,2,2,2,2,2,2,2,2,2,2,2,2,2,2,2,2,2,2,2,2,2,2,2,2,2,2,2,2,2,2,2,2,2,2,2,2,2,2,2,2,2,2,2,2,2,2,2,2,2,2,2,2,2,2,2,2,2,2,2,2,2,2,2,2,2,2,2,2,2,2,2,2,2,2,2,2,2,2,2,2,2,2,2,2,2,2,2,2,2,2,2,2,2,2,2,2,2,2,2,2,2,2,2,2,2,2,2,2,2,2,2,2,2,2,2,2,2,2,2,2,2,2,2,2,2,2,2,2,2,2,2,2,2,2,2,2,2,2,2,2,2,2,2,2,2,2,2,2,2,2,2,2,2,2,2,2,2,2,2,2,2,2,2,2,2,2,2,2,2,2,2,2,2,2,2,2,2,2,2,2,2,2,2,2,2,2,2,2,2,2,2,2,2,2,2,2,2,2,2,2,2,2,2,2,2,2,2,2,2,2,2,2,2,2,2,2,2,2,2,2,2,2,2,2,2,2,2,2,2,2,2,2,2,2,2,2,2,2,2,2,2,2,2,2,2,2,2,2,2,2,2,2,2,2,2,2,2,2,2,2,2,2,2,2,2,2,2,2,2,2,2,2,2,2,2,2,2,2,2,2,2,2,2,2,2,2,2,2,2,2,2,2,2,2,2,2,2,2,2,2,2,2,2,2,2,2,2,2,2,2,2,2,2,2,2,2,2,2,2,2,2,2,2,2,2,2,2,2,2,2,2,2,2,2,2,2,2,2,2,2,2,2,2,2,2,2,2,2,2,2,2,2,2,2,2,2,2,2,2,2,2,2,2,2,2,2,2,2,2,2,2,2,2,2,2,2,2,2,2,2,2,2,2,2,2,2,2,2,2,2,2,2,2,2,2,2,2,2,2,2,2,2,2,2,2,2,2,2,2,2,2,2,2,2,2,2,2,2,2,2,2,2,2,2,2,2,2,2,2,2,2,2,2,2,2,2,2,2,2,2,2,2,2,2,2,2,2,2,2,2,2,2,2,2,2,2,2,2,2,2,2,2,2,2,2,2,2,2,2,2,2,2,2,2,2,2,2,2,2,2,2,2,2,2,2,2,2,2,2,2,2,2,2,2,2,2,2,2,2,2,2,2,2,2,2,2,2,2,2,2,2,2,2,2,2,2,2,2,2,2,2,2,2,2,2,2,2,2,2,2,2,2,2,2,2,2,2,2,2,2,2,2,2,2,2,2,2,2,2,2,2,2,2,2,2,2,2,2,2,2,2,2,2,2,2,2,2,2,2,2,2,2,2,2,2,2,2,2,2,2,2,2,2,2,2,2,2,2,2,2,2,2,2,2,2,2,2,2,2,2,2,2,2,2,2,2,2,2,2,2,2,2,2,2,2,2,2,2,2,2,2,2,2,2,2,2,2,2,2,2,2,2,2,2,2,2,2,2,2,2,2,2,2,2,2,2,2,2,2,2,2,2,2,2,2,2,2,2,2,2,2,2,2,2,2,2,2,2,2,2,2,2,2,2,2,2,2,2,2,2,2,2,2,2,2,2,2,2,2,2,2,2,2,2,2,2,2,2,2,2,2,2,2,2,2,2,2,2,2,2,2,2,2,2,2,2,2,2,2,2,2,2,2,2]},{"name":"gate-night-stage","type":"tilelayer","width":30,"height":45,"x":0,"y":0,"opacity":1,"visible":true,"data":[13473,13473,13473,13473,13473,13473,13473,13473,13473,13473,13473,13473,13473,13473,13473,13473,13473,13473,13473,13473,13473,13473,13473,13473,13473,13473,13473,13473,13473,13473,13473,13473,13473,13473,13473,13473,13473,13473,13473,13473,13473,13473,13473,13473,13473,13473,13473,13473,13473,13473,13473,13473,13473,13473,13473,13473,13473,13473,13473,13473,13473,13473,13473,13473,13473,13473,13473,13473,13473,13473,13473,13473,13473,13473,13473,13473,13473,13473,13473,13473,13473,13473,13473,13473,13473,13473,13473,13473,13473,13473,13473,13473,13473,13473,13473,13473,13473,13473,13473,13473,13473,13473,13473,13473,13473,13473,13473,13473,13473,13473,13473,13473,13473,13473,13473,13473,13473,13473,13473,13473,13473,13473,13473,13473,13473,13473,13473,13473,13473,13473,13473,13473,13473,13473,13473,13473,13473,13473,13473,13473,13473,13473,13473,13473,13473,13473,13473,13473,13473,13473,13473,13473,13473,13473,13473,13473,13473,13473,13473,13473,13473,13473,13473,13473,13473,13473,13473,13473,13473,13473,13473,13473,13473,13473,13473,13473,13473,13473,13473,13473,13473,13473,13473,13473,13473,13473,13473,13473,13473,13473,13473,13473,13473,13473,13473,13473,13473,13473,13473,13473,13473,13473,13473,13473,13473,13473,13473,13473,13473,13473,13473,13473,13473,13473,13473,13473,13473,13473,13473,13473,13473,13473,13473,13473,13473,13473,13473,13473,13473,13473,13473,13473,13473,13473,13473,13473,13473,13473,13473,13473,13473,13473,13473,13473,13473,13473,13473,13473,13473,13473,13473,13473,13473,13473,13473,13473,13473,13473,13473,13473,13473,13473,13473,13473,13473,13473,13473,13473,13473,13473,13473,13473,13473,13473,13473,13473,13473,13473,13473,13473,13473,13473,13473,13473,13473,13473,13473,13473,13473,13473,13473,13473,13473,13473,13473,13473,13473,13473,13473,13473,13473,13473,13473,13473,13473,13473,13473,13473,13473,13473,13473,13473,13473,13473,13473,13473,13473,13473,13473,13473,13473,13473,13473,13473,13473,13473,13473,13473,13473,13473,13473,13473,13473,13473,13473,13473,13473,13473,13473,13473,13473,13473,13473,13473,13473,13473,13473,13473,13473,13473,13473,13473,13473,13473,13473,13473,13473,13473,13473,13473,13473,13473,13473,13473,13473,13473,13473,13473,13473,13473,13473,13473,13473,13473,13473,13473,13473,13473,13473,13473,13473,13473,13473,13473,13473,13473,13473,13473,13473,13473,13473,13473,13473,13473,13473,13473,13473,13473,13473,13473,13473,13473,13473,13473,13473,13473,13473,13473,13473,13473,13473,13473,13473,13473,13473,13473,13473,13473,13473,13473,13473,13473,13473,13473,13473,13473,13473,13473,13473,13473,13473,13473,13473,13473,13473,13473,13473,13473,13473,13473,13473,13473,13473,13473,13473,13473,13473,13473,13473,13473,13473,13473,13473,13473,13473,13473,13473,13473,13473,13473,13473,13473,13473,13473,13473,13473,13473,13473,13473,13473,13473,13473,13473,13473,13473,13473,13473,13473,13473,13473,13473,13473,13473,13473,13473,13473,13473,13473,13473,13473,13473,13473,13473,13473,13473,13473,13473,13473,13473,13473,13473,13473,13473,13473,13473,13473,13473,13473,13473,13473,13473,13473,13473,13473,13473,13473,13473,13473,13473,13473,13473,13473,13473,13473,13473,13473,13473,13473,13473,13473,13473,13473,13473,13473,13473,13473,13473,13473,13473,13473,13473,13473,13473,13473,13473,13473,13473,13473,13473,13473,13473,13473,13473,13473,13473,13473,13473,13473,13473,13473,13473,13473,13473,13473,13473,13473,13473,13473,13473,13473,13473,13473,13473,13473,13473,13473,13473,13473,13473,13473,13473,13473,13473,13473,13473,13473,13473,13473,13473,13473,13473,13473,13473,13473,13473,13473,13473,13473,13473,13473,13473,13473,13473,13473,13473,13473,13473,13473,13473,13473,13473,13473,13473,13473,13473,13473,13473,13473,13473,13473,13473,13473,13473,13473,13473,13473,13473,13473,13473,13473,13473,13473,13473,13473,13473,13473,13473,13473,13473,13473,13473,13473,13473,13473,13473,13473,13473,13473,13473,13473,13473,13473,13473,13473,13473,13473,13473,13473,13473,13473,13473,13473,13473,13473,13473,13473,13473,13473,13473,13473,13473,13473,13473,13473,13473,13473,13473,13473,13473,13473,13473,13473,13473,13473,13473,13473,13473,13473,13473,13473,13473,13473,13473,13473,13473,13473,13473,13473,13473,13473,13473,13473,13473,13473,13473,13473,13473,13473,13473,13473,13473,13473,13473,13473,13473,13473,13473,13473,13473,13473,13473,13473,13473,13473,13473,13473,13473,13473,13473,13473,13473,13473,13473,13473,13473,13473,13473,13473,13473,13473,13473,13473,13473,13473,13473,13473,13473,13473,13473,13473,13473,13473,13473,13473,13473,13473,13473,13473,13473,13473,13473,13473,13473,13473,13473,13473,13473,13473,13473,13473,13473,13473,13473,13473,13473,13473,13473,13473,13473,13473,13473,13473,13473,13473,13473,13473,13473,13473,13473,13473,13473,13473,13473,13473,13473,13473,13473,13473,13473,13473,13473,13473,13473,13473,13473,13473,13473,13473,13473,13473,13473,13473,13473,13473,13473,13473,13473,13473,13473,13473,13473,13473,13473,13473,13473,13473,13473,13473,13473,13473,13473,13473,13473,13473,13473,13473,13473,13473,13473,13473,13473,13473,13473,13473,13473,13473,13473,13473,13473,13473,13473,13473,13473,13473,13473,13473,13473,13473,13473,13473,13473,13473,13473,13473,13473,13473,13473,13473,13473,13473,13473,13473,13473,13473,13473,13473,13473,13473,13473,13473,13473,13473,13473,13473,13473,13473,13473,13473,13473,13473,13473,13473,13473,13473,13473,13473,13473,13473,13473,13473,13473,13473,13473,13473,13473,13473,13473,13473,13473,13473,13473,13473,13473,13473,13473,13473,13473,13473,13473,13473,13473,13473,13473,13473,13473,13473,13473,13473,13473,13473,13473,13473,13473,13473,13473,13473,13473,13473,13473,13473,13473,13473,13473,13473,13473,13473,13473,13473,13473,13473,13473,13473,13473,13473,13473,13473,13473,13473,13473,13473,13473,13473,13473,13473,13473,13473,13473,13473,13473,13473,13473,13473,13473,13473,13473,13473,13473,13473,13473,13473,13473,13473,13473,13473,13473,13473,13473,13473,13473,13473,13473,13473,13473,13473,13473,13473,13473,13473,13473,13473,13473,13473,13473,13473,13473,13473,13473,13473,13473,13473,13473,13473,13473,13473,13473,13473,13473,13473,13473,13473,13473,13473,13473,13473,13473,13473,13473,13473,13473,13473,13473,13473,13473,13473,13473,13473,13473,13473,13473,13473,13473,13473,13473,13473,13473,13473,13473,13473,13473,13473,13473,13473,13473,13473,13473,13473,13473,13473,13473,13473,13473,13473,13473,13473,13473,13473,13473,13473,13473,13473,13473,13473,13473,13473,13473,13473,13473,13473,13473,13473,13473,13473,13473,13473,13473,13473,13473,13473,13473,13473,13473,13473,13473,13473,13473,13473,13473,13473,13473,13473,13473,13473,13473,13473,13473,13473,13473,13473,13473,13473,13473,13473,13473,13473,13473,13473,13473,13473,13473,13473,13473,13473,13473,13473,13473,13473,13473,13473,13473,13473,13473,13473,13473,13473,13473,13473,13473,13473,13473,13473,13473,13473,13473,13473,13473,13473,13473,13473,13473,13473,13473,13473,13473,13473,13473,13473,13473,13473,13473,13473,13473,13473,13473,13473,13473,13473,13473,13473,13473,13473,13473,13473,13473,13473,13473,13473,13473,13473,13473,13473,13473,13473,13473,13473,13473,13473,13473,13473,13473,13473,13473,13473,13473,13473,13473,13473,13473,13473,13473,13473,13473,13473,13473,13473,13473,13473,13473,13473,13473,13473,13473,13473,13473,13473,13473,13473,13473,13473,13473,13473,13473,13473,13473,13473,13473,13473,13473,13473,13473,13473,13473,13473,13473,13473,13473,13473,13473,13473,13473,13473,13473,13473,13473,13473,13473,13473,13473,13473,13473,13473,13473,13473,13473,13473,13473,13473,13473,13473,13473,13473,13473,13473,13473,13473,13473,13473,13473,13473,13473,13473,13473,13473,13473,13473,13473,13473,13473,13473,13473,13473,13473,13473,13473,13473,13473,13473,13473,13473,13473,13473,13473,13473,13473,13473,13473,13473,13473,13473,13473,13473,13473,13473,13473,13473,13473,13473,13473,13473,13473,13473,13473,13473,13473,13473,13473,13473,13473,13473,13473,13473,13473,13473,13473,13473,13473,13473,13473,13473,13473,13473,13473,13473,13473,13473,13473,13473,13473,13473,13473,13473,13473,13473,13473,13473,13473,13473,13473,13473,13473,13473],"id":4},{"id":22,"name":"gate-ground","type":"tilelayer","width":30,"height":45,"x":0,"y":0,"opacity":1,"visible":true,"data":[3853,3854,3855,3856,3857,3858,3859,3860,3861,3862,3863,3864,3865,3866,3867,3868,3869,3870,3871,3872,3873,3874,3875,3876,3877,3878,3879,3880,3881,3882,3883,3884,3885,3886,3887,3888,3889,3890,3891,3892,3893,3894,3895,3896,3897,3898,3899,3900,3901,3902,3903,3904,3905,3906,3907,3908,3909,3910,3911,3912,3913,3914,3915,3916,3917,3918,3919,3920,3921,3922,3923,3924,3925,3926,3927,3928,3929,3930,3931,3932,3933,3934,3935,3936,3937,3938,3939,3940,3941,3942,3943,3944,3945,3946,3947,3948,3949,3950,3951,3952,3953,3954,3955,3956,3957,3958,3959,3960,3961,3962,3963,3964,3965,3966,3967,3968,3969,3970,3971,3972,3973,3974,3975,3976,3977,3978,3979,3980,3981,3982,3983,3984,3985,3986,3987,3988,3989,3990,3991,3992,3993,3994,3995,3996,3997,3998,3999,4000,4001,4002,4003,4004,4005,4006,4007,4008,4009,4010,4011,4012,4013,4014,4015,4016,4017,4018,4019,4020,4021,4022,4023,4024,4025,4026,4027,4028,4029,4030,4031,4032,4033,4034,4035,4036,4037,4038,4039,4040,4041,4042,4043,4044,4045,4046,4047,4048,4049,4050,4051,4052,4053,4054,4055,4056,4057,4058,4059,4060,4061,4062,4063,4064,4065,4066,4067,4068,4069,4070,4071,4072,4073,4074,4075,4076,4077,4078,4079,4080,4081,4082,4083,4084,4085,4086,4087,4088,4089,4090,4091,4092,4093,4094,4095,4096,4097,4098,4099,4100,4101,4102,4103,4104,4105,4106,4107,4108,4109,4110,4111,4112,4113,4114,4115,4116,4117,4118,4119,4120,4121,4122,4123,4124,4125,4126,4127,4128,4129,4130,4131,4132,4133,4134,4135,4136,4137,4138,4139,4140,4141,4142,4143,4144,4145,4146,4147,4148,4149,4150,4151,4152,4153,4154,4155,4156,4157,4158,4159,4160,4161,4162,4163,4164,4165,4166,4167,4168,4169,4170,4171,4172,4173,4174,4175,4176,4177,4178,4179,4180,4181,4182,4183,4184,4185,4186,4187,4188,4189,4190,4191,4192,4193,4194,4195,4196,4197,4198,4199,4200,4201,4202,4203,4204,4205,4206,4207,4208,4209,4210,4211,4212,4213,4214,4215,4216,4217,4218,4219,4220,4221,4222,4223,4224,4225,4226,4227,4228,4229,4230,4231,4232,4233,4234,4235,4236,4237,4238,4239,4240,4241,4242,4243,4244,4245,4246,4247,4248,4249,4250,4251,4252,4253,4254,4255,4256,4257,4258,4259,4260,4261,4262,4263,4264,4265,4266,4267,4268,4269,4270,4271,4272,4273,4274,4275,4276,4277,4278,4279,4280,4281,4282,4283,4284,4285,4286,4287,4288,4289,4290,4291,4292,4293,4294,4295,4296,4297,4298,4299,4300,4301,4302,4303,4304,4305,4306,4307,4308,4309,4310,4311,4312,4313,4314,4315,4316,4317,4318,4319,4320,4321,4322,4323,4324,4325,4326,4327,4328,4329,4330,4331,4332,4333,4334,4335,4336,4337,4338,4339,4340,4341,4342,4343,4344,4345,4346,4347,4348,4349,4350,4351,4352,4353,4354,4355,4356,4357,4358,4359,4360,4361,4362,4363,4364,4365,4366,4367,4368,4369,4370,4371,4372,4373,4374,4375,4376,4377,4378,4379,4380,4381,4382,4383,4384,4385,4386,4387,4388,4389,4390,4391,4392,4393,4394,4395,4396,4397,4398,4399,4400,4401,4402,4403,4404,4405,4406,4407,4408,4409,4410,4411,4412,4413,4414,4415,4416,4417,4418,4419,4420,4421,4422,4423,4424,4425,4426,4427,4428,4429,4430,4431,4432,4433,4434,4435,4436,4437,4438,4439,4440,4441,4442,4443,4444,4445,4446,4447,4448,4449,4450,4451,4452,4453,4454,4455,4456,4457,4458,4459,4460,4461,4462,4463,4464,4465,4466,4467,4468,4469,4470,4471,4472,4473,4474,4475,4476,4477,4478,4479,4480,4481,4482,4483,4484,4485,4486,4487,4488,4489,4490,4491,4492,4493,4494,4495,4496,4497,4498,4499,4500,4501,4502,4503,4504,4505,4506,4507,4508,4509,4510,4511,4512,4513,4514,4515,4516,4517,4518,4519,4520,4521,4522,4523,4524,4525,4526,4527,4528,4529,4530,4531,4532,4533,4534,4535,4536,4537,4538,4539,4540,4541,4542,4543,4544,4545,4546,4547,4548,4549,4550,4551,4552,4553,4554,4555,4556,4557,4558,4559,4560,4561,4562,4563,4564,4565,4566,4567,4568,4569,4570,4571,4572,4573,4574,4575,4576,4577,4578,4579,4580,4581,4582,4583,4584,4585,4586,4587,4588,4589,4590,4591,4592,4593,4594,4595,4596,4597,4598,4599,4600,4601,4602,4603,4604,4605,4606,4607,4608,4609,4610,4611,4612,4613,4614,4615,4616,4617,4618,4619,4620,4621,4622,4623,4624,4625,4626,4627,4628,4629,4630,4631,4632,4633,4634,4635,4636,4637,4638,4639,4640,4641,4642,4643,4644,4645,4646,4647,4648,4649,4650,4651,4652,4653,4654,4655,4656,4657,4658,4659,4660,4661,4662,4663,4664,4665,4666,4667,4668,4669,4670,4671,4672,4673,4674,4675,4676,4677,4678,4679,4680,4681,4682,4683,4684,4685,4686,4687,4688,4689,4690,4691,4692,4693,4694,4695,4696,4697,4698,4699,4700,4701,4702,4703,4704,4705,4706,4707,4708,4709,4710,4711,4712,4713,4714,4715,4716,4717,4718,4719,4720,4721,4722,4723,4724,4725,4726,4727,4728,4729,4730,4731,4732,4733,4734,4735,4736,4737,4738,4739,4740,4741,4742,4743,4744,4745,4746,4747,4748,4749,4750,4751,4752,4753,4754,4755,4756,4757,4758,4759,4760,4761,4762,4763,4764,4765,4766,4767,4768,4769,4770,4771,4772,4773,4774,4775,4776,4777,4778,4779,4780,4781,4782,4783,4784,4785,4786,4787,4788,4789,4790,4791,4792,4793,4794,4795,4796,4797,4798,4799,4800,4801,4802,4803,4804,4805,4806,4807,4808,4809,4810,4811,4812,4813,4814,4815,4816,4817,4818,4819,4820,4821,4822,4823,4824,4825,4826,4827,4828,4829,4830,4831,4832,4833,4834,4835,4836,4837,4838,4839,4840,4841,4842,4843,4844,4845,4846,4847,4848,4849,4850,4851,4852,4853,4854,4855,4856,4857,4858,4859,4860,4861,4862,4863,4864,4865,4866,4867,4868,4869,4870,4871,4872,4873,4874,4875,4876,4877,4878,4879,4880,4881,4882,4883,4884,4885,4886,4887,4888,4889,4890,4891,4892,4893,4894,4895,4896,4897,4898,4899,4900,4901,4902,4903,4904,4905,4906,4907,4908,4909,4910,4911,4912,4913,4914,4915,4916,4917,4918,4919,4920,4921,4922,4923,4924,4925,4926,4927,4928,4929,4930,4931,4932,4933,4934,4935,4936,4937,4938,4939,4940,4941,4942,4943,4944,4945,4946,4947,4948,4949,4950,4951,4952,4953,4954,4955,4956,4957,4958,4959,4960,4961,4962,4963,4964,4965,4966,4967,4968,4969,4970,4971,4972,4973,4974,4975,4976,4977,4978,4979,4980,4981,4982,4983,4984,4985,4986,4987,4988,4989,4990,4991,4992,4993,4994,4995,4996,4997,4998,4999,5000,5001,5002,5003,5004,5005,5006,5007,5008,5009,5010,5011,5012,5013,5014,5015,5016,5017,5018,5019,5020,5021,5022,5023,5024,5025,5026,5027,5028,5029,5030,5031,5032,5033,5034,5035,5036,5037,5038,5039,5040,5041,5042,5043,5044,5045,5046,5047,5048,5049,5050,5051,5052,5053,5054,5055,5056,5057,5058,5059,5060,5061,5062,5063,5064,5065,5066,5067,5068,5069,5070,5071,5072,5073,5074,5075,5076,5077,5078,5079,5080,5081,5082,5083,5084,5085,5086,5087,5088,5089,5090,5091,5092,5093,5094,5095,5096,5097,5098,5099,5100,5101,5102,5103,5104,5105,5106,5107,5108,5109,5110,5111,5112,5113,5114,5115,5116,5117,5118,5119,5120,5121,5122,5123,5124,5125,5126,5127,5128,5129,5130,5131,5132,5133,5134,5135,5136,5137,5138,5139,5140,5141,5142,5143,5144,5145,5146,5147,5148,5149,5150,5151,5152,5153,5154,5155,5156,5157,5158,5159,5160,5161,5162,5163,5164,5165,5166,5167,5168,5169,5170,5171,5172,5173,5174,5175,5176,5177,5178,5179,5180,5181,5182,5183,5184,5185,5186,5187,5188,5189,5190,5191,5192,5193,5194,5195,5196,5197,5198,5199,5200,5201,5202]},{"id":28,"name":"gate-water","type":"tilelayer","width":30,"height":45,"x":0,"y":0,"opacity":1,"visible":true,"data":[0,0,0,0,0,0,0,0,0,0,0,0,0,0,0,0,0,0,0,0,0,0,0,0,0,0,13478,0,0,0,0,0,0,0,0,0,0,0,0,0,0,0,0,0,0,0,0,0,0,0,0,0,0,0,0,0,13502,0,0,0,0,0,0,0,0,0,0,0,0,0,0,0,0,0,0,0,0,0,0,0,0,0,0,0,0,13526,0,0,0,0,0,0,0,13550,0,0,0,0,0,0,0,0,0,0,0,0,0,0,0,0,0,0,0,0,0,13574,0,0,0,0,0,0,0,13598,0,0,0,0,0,0,0,0,0,0,0,0,0,0,0,0,0,0,0,0,0,13622,0,0,0,0,0,0,0,13646,0,0,13670,0,0,0,0,0,0,0,0,0,0,0,0,0,0,0,0,0,0,13694,0,13718,13742,0,0,0,0,13766,0,0,13790,0,0,0,0,0,0,0,0,0,0,0,0,0,0,0,0,0,0,0,0,13814,13838,0,0,0,13862,13886,0,0,13910,0,0,0,0,0,0,0,0,0,0,0,0,0,0,0,0,0,0,0,0,13934,13958,0,0,0,13982,14006,0,0,0,0,0,0,0,0,0,0,0,0,0,0,0,0,0,0,0,0,0,0,0,14030,14054,0,0,0,14078,14102,0,0,0,0,0,0,0,0,0,0,0,0,0,0,0,0,0,0,0,0,0,0,0,0,0,0,0,0,0,0,0,0,0,0,0,0,0,0,0,0,0,0,0,0,0,0,0,0,0,0,0,0,0,0,0,0,0,0,0,0,0,0,0,0,0,0,0,0,0,0,0,0,0,0,0,0,0,0,14126,0,0,0,0,0,0,0,0,0,0,0,0,0,0,14150,0,0,0,0,0,0,0,0,0,0,0,0,0,0,14174,0,0,0,0,0,0,0,0,0,0,14198,14222,0,0,14246,0,0,0,0,0,0,0,0,0,0,0,0,0,0,14270,14294,0,14318,14342,0,0,0,0,0,0,14366,14390,0,0,14414,0,0,0,0,0,0,0,0,0,0,0,0,0,0,14438,14462,0,14502,14526,0,0,0,0,0,0,14550,14574,0,0,0,0,0,0,0,0,0,0,0,0,0,0,0,0,0,0,0,0,14598,14622,0,0,0,0,0,0,14646,14670,0,0,0,0,0,0,0,0,0,0,0,0,0,0,0,0,0,0,0,0,14694,14718,0,0,0,0,0,0,0,0,0,0,0,0,0,0,0,0,0,0,0,0,0,0,0,0,0,0,0,0,0,0,0,0,0,0,0,0,0,14742,0,0,0,0,0,0,0,0,0,0,0,0,0,0,0,0,0,0,0,0,14766,0,0,0,0,0,0,0,0,14790,0,0,0,0,0,0,0,0,0,0,0,0,0,0,0,0,0,0,0,0,14814,0,0,0,0,0,0,0,0,0,0,0,0,0,0,0,0,0,0,0,0,0,0,0,0,0,0,0,0,0,0,0,0,0,0,0,0,0,0,14838,14862,0,0,0,0,0,0,0,0,0,0,0,0,0,0,0,0,0,0,14886,14910,0,0,0,0,0,0,0,0,14934,14958,0,0,0,0,0,0,0,0,0,0,0,0,0,0,0,0,0,0,14982,15006,0,0,0,0,0,0,0,0,15030,15054,0,0,0,0,0,0,0,0,0,0,0,0,0,0,0,0,0,0,15078,15102,0,0,0,0,0,0,0,0,0,0,0,0,0,0,0,0,0,0,0,0,0,0,0,0,0,0,0,0,0,0,0,0,0,0,0,0,0,0,0,0,0,0,0,0,0,0,0,0,0,0,0,0,0,0,0,0,0,0,0,0,0,0,0,0,0,0,0,0,15126,15150,0,0,0,0,0,0,0,0,0,0,0,0,0,0,0,0,0,0,15174,15198,0,0,0,0,0,0,0,0,15222,15246,0,0,0,0,0,0,0,0,0,0,0,0,0,0,0,0,0,0,15270,15294,0,0,0,0,0,0,0,0,15318,15342,0,0,0,0,0,0,0,0,0,0,0,0,0,0,0,0,0,0,15366,15390,0,0,0,0,0,0,0,0,15414,15438,0,0,0,0,0,0,0,0,0,0,0,0,0,0,0,0,0,0,15462,15486,0,0,0,0,0,0,0,0,0,0,0,0,0,0,0,0,0,0,0,0,0,0,0,0,0,0,0,0,0,0,0,0,0,0,0,0,0,0,0,0,0,0,0,0,0,0,0,0,0,0,0,0,0,0,0,0,0,0,0,0,0,0,0,0,0,0,0,0,0,0,0,0,0,0,0,0,0,0,0,0,0,0,0,0,0,0,0,0,0,0,0,0,0,0,0,0,0,0,0,0,0,0,0,0,0,0,0,0,0,0,0,0,0,0,0,0,0,0,0,0,0,0,0,0,0,0,0,0,0,15526,0,0,0,0,0,0,0,0,0,0,0,0,0,0,0,0,0,0,15550,0,0,0,0,0,0,0,0,0,0,15574,0,0,0,0,0,0,0,0,0,0,0,0,0,0,0,0,0,0,15598,0,0,0,0,0,0,0,0,0,0,15622,15646,0,0,0,0,0,0,0,0,0,0,0,0,0,0,0,0,0,15670,0,0,0,0,0,0,0,0,0,0,15694,15718,0,0,0,0,0,0,0,0,0,0,0,0,0,0,0,0,15742,15766,0,0,0,0,0,0,0,0,0,0,15790,15814,0,0,0,0,0,0,0,0,0,0,0,0,0,0,0,0,15838,15862,0,0,0,0,0,0,0,0,0,0,0,0,0,0,0,0,0,0,0,0,0,0,0,0,0,0,0,0,0,0,0,0,0,0,0,0,0,0,0,0,0,0,0,0,0,0,0,0,0,0,0,0,0,0,0,0,0,0,0,0,0,0,0,0,0,0,0,0,0,0,0,0,0,0,0,0,0,0,0,0,0,0,0,0,0,0,0,0,0,0,0,0,0,0,0,0,0,0,0,0,0,0,0,0,0,0,0,0,0,0,0,0,0,0,0,0,0,0,0,0,0,0,0,0,0,0,0,0,0,0,0,0,0,0,0,0,0,0,0,0,0,0,0,0,0,0,0,0,0,0,0,0,0,0,0,0,0,0,0,0,0,0,0,0,0,0,0,0,0,0,0,0,0,0,0,0,0,0,0,0,0,0,0,0,0],"properties":[{"name":"reducedMotionHide","type":"bool","value":true}]},{"id":52,"name":"gate-water-splashes","type":"tilelayer","width":30,"height":45,"x":0,"y":0,"opacity":1,"visible":true,"data":[0,0,0,0,0,0,0,0,0,0,0,0,0,0,0,0,0,0,0,0,0,0,0,0,0,0,0,0,0,0,0,0,0,0,0,0,0,0,0,0,0,0,0,0,0,0,0,0,0,0,0,0,0,0,0,0,0,0,0,0,0,0,0,0,0,0,0,0,0,0,0,0,0,0,0,0,0,0,0,0,0,0,0,0,0,0,0,0,0,0,0,0,0,0,0,0,0,0,0,0,0,0,0,0,0,0,0,0,0,0,0,0,0,0,0,0,0,0,0,0,0,0,0,0,0,0,0,0,0,0,0,0,0,0,0,0,0,0,0,0,0,0,0,0,0,0,0,0,0,0,0,0,0,0,0,0,0,0,0,0,0,0,0,0,0,0,0,0,0,0,0,0,0,0,0,0,0,0,0,0,0,0,0,0,0,0,0,0,0,0,0,0,0,0,0,0,0,0,0,0,0,0,0,0,0,0,0,0,0,0,0,0,0,0,0,0,0,0,0,0,0,0,0,0,0,0,0,0,0,0,0,0,0,0,0,0,0,0,0,0,0,0,0,0,0,0,0,0,0,0,0,0,0,0,0,0,0,0,0,0,0,0,0,0,0,0,0,0,0,0,0,0,0,0,0,0,0,0,0,0,0,0,0,0,0,0,0,0,0,0,0,0,0,0,0,0,0,0,0,0,0,0,0,0,0,0,0,0,0,0,0,0,0,0,0,0,0,0,0,0,0,0,0,0,0,0,0,0,0,0,0,0,0,0,0,0,0,0,0,0,0,0,0,0,0,0,0,0,0,0,0,0,0,0,0,0,0,0,0,0,0,0,0,0,0,0,0,0,0,0,0,0,0,0,0,0,0,0,0,0,0,0,0,0,0,0,0,0,0,0,0,0,0,0,0,0,0,0,0,0,0,0,0,0,0,0,0,0,0,0,0,0,0,0,0,0,0,0,0,0,0,0,0,0,0,0,15886,15910,0,0,0,0,0,0,0,0,0,0,0,0,0,0,15934,15958,0,0,0,0,0,0,0,0,0,0,0,0,0,0,0,0,0,0,0,0,0,0,0,0,0,0,0,0,0,0,0,0,0,0,0,0,0,0,0,15982,16006,0,0,0,0,0,0,0,0,0,0,0,0,0,0,0,0,0,0,0,0,16030,16054,0,0,0,0,0,0,0,0,0,0,0,0,0,0,0,0,0,0,0,0,0,0,0,0,0,0,0,0,0,0,0,0,0,0,0,0,0,0,0,0,0,0,0,0,0,0,0,0,0,0,0,0,0,0,0,0,0,0,0,0,0,0,0,0,0,0,16078,16102,16126,0,0,0,0,0,0,0,0,0,0,0,0,0,0,0,0,0,0,16150,16174,16198,0,0,0,0,0,0,0,0,0,0,0,0,0,0,0,0,0,0,0,0,0,0,0,0,0,0,0,0,0,0,0,0,0,0,0,0,0,0,0,0,0,0,0,0,0,0,0,0,0,0,0,0,0,0,0,0,0,0,0,0,0,0,0,0,0,0,0,0,0,0,0,0,0,0,0,0,0,0,0,0,0,0,0,0,0,0,0,0,0,0,0,0,0,0,0,0,0,16222,16246,0,0,0,0,0,0,0,0,0,0,0,0,0,0,0,0,0,0,16270,16294,0,0,0,0,0,0,0,0,16318,16342,0,0,0,0,0,0,0,0,0,0,0,0,0,0,0,0,0,0,16366,16390,0,0,0,0,0,0,0,0,0,0,0,0,0,0,0,0,0,0,0,0,0,0,0,0,0,0,0,0,0,0,0,0,0,0,0,0,0,0,0,0,0,0,0,0,0,0,0,0,0,0,0,0,0,0,0,0,0,0,0,0,0,0,0,0,0,0,0,0,0,0,0,0,0,0,0,0,0,0,0,0,0,0,0,0,0,0,0,0,0,0,0,0,0,0,0,0,0,0,0,0,0,0,0,0,0,0,0,0,0,0,0,0,0,0,0,0,0,0,0,0,0,0,0,0,0,0,0,0,0,0,0,0,0,0,0,0,0,0,0,0,0,0,0,0,0,0,0,0,0,0,0,0,0,0,0,0,0,0,0,0,0,0,0,0,0,0,0,0,0,0,0,0,0,0,0,0,0,0,0,0,0,0,0,0,0,0,0,0,0,0,0,0,0,0,0,0,0,0,0,0,0,0,0,0,0,0,0,0,0,0,0,0,0,0,0,0,0,0,0,0,0,0,0,0,0,0,0,0,0,0,0,0,0,0,0,0,0,0,0,0,0,0,0,0,0,0,0,0,0,0,0,0,0,0,0,0,0,0,0,0,0,0,0,0,0,0,0,0,0,0,0,0,0,0,0,0,0,0,0,0,0,0,0,0,0,0,0,0,0,0,0,0,0,0,0,0,0,0,0,0,0,0,0,0,0,0,0,0,0,0,0,0,0,0,0,0,0,0,0,0,0,0,0,0,0,0,0,0,0,0,0,0,0,0,0,0,0,0,0,0,0,0,0,0,0,0,0,0,0,0,0,0,0,0,0,0,0,0,0,0,0,0,0,0,0,0,0,0,0,0,0,0,0,0,0,0,0,0,0,0,0,0,0,0,0,0,0,0,0,0,0,0,0,0,0,0,0,0,16414,16438,16462,0,0,0,0,0,0,0,0,0,0,0,0,0,0,0,0,16486,16510,16550,0,0,0,0,0,0,0,0,0,16574,0,0,0,0,0,0,0,0,0,0,0,0,0,0,0,0,0,0,16598,0,0,0,0,0,0,0,0,0,0,0,0,0,0,0,0,0,0,0,0,0,0,0,0,0,0,0,0,0,0,0,0,0,0,0,0,0,0,0,0,0,0,0,0,0,0,0,0,0,0,0,0,0,0,0,0,0,0,0,0,0,0,0,0,0,0,0,0,0,0,0,0,0,0,0,0,0,0,0,0,0,0,0,0,0,0,0,0,0,0,0,0,0,0,0,0,0,0,0,0,0,0,0,0,0,0,0,0,0,0,0,0,0,0,0,0,0,0,0,0,0,0,0,0,0,0,0,0,0,0,0,0,0,0,0,0,0,0,0,0,0,0,0,0,0,0,0,0,0,0,0,0,0,0,0],"properties":[{"name":"reducedMotionHide","type":"bool","value":true}]},{"id":53,"name":"gate-water-pool-ripples","type":"tilelayer","width":30,"height":45,"x":0,"y":0,"opacity":1,"visible":true,"data":[0,0,0,0,0,0,0,0,0,0,0,0,0,0,0,0,0,0,0,0,0,0,0,0,0,0,0,0,0,0,0,0,0,0,0,0,0,0,0,0,0,0,0,0,0,0,0,0,0,0,0,0,0,0,0,0,0,0,0,0,0,0,0,0,0,0,0,0,0,0,0,0,0,0,0,0,0,0,0,0,0,0,0,0,0,0,0,0,0,0,0,0,0,0,0,0,0,0,0,0,0,0,0,0,0,0,0,0,0,0,0,0,0,0,0,0,0,0,0,0,0,0,0,0,0,0,0,0,0,0,0,0,0,0,0,0,0,0,0,0,0,0,0,0,0,0,0,0,0,0,0,0,0,0,0,0,0,0,0,0,0,0,0,0,0,0,0,0,0,0,0,0,0,0,0,0,0,0,0,0,0,0,0,0,0,0,0,0,0,0,0,0,0,0,0,0,0,0,0,0,0,0,0,0,0,0,0,0,0,0,0,0,0,0,0,0,0,0,0,0,0,0,0,0,0,0,0,0,0,0,0,0,0,0,0,0,0,0,0,0,0,0,0,0,0,0,0,0,0,0,0,0,0,0,0,0,0,0,0,0,0,0,0,0,0,0,0,0,0,0,0,0,0,0,0,0,0,0,0,0,0,0,0,0,0,0,0,0,0,0,0,0,0,0,0,0,0,0,0,0,0,0,0,0,0,0,0,0,0,0,0,0,0,0,0,0,0,0,0,0,0,0,0,0,0,0,0,0,0,0,0,0,0,0,0,0,0,0,0,0,0,0,0,0,0,0,0,0,0,0,0,0,0,0,0,0,0,0,0,0,0,0,0,0,0,0,0,0,0,0,0,0,0,0,0,0,0,0,0,0,0,0,0,0,0,0,0,0,0,0,0,0,0,0,0,0,0,0,0,0,0,0,0,0,0,0,0,0,0,0,0,0,0,0,0,0,0,0,0,0,0,0,0,0,0,0,0,0,0,0,0,0,0,0,0,0,0,0,0,0,0,0,0,0,0,0,0,0,0,0,0,0,0,0,0,0,0,0,0,0,0,0,0,0,0,0,0,0,0,0,0,0,0,0,0,0,0,0,0,0,0,0,0,0,0,0,0,0,0,0,0,0,0,0,0,0,0,0,0,0,0,0,0,0,0,0,0,0,0,0,0,0,0,0,0,0,0,0,0,0,0,0,0,0,0,0,0,0,0,0,0,0,0,0,0,0,0,0,0,0,0,0,0,0,0,0,0,0,0,0,0,0,0,0,0,0,0,0,0,0,0,0,0,0,0,0,0,0,0,0,0,0,0,16622,16646,16670,0,0,0,0,0,0,0,0,0,0,0,0,0,0,0,0,0,0,16694,16718,16742,0,0,0,0,0,0,16766,16790,16814,16838,0,0,0,0,0,0,0,0,0,0,0,0,0,0,0,0,0,16862,16886,16910,0,0,0,0,0,0,0,0,0,0,0,0,0,0,0,0,0,0,0,0,0,0,0,0,0,0,0,0,0,0,0,0,0,0,0,0,0,0,0,0,0,0,0,0,0,0,0,0,0,0,0,0,0,0,0,0,0,0,0,0,0,0,0,0,0,0,0,16934,16958,0,0,0,0,0,0,0,0,0,0,0,0,0,0,0,0,0,0,16982,0,0,0,0,0,0,0,0,17006,17030,17054,17078,17102,0,0,0,0,0,0,0,0,0,0,0,0,0,0,0,17126,17150,17174,17198,0,0,0,0,0,0,17222,17246,17270,17294,17318,0,0,0,0,0,0,0,0,0,0,0,0,0,0,0,17342,17366,17390,17414,0,0,0,0,0,0,0,17438,17462,0,0,0,0,0,0,0,0,0,0,0,0,0,0,0,0,0,0,17486,17510,0,0,0,0,0,0,0,0,0,0,0,0,0,0,0,0,0,0,0,0,0,0,0,0,0,0,0,0,0,0,0,0,0,0,0,0,0,0,0,0,0,0,0,0,0,0,0,0,0,0,0,0,0,0,0,0,0,0,0,0,0,0,0,0,0,0,0,0,0,0,0,0,0,0,0,0,0,0,0,0,0,0,0,0,0,0,0,0,0,0,0,0,0,0,0,0,0,0,0,0,0,0,0,0,0,0,0,0,0,0,0,0,0,0,0,0,0,0,0,0,0,0,0,0,0,0,0,0,0,0,0,0,0,0,0,0,0,0,0,0,0,0,0,0,0,0,0,0,0,0,0,0,0,0,0,0,0,0,17534,17574,0,0,0,0,0,0,0,0,0,0,0,0,0,0,0,0,0,0,0,0,0,0,0,0,0,0,17598,17622,17646,17670,17694,0,0,0,0,0,0,0,0,0,0,0,0,0,0,0,0,17718,17742,17766,17790,17814,0,0,0,0,0,17838,17862,17886,17910,0,0,0,0,0,0,0,0,0,0,0,0,0,0,0,0,17934,17958,17982,18006,0,0,0,0,0,0,0,0,0,0,0,0,0,0,0,0,0,0,0,0,0,0,0,0,0,0,0,0,0,0,0,0,0,0,0,0,0,0,0,0,0,0,0,0,0,0,0,0,0,0,0,0,0,0,0,0,0,0,0,0,0,0,0,0,0,0,0,0,0,0,0,0,0,0,0,0,0,0,0,0,0,0,0,0,0,0,0,0,0,0,0,0,0,0,0,0,0,0,0,0,0,0,0,0,0,0,0,0,0,0,0,0,0,0,0,0,0,0,0,0,0,0,0,0,0,0,0,0,0,0,0,0,0,0,0,0,0,0,0,0,0,0,0,0,0,0,0,0,0,0,0,0,0,0,0,18030,18054,18078,18102,18126,0,0,0,0,0,0,0,0,0,0,0,0,0,0,0,0,0,18150,18174,18198,18222,0,0,0,18246,18270,18294,18318,18342,18366,0,0,0,0,0,0,0,0,0,0,0,0,0,0,0,0,18390,18414,18438,18462,18486,18510,0,0,18534,18558,18598,18622,18646,18670,0,0,0,0,0,0,0,0,0,0,0,0,0,0,0,0,18694,18718,18742,18766,18790,18814,0,0,0,18838,18862,18886,18910,0,0,0,0,0,0,0,0,0,0,0,0,0,0,0,0,0,0,18934,18958,18982,19006,0,0,0,0,0,0,0,0,0,0,0,0,0,0,0,0,0,0,0,0,0,0,0,0,0,0,0,0,0,0,0,0],"properties":[{"name":"reducedMotionHide","type":"bool","value":true}]},{"id":29,"name":"gate-butterflies","type":"tilelayer","width":30,"height":45,"x":0,"y":0,"opacity":1,"visible":true,"data":[0,0,0,0,0,0,0,0,0,0,0,0,0,0,0,0,0,0,0,0,0,0,0,0,0,0,0,0,0,0,0,0,0,0,0,0,0,0,0,0,0,0,0,0,0,0,0,0,0,0,0,0,0,0,0,0,0,0,0,0,0,0,0,0,0,0,0,0,0,0,0,0,0,0,0,0,0,0,0,0,0,0,0,0,0,0,0,0,0,0,0,0,0,0,0,0,0,0,0,0,0,0,0,0,0,0,0,0,0,0,0,0,0,0,0,0,0,0,0,0,0,0,0,0,0,0,0,0,0,0,0,0,0,0,0,0,0,0,0,0,0,0,0,0,0,0,0,0,0,0,0,0,0,0,0,0,0,0,0,0,0,0,0,0,0,0,0,0,0,0,0,0,0,0,0,0,0,0,0,0,0,0,0,0,0,0,0,0,0,0,0,0,0,0,0,0,0,0,0,0,0,0,0,0,0,0,0,0,0,0,0,0,0,0,0,0,0,0,0,0,0,0,0,0,0,0,0,0,0,0,0,0,0,0,0,0,0,0,0,0,0,0,0,0,0,0,0,0,0,0,0,0,0,0,0,0,0,0,0,0,0,0,0,0,0,0,0,0,0,0,0,0,0,0,0,0,0,0,0,0,0,0,0,0,0,0,0,0,0,0,0,0,0,0,0,0,0,0,0,0,0,0,0,0,0,0,0,0,0,0,0,0,0,0,0,0,0,0,0,0,0,0,0,0,0,0,0,0,0,0,0,0,0,0,0,0,0,0,0,0,0,0,0,0,0,0,0,0,0,0,0,0,0,0,0,0,0,0,0,0,0,0,0,0,0,0,0,0,0,0,0,0,0,0,0,0,0,0,0,0,0,0,0,0,0,0,0,0,0,0,0,0,0,0,0,0,0,0,0,0,0,0,0,0,0,0,0,0,0,0,0,0,0,0,0,0,0,0,0,0,0,0,0,0,0,0,0,0,0,0,0,0,0,0,0,0,0,0,0,0,0,0,0,0,0,0,0,0,0,0,0,0,0,0,0,0,0,0,0,0,0,0,0,0,9937,9967,0,0,0,0,0,0,0,0,0,0,0,0,0,0,0,0,0,0,0,0,0,0,0,0,0,0,0,0,10015,10063,0,0,0,0,0,0,0,0,0,0,0,0,0,0,0,0,0,0,0,0,0,0,0,0,0,0,0,0,10112,10162,0,0,0,0,0,0,0,0,0,0,0,0,0,0,0,0,0,0,0,0,0,0,0,0,0,0,0,0,10208,10259,0,0,0,0,0,0,0,0,0,0,0,0,0,0,0,0,0,0,0,0,0,0,0,0,0,0,0,0,10306,10358,10363,0,0,0,0,0,0,0,0,0,0,0,0,0,0,0,0,0,0,0,0,0,0,0,0,0,0,0,10447,10492,10368,0,0,0,0,0,0,0,0,0,0,0,0,0,0,0,0,0,0,0,0,0,0,0,0,0,0,0,10532,10574,10373,0,0,0,0,0,0,0,0,0,0,0,0,0,0,0,0,0,0,0,0,0,0,0,0,0,0,0,10612,10652,10658,0,0,0,0,0,0,0,0,0,0,0,0,0,0,0,0,0,0,0,0,0,0,0,0,0,0,0,10693,10725,10735,0,0,0,0,0,0,0,0,0,0,0,0,0,0,0,0,0,0,0,0,0,0,0,0,0,0,10382,10767,10797,10399,0,0,0,0,0,0,0,0,0,0,0,0,0,0,0,0,0,0,0,0,0,0,0,0,0,0,10810,10843,10878,10898,0,0,0,0,0,0,0,0,0,0,0,0,0,0,0,0,0,0,0,0,0,0,0,0,0,0,10915,10942,10976,10996,0,0,0,0,0,0,0,0,0,0,0,0,0,0,0,0,0,0,0,0,0,0,0,0,0,10998,11015,11035,11072,11094,0,0,0,0,0,0,0,0,0,0,0,0,0,0,0,0,0,0,0,0,0,0,0,0,0,11105,11122,11134,11167,11188,0,0,0,0,0,0,0,0,0,0,0,0,0,0,0,0,0,0,0,0,0,0,0,0,0,11202,11219,11226,11260,11283,11286,0,0,0,0,0,0,0,0,0,0,0,0,0,0,0,0,0,0,0,0,0,0,0,0,11301,11316,11323,11354,11375,11382,0,0,0,0,0,0,0,0,0,0,0,0,0,0,0,0,0,0,0,0,0,0,0,0,11396,11409,11418,11458,11477,11486,0,0,0,0,0,0,0,0,0,0,0,0,0,0,0,0,0,0,0,0,0,0,0,0,11498,11507,11518,11547,11559,11567,11421,0,0,0,0,0,0,0,0,0,0,0,0,0,0,0,0,0,0,0,0,0,0,0,11575,11587,11602,11628,11636,11645,11651,0,0,0,0,0,0,0,0,0,0,0,0,0,0,0,0,0,0,0,0,0,0,0,11659,11677,11698,11722,11729,11737,11744,0,0,0,0,0,0,0,0,0,0,0,0,0,0,0,0,0,0,0,0,0,0,0,11752,11775,11799,11823,11830,11836,11845,0,0,0,0,0,0,0,0,0,0,0,0,0,0,0,0,0,0,0,0,0,0,0,11853,11875,11898,11917,11926,11933,11941,0,0,0,0,0,0,0,0,0,0,0,0,0,0,0,0,0,0,0,0,0,0,0,11950,11975,11991,12002,12010,12020,12029,0,0,0,0,0,0,0,0,0,0,0,0,0,0,0,0,0,0,0,0,0,0,0,12040,12066,12079,12088,12100,12113,12122,0,0,0,0,0,0,0,0,0,0,0,0,0,0,0,0,0,0,0,0,0,0,0,12136,12164,12172,12180,12190,12207,12214,0,0,0,0,0,0,0,0,0,0,0,0,0,0,0,0,0,0,0,0,0,0,0,12228,12253,12262,12266,12274,12289,12298,0,0,0,0,0,0,0,0,0,0,0,0,0,0,0,0,0,0,0,0,0,0,0,12310,12321,12327,0,12334,12345,12350,0,0,0,0,0,0,0,0,0,0,0,0,0,0,0,0,0,0,0,0,0,0,0,0,0,0,0,0,0,11423,0,0,0,0,0,0,0,0,0,0,0,0,0,0,0,0,0,0,0,0,0,0,0,0,0,0,0,0,0,0,0,0,0,0,0,0,0,0,0,0,0,0,0,0,0,0,0,0,0,0,0,0,0,0,0,0,0,0,0,0,0,0,0,0,0,0,0,0,0,0,0],"properties":[{"name":"reducedMotionHide","type":"bool","value":true},{"name":"journeyDurationMs","type":"int","value":7200},{"name":"direction","type":"string","value":"arrival-to-portal"}]},{"id":30,"name":"gate-portal-shimmer","type":"tilelayer","width":30,"height":45,"x":0,"y":0,"opacity":1,"data":[0,0,0,0,0,0,0,0,0,0,0,0,0,0,0,0,0,0,0,0,0,0,0,0,0,0,0,0,0,0,0,0,0,0,0,0,0,0,0,0,0,0,0,0,0,0,0,0,0,0,0,0,0,0,0,0,0,0,0,0,0,0,0,0,0,0,0,0,0,0,0,0,0,0,0,0,0,0,0,0,0,0,0,0,0,0,0,0,0,0,0,0,0,0,0,0,0,0,0,0,0,0,0,0,0,0,0,0,0,0,0,0,0,0,0,0,0,0,0,0,0,0,0,0,0,0,0,0,0,0,0,0,0,0,0,0,0,0,0,0,0,0,0,0,0,0,0,0,0,0,0,0,0,0,0,0,0,0,0,0,0,0,0,0,0,0,0,0,0,0,0,0,0,0,0,0,0,0,0,0,0,0,0,0,0,0,0,0,0,0,0,0,0,0,0,0,0,0,0,0,0,0,0,0,0,0,0,0,0,0,0,0,0,0,0,0,0,0,0,0,0,0,0,0,0,0,0,0,0,0,0,0,0,0,0,0,0,0,0,0,0,0,0,0,0,0,0,0,0,0,0,0,12355,12369,12379,12389,12404,12407,0,0,0,0,0,0,0,0,0,0,0,0,0,0,0,0,0,0,0,0,0,0,0,0,12415,12435,12466,12480,12502,12448,0,0,0,0,0,0,0,0,0,0,0,0,0,0,0,0,0,0,0,0,0,0,0,0,12510,12526,12543,12556,12578,12593,0,0,0,0,0,0,0,0,0,0,0,0,0,0,0,0,0,0,0,0,0,0,0,0,12606,12625,12641,12654,12673,12682,0,0,0,0,0,0,0,0,0,0,0,0,0,0,0,0,0,0,0,0,0,0,0,0,12700,12713,12725,12737,12752,12761,0,0,0,0,0,0,0,0,0,0,0,0,0,0,0,0,0,0,0,0,0,0,0,0,12774,12790,12802,12813,12824,12831,0,0,0,0,0,0,0,0,0,0,0,0,0,0,0,0,0,0,0,0,0,0,0,0,12841,12863,12876,12888,12899,12907,0,0,0,0,0,0,0,0,0,0,0,0,0,0,0,0,0,0,0,0,0,0,0,0,12913,12925,12937,12948,12958,12964,0,0,0,0,0,0,0,0,0,0,0,0,0,0,0,0,0,0,0,0,0,0,0,0,12966,0,12968,12972,12974,0,0,0,0,0,0,0,0,0,0,0,0,0,0,0,0,0,0,0,0,0,0,0,0,0,0,0,0,0,0,0,0,0,0,0,0,0,0,0,0,0,0,0,0,0,0,0,0,0,0,0,0,0,0,0,0,0,0,0,0,0,0,0,0,0,0,0,0,0,0,0,0,0,0,0,0,0,0,0,0,0,0,0,0,0,0,0,0,0,0,0,0,0,0,0,0,0,0,0,0,0,0,0,0,0,0,0,0,0,0,0,0,0,0,0,0,0,0,0,0,0,0,0,0,0,0,0,0,0,0,0,0,0,0,0,0,0,0,0,0,0,0,0,0,0,0,0,0,0,0,0,0,0,0,0,0,0,0,0,0,0,0,0,0,0,0,0,0,0,0,0,0,0,0,0,0,0,0,0,0,0,0,0,0,0,0,0,0,0,0,0,0,0,0,0,0,0,0,0,0,0,0,0,0,0,0,0,0,0,0,0,0,0,0,0,0,0,0,0,0,0,0,0,0,0,0,0,0,0,0,0,0,0,0,0,0,0,0,0,0,0,0,0,0,0,0,0,0,0,0,0,0,0,0,0,0,0,0,0,0,0,0,0,0,0,0,0,0,0,0,0,0,0,0,0,0,0,0,0,0,0,0,0,0,0,0,0,0,0,0,0,0,0,0,0,0,0,0,0,0,0,0,0,0,0,0,0,0,0,0,0,0,0,0,0,0,0,0,0,0,0,0,0,0,0,0,0,0,0,0,0,0,0,0,0,0,0,0,0,0,0,0,0,0,0,0,0,0,0,0,0,0,0,0,0,0,0,0,0,0,0,0,0,0,0,0,0,0,0,0,0,0,0,0,0,0,0,0,0,0,0,0,0,0,0,0,0,0,0,0,0,0,0,0,0,0,0,0,0,0,0,0,0,0,0,0,0,0,0,0,0,0,0,0,0,0,0,0,0,0,0,0,0,0,0,0,0,0,0,0,0,0,0,0,0,0,0,0,0,0,0,0,0,0,0,0,0,0,0,0,0,0,0,0,0,0,0,0,0,0,0,0,0,0,0,0,0,0,0,0,0,0,0,0,0,0,0,0,0,0,0,0,0,0,0,0,0,0,0,0,0,0,0,0,0,0,0,0,0,0,0,0,0,0,0,0,0,0,0,0,0,0,0,0,0,0,0,0,0,0,0,0,0,0,0,0,0,0,0,0,0,0,0,0,0,0,0,0,0,0,0,0,0,0,0,0,0,0,0,0,0,0,0,0,0,0,0,0,0,0,0,0,0,0,0,0,0,0,0,0,0,0,0,0,0,0,0,0,0,0,0,0,0,0,0,0,0,0,0,0,0,0,0,0,0,0,0,0,0,0,0,0,0,0,0,0,0,0,0,0,0,0,0,0,0,0,0,0,0,0,0,0,0,0,0,0,0,0,0,0,0,0,0,0,0,0,0,0,0,0,0,0,0,0,0,0,0,0,0,0,0,0,0,0,0,0,0,0,0,0,0,0,0,0,0,0,0,0,0,0,0,0,0,0,0,0,0,0,0,0,0,0,0,0,0,0,0,0,0,0,0,0,0,0,0,0,0,0,0,0,0,0,0,0,0,0,0,0,0,0,0,0,0,0,0,0,0,0,0,0,0,0,0,0,0,0,0,0,0,0,0,0,0,0,0,0,0,0,0,0,0,0,0,0,0,0,0,0,0,0,0,0,0,0,0,0,0,0,0,0,0,0,0,0,0,0,0,0,0,0,0,0,0,0,0,0,0,0,0,0,0,0,0,0,0,0,0,0,0,0,0,0,0,0,0,0,0,0,0,0,0,0,0,0,0,0,0,0,0,0,0,0,0,0,0,0,0,0,0,0,0,0,0,0,0,0,0,0,0,0,0,0,0,0,0,0,0,0,0,0,0,0,0,0,0,0,0,0,0,0,0,0,0],"visible":true,"properties":[{"name":"reducedMotionHide","type":"bool","value":true}]},{"id":31,"name":"gate-portal-ripples","type":"tilelayer","width":30,"height":45,"x":0,"y":0,"opacity":1,"data":[0,0,0,0,0,0,0,0,0,0,0,0,0,0,0,0,0,0,0,0,0,0,0,0,0,0,0,0,0,0,0,0,0,0,0,0,0,0,0,0,0,0,0,0,0,0,0,0,0,0,0,0,0,0,0,0,0,0,0,0,0,0,0,0,0,0,0,0,0,0,0,0,0,0,0,0,0,0,0,0,0,0,0,0,0,0,0,0,0,0,0,0,0,0,0,0,0,0,0,0,0,0,0,0,0,0,0,0,0,0,0,0,0,0,0,0,0,0,0,0,0,0,0,0,0,0,0,0,0,0,0,0,0,0,0,0,0,0,0,0,0,0,0,0,0,0,0,0,0,0,0,0,0,0,0,0,0,0,0,0,0,0,0,0,0,0,0,0,0,0,0,0,0,0,0,0,0,0,0,0,0,0,0,0,0,0,0,0,0,0,0,0,0,0,0,0,0,0,0,0,0,0,0,0,0,0,0,0,0,0,0,0,0,0,0,0,0,0,0,0,0,0,0,0,0,0,0,0,0,0,0,0,0,0,0,0,0,0,0,0,0,0,0,0,0,0,0,0,0,0,0,0,0,0,0,0,0,0,0,0,0,0,0,0,0,0,0,0,0,0,0,0,0,0,0,0,0,0,0,0,0,0,0,0,0,0,0,0,0,0,0,0,0,0,0,0,0,0,0,0,0,0,0,0,0,0,0,0,0,0,0,0,0,0,0,0,0,0,0,0,0,0,0,0,0,0,0,0,0,0,0,0,0,0,0,0,0,0,0,0,0,0,0,0,0,0,0,0,0,0,0,0,0,0,0,0,0,0,0,0,0,0,0,0,0,0,0,0,0,0,0,0,0,0,0,0,0,0,0,0,0,0,0,0,0,0,0,0,0,0,0,0,0,0,0,0,0,0,0,0,0,0,0,0,12982,12990,0,0,0,0,0,0,0,0,0,0,0,0,0,0,0,0,0,0,0,0,0,0,0,0,0,0,0,13018,13047,13076,13099,0,0,0,0,0,0,0,0,0,0,0,0,0,0,0,0,0,0,0,0,0,0,0,0,0,13127,13156,13185,13214,13243,13265,0,0,0,0,0,0,0,0,0,0,0,0,0,0,0,0,0,0,0,0,0,0,0,0,13271,13278,13283,13288,13295,13302,0,0,0,0,0,0,0,0,0,0,0,0,0,0,0,0,0,0,0,0,0,0,0,0,0,0,0,0,0,0,0,0,0,0,0,0,0,0,0,0,0,0,0,0,0,0,0,0,0,0,0,0,0,0,0,0,0,0,0,0,0,0,0,0,0,0,0,0,0,0,0,0,0,0,0,0,0,0,0,0,0,0,0,0,0,0,0,0,0,0,0,0,0,0,0,0,0,0,0,0,0,0,0,0,0,0,0,0,0,0,0,0,0,0,0,0,0,0,0,0,0,0,0,0,0,0,0,0,0,0,0,0,0,0,0,0,0,0,0,0,0,0,0,0,0,0,0,0,0,0,0,0,0,0,0,0,0,0,0,0,0,0,0,0,0,0,0,0,0,0,0,0,0,0,0,0,0,0,0,0,0,0,0,0,0,0,0,0,0,0,0,0,0,0,0,0,0,0,0,0,0,0,0,0,0,0,0,0,0,0,0,0,0,0,0,0,0,0,0,0,0,0,0,0,0,0,0,0,0,0,0,0,0,0,0,0,0,0,0,0,0,0,0,0,0,0,0,0,0,0,0,0,0,0,0,0,0,0,0,0,0,0,0,0,0,0,0,0,0,0,0,0,0,0,0,0,0,0,0,0,0,0,0,0,0,0,0,0,0,0,0,0,0,0,0,0,0,0,0,0,0,0,0,0,0,0,0,0,0,0,0,0,0,0,0,0,0,0,0,0,0,0,0,0,0,0,0,0,0,0,0,0,0,0,0,0,0,0,0,0,0,0,0,0,0,0,0,0,0,0,0,0,0,0,0,0,0,0,0,0,0,0,0,0,0,0,0,0,0,0,0,0,0,0,0,0,0,0,0,0,0,0,0,0,0,0,0,0,0,0,0,0,0,0,0,0,0,0,0,0,0,0,0,0,0,0,0,0,0,0,0,0,0,0,0,0,0,0,0,0,0,0,0,0,0,0,0,0,0,0,0,0,0,0,0,0,0,0,0,0,0,0,0,0,0,0,0,0,0,0,0,0,0,0,0,0,0,0,0,0,0,0,0,0,0,0,0,0,0,0,0,0,0,0,0,0,0,0,0,0,0,0,0,0,0,0,0,0,0,0,0,0,0,0,0,0,0,0,0,0,0,0,0,0,0,0,0,0,0,0,0,0,0,0,0,0,0,0,0,0,0,0,0,0,0,0,0,0,0,0,0,0,0,0,0,0,0,0,0,0,0,0,0,0,0,0,0,0,0,0,0,0,0,0,0,0,0,0,0,0,0,0,0,0,0,0,0,0,0,0,0,0,0,0,0,0,0,0,0,0,0,0,0,0,0,0,0,0,0,0,0,0,0,0,0,0,0,0,0,0,0,0,0,0,0,0,0,0,0,0,0,0,0,0,0,0,0,0,0,0,0,0,0,0,0,0,0,0,0,0,0,0,0,0,0,0,0,0,0,0,0,0,0,0,0,0,0,0,0,0,0,0,0,0,0,0,0,0,0,0,0,0,0,0,0,0,0,0,0,0,0,0,0,0,0,0,0,0,0,0,0,0,0,0,0,0,0,0,0,0,0,0,0,0,0,0,0,0,0,0,0,0,0,0,0,0,0,0,0,0,0,0,0,0,0,0,0,0,0,0,0,0,0,0,0,0,0,0,0,0,0,0,0,0,0,0,0,0,0,0,0,0,0,0,0,0,0,0,0,0,0,0,0,0,0,0,0,0,0,0,0,0,0,0,0,0,0,0,0,0,0,0,0,0,0,0,0,0,0,0,0,0,0,0,0,0,0,0,0,0,0,0,0,0,0,0,0,0,0,0,0,0,0,0,0,0,0,0,0,0,0,0,0,0,0,0,0,0,0,0,0,0,0,0,0,0,0,0,0,0,0,0,0,0,0,0,0,0,0,0,0,0,0,0,0,0,0,0,0,0,0,0],"visible":true,"properties":[{"name":"reducedMotionHide","type":"bool","value":true}]},{"id":32,"name":"gate-lantern-pulse","type":"tilelayer","width":30,"height":45,"x":0,"y":0,"opacity":1,"data":[0,0,0,0,0,0,0,0,0,0,0,0,0,0,0,0,0,0,0,0,0,0,0,0,0,0,0,0,0,0,0,0,0,0,0,0,0,0,0,0,0,0,0,0,0,0,0,0,0,0,0,0,0,0,0,0,0,0,0,0,0,0,0,0,0,0,0,0,0,0,0,0,0,0,0,0,0,0,0,0,0,0,0,0,0,0,0,0,0,0,0,0,0,0,0,0,0,0,0,0,0,0,0,0,0,0,0,0,0,0,0,0,0,0,0,0,0,0,0,0,0,0,0,0,0,0,0,0,0,0,0,0,0,0,0,0,0,0,0,0,0,0,0,0,0,0,0,0,0,0,0,0,0,0,0,0,0,0,0,0,0,0,0,0,0,0,0,0,0,0,0,0,0,0,0,0,0,0,0,0,0,0,0,0,0,0,0,0,0,0,0,0,0,0,0,0,0,0,0,0,0,0,0,0,0,0,0,0,0,0,0,0,0,0,0,0,0,0,0,0,0,0,0,0,0,0,0,0,0,0,0,0,0,0,0,0,0,0,0,0,0,0,0,0,0,0,0,0,0,0,0,0,0,0,0,0,0,0,0,0,0,0,0,0,0,0,0,0,0,0,0,0,0,0,0,0,0,0,0,0,0,0,0,0,0,0,0,0,0,0,0,0,0,0,0,0,0,0,0,0,0,0,0,0,0,0,0,0,0,0,0,0,0,0,0,0,0,0,0,0,0,0,0,0,0,0,0,0,0,0,0,0,0,0,0,0,0,0,0,0,0,0,0,0,0,0,0,0,0,0,0,0,0,0,0,0,0,0,0,0,0,0,0,0,0,0,0,0,0,0,0,0,0,0,0,0,0,0,0,0,0,0,0,0,0,0,0,0,0,0,0,0,0,0,0,0,0,0,0,0,0,0,0,0,0,0,0,0,0,0,0,0,0,0,0,0,0,0,0,0,0,0,0,0,0,0,0,0,0,0,0,0,0,0,0,0,0,0,0,0,0,0,0,0,0,0,0,0,0,0,0,0,0,0,0,0,0,0,0,0,0,0,0,0,0,0,0,0,0,0,0,0,0,0,0,0,0,0,0,0,0,0,0,0,0,0,0,0,0,0,0,13311,13318,0,0,0,0,13323,13334,0,0,0,0,0,0,0,0,0,0,0,0,0,0,0,0,0,0,0,0,0,0,13338,0,0,0,0,0,0,13342,0,0,0,0,0,0,0,0,0,0,0,0,0,0,0,0,0,0,0,0,0,0,0,0,0,0,0,0,0,0,0,0,0,0,0,0,0,0,0,0,0,0,0,0,0,0,0,0,0,0,0,13353,13360,0,0,0,0,0,0,13367,13377,0,0,0,0,0,0,0,0,0,0,0,0,0,0,0,0,0,0,0,0,13388,13395,0,0,0,0,0,0,13402,13412,0,0,0,0,0,0,0,0,0,0,0,0,0,0,0,0,0,0,0,0,0,0,0,0,0,0,0,0,0,0,0,0,0,0,0,0,0,0,0,0,0,0,0,0,0,0,0,0,0,0,0,0,0,0,0,0,0,0,0,0,0,0,0,0,0,0,0,0,0,0,0,0,0,0,0,0,0,0,0,0,0,0,0,0,0,0,0,0,0,0,0,0,0,0,0,0,0,0,0,0,0,0,0,0,0,0,0,0,0,0,0,0,0,0,0,0,0,0,0,0,0,0,0,0,0,0,0,0,0,0,0,0,0,0,0,0,0,0,0,0,0,0,0,0,0,0,0,0,0,0,0,0,0,0,0,0,0,0,0,0,0,0,0,0,0,0,0,0,0,0,0,0,0,0,0,0,0,0,0,0,0,0,0,0,0,0,0,0,0,0,0,0,0,0,0,0,0,0,0,0,0,0,0,0,0,0,0,0,0,0,0,0,0,0,0,0,0,0,0,0,0,0,0,0,0,0,0,0,0,0,0,0,0,0,0,0,0,0,0,0,0,0,0,0,0,0,0,0,0,0,0,0,0,0,0,0,0,0,0,0,0,0,0,0,0,0,0,0,0,0,0,0,0,0,0,0,0,0,0,0,0,0,0,0,0,0,0,0,0,0,0,0,0,0,0,0,0,0,0,0,0,0,0,0,0,0,0,0,0,0,0,0,0,0,0,0,0,0,0,0,0,0,0,0,0,0,0,0,0,0,0,0,0,0,0,0,0,0,0,0,0,0,0,0,0,0,0,0,0,0,0,0,0,0,0,0,0,0,0,0,0,0,0,0,0,0,0,0,0,0,0,0,0,0,0,0,0,0,0,0,0,0,0,0,0,0,0,0,0,0,0,0,0,0,0,0,0,0,0,0,0,0,0,0,0,0,0,0,0,0,0,0,0,0,0,0,0,0,0,0,0,0,0,0,0,0,0,0,0,0,0,0,0,0,0,0,0,0,0,0,0,0,0,0,0,0,0,0,0,0,0,0,0,0,0,0,0,0,0,0,0,0,0,0,0,0,0,0,0,0,0,0,0,0,0,0,0,0,0,0,0,0,0,0,0,0,0,0,0,0,0,0,0,0,0,0,0,0,0,0,0,0,0,0,0,0,0,0,0,0,0,0,0,0,0,0,0,0,0,0,0,0,0,0,0,0,0,0,0,0,0,0,0,0,0,0,0,0,0,0,0,0,0,0,0,0,0,0,0,0,0,0,0,0,0,0,0,0,0,0,0,0,0,0,0,0,0,0,0,0,0,0,0,0,0,0,0,0,0,0,0,0,0,0,0,0,0,0,0,0,0,0,0,0,0,0,0,0,0,0,0,0,0,0,0,0,0,0,0,0,0,0,0,0,0,0,0,0,0,0,0,0,0,0,0,0,0,0,0,0,0,0,0,0,0,0,0,0,0,0,0,0,0,0,0,0,0,0,0,0,0,0,0,0,0,0,0,0,0,0,0,0,0,0,0,0,0,0,0,0,0,0,0,0,0,0,0,0,0,0,0,0,0,0,0,0,0,0,0,0,0,0,0,0,0,0,0,0,0,0,0,0,0,0,0,0,0,0,0,0,0,0,0,0,0,0,0,0,0,0,0,0,0,0,0,0,0,0,0,0],"visible":true,"properties":[{"name":"reducedMotionHide","type":"bool","value":true}]},{"id":33,"name":"gate-threshold-charge","type":"tilelayer","width":30,"height":45,"x":0,"y":0,"opacity":1,"data":[0,0,0,0,0,0,0,0,0,0,0,0,0,0,0,0,0,0,0,0,0,0,0,0,0,0,0,0,0,0,0,0,0,0,0,0,0,0,0,0,0,0,0,0,0,0,0,0,0,0,0,0,0,0,0,0,0,0,0,0,0,0,0,0,0,0,0,0,0,0,0,0,0,0,0,0,0,0,0,0,0,0,0,0,0,0,0,0,0,0,0,0,0,0,0,0,0,0,0,0,0,0,0,0,0,0,0,0,0,0,0,0,0,0,0,0,0,0,0,0,0,0,0,0,0,0,0,0,0,0,0,0,0,0,0,0,0,0,0,0,0,0,0,0,0,0,0,0,0,0,0,0,0,0,0,0,0,0,0,0,0,0,0,0,0,0,0,0,0,0,0,0,0,0,0,0,0,0,0,0,0,0,0,0,0,0,0,0,0,0,0,0,0,0,0,0,0,0,0,0,0,0,0,0,0,0,0,0,0,0,0,0,0,0,0,0,0,0,0,0,0,0,0,0,0,0,0,0,0,0,0,0,0,0,0,0,0,0,0,0,0,0,0,0,0,0,0,0,0,0,0,0,0,0,0,0,0,0,0,0,0,0,0,0,0,0,0,0,0,0,0,0,0,0,0,0,0,0,0,0,0,0,0,0,0,0,0,0,0,0,0,0,0,0,0,0,0,0,0,0,0,0,0,0,0,0,0,0,0,0,0,0,0,0,0,0,0,0,0,0,0,0,0,0,0,0,0,0,0,0,0,0,0,0,0,0,0,0,0,0,0,0,0,0,0,0,0,0,0,0,0,0,0,0,0,0,0,0,0,0,0,0,0,0,0,0,0,0,0,0,0,0,0,0,0,0,0,0,0,0,0,0,0,0,0,0,0,0,0,0,0,0,0,0,0,0,0,0,0,0,0,0,0,0,0,0,0,0,0,0,0,0,0,0,0,0,0,0,0,0,0,0,0,0,0,0,0,0,0,0,0,0,0,0,0,0,0,0,0,0,0,0,0,0,0,0,0,0,0,0,0,0,0,0,0,0,0,0,0,0,0,0,10400,11424,13413,13414,13415,13416,0,0,0,0,0,0,0,0,0,0,0,0,0,0,0,0,0,0,0,0,0,0,0,13417,13418,13419,13420,13421,13422,13423,13424,0,0,0,0,0,0,0,0,0,0,0,0,0,0,0,0,0,0,0,0,0,0,13425,13426,13427,13428,13429,13430,13431,13432,0,0,0,0,0,0,0,0,0,0,0,0,0,0,0,0,0,0,0,0,0,0,13433,13434,13435,13436,13437,13438,13439,13440,0,0,0,0,0,0,0,0,0,0,0,0,0,0,0,0,0,0,0,0,0,0,0,13441,13442,13443,13444,13445,13446,0,0,0,0,0,0,0,0,0,0,0,0,0,0,0,0,0,0,0,0,0,0,0,0,0,0,0,0,0,0,0,0,0,0,0,0,0,0,0,0,0,0,0,0,0,0,0,0,0,0,0,0,0,0,0,0,0,0,0,0,0,0,0,0,0,0,0,0,0,0,0,0,0,0,0,0,0,0,0,0,0,0,0,0,0,0,0,0,0,0,0,0,0,0,0,0,0,0,0,0,0,0,0,0,0,0,0,0,0,0,0,0,0,0,0,0,0,0,0,0,0,0,0,0,0,0,0,0,0,0,0,0,0,0,0,0,0,0,0,0,0,0,0,0,0,0,0,0,0,0,0,0,0,0,0,0,0,0,0,0,0,0,0,0,0,0,0,0,0,0,0,0,0,0,0,0,0,0,0,0,0,0,0,0,0,0,0,0,0,0,0,0,0,0,0,0,0,0,0,0,0,0,0,0,0,0,0,0,0,0,0,0,0,0,0,0,0,0,0,0,0,0,0,0,0,0,0,0,0,0,0,0,0,0,0,0,0,0,0,0,0,0,0,0,0,0,0,0,0,0,0,0,0,0,0,0,0,0,0,0,0,0,0,0,0,0,0,0,0,0,0,0,0,0,0,0,0,0,0,0,0,0,0,0,0,0,0,0,0,0,0,0,0,0,0,0,0,0,0,0,0,0,0,0,0,0,0,0,0,0,0,0,0,0,0,0,0,0,0,0,0,0,0,0,0,0,0,0,0,0,0,0,0,0,0,0,0,0,0,0,0,0,0,0,0,0,0,0,0,0,0,0,0,0,0,0,0,0,0,0,0,0,0,0,0,0,0,0,0,0,0,0,0,0,0,0,0,0,0,0,0,0,0,0,0,0,0,0,0,0,0,0,0,0,0,0,0,0,0,0,0,0,0,0,0,0,0,0,0,0,0,0,0,0,0,0,0,0,0,0,0,0,0,0,0,0,0,0,0,0,0,0,0,0,0,0,0,0,0,0,0,0,0,0,0,0,0,0,0,0,0,0,0,0,0,0,0,0,0,0,0,0,0,0,0,0,0,0,0,0,0,0,0,0,0,0,0,0,0,0,0,0,0,0,0,0,0,0,0,0,0,0,0,0,0,0,0,0,0,0,0,0,0,0,0,0,0,0,0,0,0,0,0,0,0,0,0,0,0,0,0,0,0,0,0,0,0,0,0,0,0,0,0,0,0,0,0,0,0,0,0,0,0,0,0,0,0,0,0,0,0,0,0,0,0,0,0,0,0,0,0,0,0,0,0,0,0,0,0,0,0,0,0,0,0,0,0,0,0,0,0,0,0,0,0,0,0,0,0,0,0,0,0,0,0,0,0,0,0,0,0,0,0,0,0,0,0,0,0,0,0,0,0,0,0,0,0,0,0,0,0,0,0,0,0,0,0,0,0,0,0,0,0,0,0,0,0,0,0,0,0,0,0,0,0,0,0,0,0,0,0,0,0,0,0,0,0,0,0,0,0,0,0,0,0,0,0,0,0,0,0,0,0,0,0,0,0,0,0,0,0,0,0,0,0,0,0,0,0,0,0,0,0,0,0,0,0,0,0,0,0,0,0,0,0,0,0,0,0,0,0,0,0,0,0,0,0,0,0,0,0,0,0,0,0,0,0,0,0,0,0,0,0,0,0,0,0,0,0,0,0,0,0,0,0,0,0,0,0,0,0,0,0,0,0,0,0,0,0,0,0,0],"visible":false,"properties":[{"name":"transitOnly","type":"bool","value":true}]},{"id":34,"name":"floorLayer","type":"objectgroup","opacity":1,"visible":true,"objects":[]},{"id":47,"name":"activity-areas","type":"objectgroup","opacity":1,"visible":true,"objects":[{"id":27,"name":"gate-bounds","class":"area","type":"area","x":0,"y":0,"width":960,"height":1440,"rotation":0,"visible":true},{"id":29,"name":"gate-threshold","class":"area","type":"area","x":416,"y":544,"width":128,"height":64,"rotation":0,"visible":true},{"id":31,"name":"gate-spawn","class":"spawnPoint","type":"spawnPoint","point":true,"x":496,"y":1136,"width":0,"height":0,"rotation":0,"visible":true},{"id":33,"name":"start","class":"area","type":"area","x":464,"y":1120,"width":64,"height":32,"rotation":0,"visible":true,"properties":[{"name":"start","type":"bool","value":true}]},{"id":35,"name":"gate-onboarding-guide","class":"area","type":"area","x":352,"y":1152,"width":256,"height":192,"rotation":0,"visible":true}]},{"name":"journey-veil-1","type":"tilelayer","width":30,"height":45,"x":0,"y":0,"opacity":1,"visible":false,"data":[13474,13474,13474,13474,13474,13474,13474,13474,13474,13474,13474,13474,13474,13474,13474,13474,13474,13474,13474,13474,13474,13474,13474,13474,13474,13474,13474,13474,13474,13474,13474,13474,13474,13474,13474,13474,13474,13474,13474,13474,13474,13474,13474,13474,13474,13474,13474,13474,13474,13474,13474,13474,13474,13474,13474,13474,13474,13474,13474,13474,13474,13474,13474,13474,13474,13474,13474,13474,13474,13474,13474,13474,13474,13474,13474,13474,13474,13474,13474,13474,13474,13474,13474,13474,13474,13474,13474,13474,13474,13474,13474,13474,13474,13474,13474,13474,13474,13474,13474,13474,13474,13474,13474,13474,13474,13474,13474,13474,13474,13474,13474,13474,13474,13474,13474,13474,13474,13474,13474,13474,13474,13474,13474,13474,13474,13474,13474,13474,13474,13474,13474,13474,13474,13474,13474,13474,13474,13474,13474,13474,13474,13474,13474,13474,13474,13474,13474,13474,13474,13474,13474,13474,13474,13474,13474,13474,13474,13474,13474,13474,13474,13474,13474,13474,13474,13474,13474,13474,13474,13474,13474,13474,13474,13474,13474,13474,13474,13474,13474,13474,13474,13474,13474,13474,13474,13474,13474,13474,13474,13474,13474,13474,13474,13474,13474,13474,13474,13474,13474,13474,13474,13474,13474,13474,13474,13474,13474,13474,13474,13474,13474,13474,13474,13474,13474,13474,13474,13474,13474,13474,13474,13474,13474,13474,13474,13474,13474,13474,13474,13474,13474,13474,13474,13474,13474,13474,13474,13474,13474,13474,13474,13474,13474,13474,13474,13474,13474,13474,13474,13474,13474,13474,13474,13474,13474,13474,13474,13474,13474,13474,13474,13474,13474,13474,13474,13474,13474,13474,13474,13474,13474,13474,13474,13474,13474,13474,13474,13474,13474,13474,13474,13474,13474,13474,13474,13474,13474,13474,13474,13474,13474,13474,13474,13474,13474,13474,13474,13474,13474,13474,13474,13474,13474,13474,13474,13474,13474,13474,13474,13474,13474,13474,13474,13474,13474,13474,13474,13474,13474,13474,13474,13474,13474,13474,13474,13474,13474,13474,13474,13474,13474,13474,13474,13474,13474,13474,13474,13474,13474,13474,13474,13474,13474,13474,13474,13474,13474,13474,13474,13474,13474,13474,13474,13474,13474,13474,13474,13474,13474,13474,13474,13474,13474,13474,13474,13474,13474,13474,13474,13474,13474,13474,13474,13474,13474,13474,13474,13474,13474,13474,13474,13474,13474,13474,13474,13474,13474,13474,13474,13474,13474,13474,13474,13474,13474,13474,13474,13474,13474,13474,13474,13474,13474,13474,13474,13474,13474,13474,13474,13474,13474,13474,13474,13474,13474,13474,13474,13474,13474,13474,13474,13474,13474,13474,13474,13474,13474,13474,13474,13474,13474,13474,13474,13474,13474,13474,13474,13474,13474,13474,13474,13474,13474,13474,13474,13474,13474,13474,13474,13474,13474,13474,13474,13474,13474,13474,13474,13474,13474,13474,13474,13474,13474,13474,13474,13474,13474,13474,13474,13474,13474,13474,13474,13474,13474,13474,13474,13474,13474,13474,13474,13474,13474,13474,13474,13474,13474,13474,13474,13474,13474,13474,13474,13474,13474,13474,13474,13474,13474,13474,13474,13474,13474,13474,13474,13474,13474,13474,13474,13474,13474,13474,13474,13474,13474,13474,13474,13474,13474,13474,13474,13474,13474,13474,13474,13474,13474,13474,13474,13474,13474,13474,13474,13474,13474,13474,13474,13474,13474,13474,13474,13474,13474,13474,13474,13474,13474,13474,13474,13474,13474,13474,13474,13474,13474,13474,13474,13474,13474,13474,13474,13474,13474,13474,13474,13474,13474,13474,13474,13474,13474,13474,13474,13474,13474,13474,13474,13474,13474,13474,13474,13474,13474,13474,13474,13474,13474,13474,13474,13474,13474,13474,13474,13474,13474,13474,13474,13474,13474,13474,13474,13474,13474,13474,13474,13474,13474,13474,13474,13474,13474,13474,13474,13474,13474,13474,13474,13474,13474,13474,13474,13474,13474,13474,13474,13474,13474,13474,13474,13474,13474,13474,13474,13474,13474,13474,13474,13474,13474,13474,13474,13474,13474,13474,13474,13474,13474,13474,13474,13474,13474,13474,13474,13474,13474,13474,13474,13474,13474,13474,13474,13474,13474,13474,13474,13474,13474,13474,13474,13474,13474,13474,13474,13474,13474,13474,13474,13474,13474,13474,13474,13474,13474,13474,13474,13474,13474,13474,13474,13474,13474,13474,13474,13474,13474,13474,13474,13474,13474,13474,13474,13474,13474,13474,13474,13474,13474,13474,13474,13474,13474,13474,13474,13474,13474,13474,13474,13474,13474,13474,13474,13474,13474,13474,13474,13474,13474,13474,13474,13474,13474,13474,13474,13474,13474,13474,13474,13474,13474,13474,13474,13474,13474,13474,13474,13474,13474,13474,13474,13474,13474,13474,13474,13474,13474,13474,13474,13474,13474,13474,13474,13474,13474,13474,13474,13474,13474,13474,13474,13474,13474,13474,13474,13474,13474,13474,13474,13474,13474,13474,13474,13474,13474,13474,13474,13474,13474,13474,13474,13474,13474,13474,13474,13474,13474,13474,13474,13474,13474,13474,13474,13474,13474,13474,13474,13474,13474,13474,13474,13474,13474,13474,13474,13474,13474,13474,13474,13474,13474,13474,13474,13474,13474,13474,13474,13474,13474,13474,13474,13474,13474,13474,13474,13474,13474,13474,13474,13474,13474,13474,13474,13474,13474,13474,13474,13474,13474,13474,13474,13474,13474,13474,13474,13474,13474,13474,13474,13474,13474,13474,13474,13474,13474,13474,13474,13474,13474,13474,13474,13474,13474,13474,13474,13474,13474,13474,13474,13474,13474,13474,13474,13474,13474,13474,13474,13474,13474,13474,13474,13474,13474,13474,13474,13474,13474,13474,13474,13474,13474,13474,13474,13474,13474,13474,13474,13474,13474,13474,13474,13474,13474,13474,13474,13474,13474,13474,13474,13474,13474,13474,13474,13474,13474,13474,13474,13474,13474,13474,13474,13474,13474,13474,13474,13474,13474,13474,13474,13474,13474,13474,13474,13474,13474,13474,13474,13474,13474,13474,13474,13474,13474,13474,13474,13474,13474,13474,13474,13474,13474,13474,13474,13474,13474,13474,13474,13474,13474,13474,13474,13474,13474,13474,13474,13474,13474,13474,13474,13474,13474,13474,13474,13474,13474,13474,13474,13474,13474,13474,13474,13474,13474,13474,13474,13474,13474,13474,13474,13474,13474,13474,13474,13474,13474,13474,13474,13474,13474,13474,13474,13474,13474,13474,13474,13474,13474,13474,13474,13474,13474,13474,13474,13474,13474,13474,13474,13474,13474,13474,13474,13474,13474,13474,13474,13474,13474,13474,13474,13474,13474,13474,13474,13474,13474,13474,13474,13474,13474,13474,13474,13474,13474,13474,13474,13474,13474,13474,13474,13474,13474,13474,13474,13474,13474,13474,13474,13474,13474,13474,13474,13474,13474,13474,13474,13474,13474,13474,13474,13474,13474,13474,13474,13474,13474,13474,13474,13474,13474,13474,13474,13474,13474,13474,13474,13474,13474,13474,13474,13474,13474,13474,13474,13474,13474,13474,13474,13474,13474,13474,13474,13474,13474,13474,13474,13474,13474,13474,13474,13474,13474,13474,13474,13474,13474,13474,13474,13474,13474,13474,13474,13474,13474,13474,13474,13474,13474,13474,13474,13474,13474,13474,13474,13474,13474,13474,13474,13474,13474,13474,13474,13474,13474,13474,13474,13474,13474,13474,13474,13474,13474,13474,13474,13474,13474,13474,13474,13474,13474,13474,13474,13474,13474,13474,13474,13474,13474,13474,13474,13474,13474,13474,13474,13474,13474,13474,13474,13474,13474,13474,13474,13474,13474,13474,13474,13474,13474,13474,13474,13474,13474,13474,13474,13474,13474,13474,13474,13474,13474,13474,13474,13474,13474,13474,13474,13474,13474,13474,13474,13474,13474,13474,13474,13474,13474,13474,13474,13474,13474,13474,13474,13474,13474,13474,13474,13474,13474,13474,13474,13474,13474,13474,13474,13474,13474,13474,13474,13474,13474,13474,13474,13474,13474,13474,13474,13474,13474,13474,13474,13474,13474,13474,13474,13474,13474,13474,13474,13474,13474,13474,13474,13474,13474,13474,13474,13474,13474,13474,13474,13474,13474,13474,13474,13474,13474,13474,13474,13474,13474,13474,13474,13474,13474,13474,13474,13474,13474,13474,13474,13474,13474,13474,13474,13474,13474,13474,13474,13474,13474,13474,13474,13474,13474,13474,13474,13474,13474,13474,13474,13474,13474,13474,13474,13474,13474,13474,13474,13474,13474,13474,13474,13474,13474,13474,13474,13474,13474,13474,13474,13474,13474,13474,13474,13474,13474,13474,13474,13474,13474,13474,13474,13474],"properties":[{"name":"presentationOnly","type":"bool","value":true}],"id":48},{"name":"journey-veil-2","type":"tilelayer","width":30,"height":45,"x":0,"y":0,"opacity":1,"visible":false,"data":[13475,13475,13475,13475,13475,13475,13475,13475,13475,13475,13475,13475,13475,13475,13475,13475,13475,13475,13475,13475,13475,13475,13475,13475,13475,13475,13475,13475,13475,13475,13475,13475,13475,13475,13475,13475,13475,13475,13475,13475,13475,13475,13475,13475,13475,13475,13475,13475,13475,13475,13475,13475,13475,13475,13475,13475,13475,13475,13475,13475,13475,13475,13475,13475,13475,13475,13475,13475,13475,13475,13475,13475,13475,13475,13475,13475,13475,13475,13475,13475,13475,13475,13475,13475,13475,13475,13475,13475,13475,13475,13475,13475,13475,13475,13475,13475,13475,13475,13475,13475,13475,13475,13475,13475,13475,13475,13475,13475,13475,13475,13475,13475,13475,13475,13475,13475,13475,13475,13475,13475,13475,13475,13475,13475,13475,13475,13475,13475,13475,13475,13475,13475,13475,13475,13475,13475,13475,13475,13475,13475,13475,13475,13475,13475,13475,13475,13475,13475,13475,13475,13475,13475,13475,13475,13475,13475,13475,13475,13475,13475,13475,13475,13475,13475,13475,13475,13475,13475,13475,13475,13475,13475,13475,13475,13475,13475,13475,13475,13475,13475,13475,13475,13475,13475,13475,13475,13475,13475,13475,13475,13475,13475,13475,13475,13475,13475,13475,13475,13475,13475,13475,13475,13475,13475,13475,13475,13475,13475,13475,13475,13475,13475,13475,13475,13475,13475,13475,13475,13475,13475,13475,13475,13475,13475,13475,13475,13475,13475,13475,13475,13475,13475,13475,13475,13475,13475,13475,13475,13475,13475,13475,13475,13475,13475,13475,13475,13475,13475,13475,13475,13475,13475,13475,13475,13475,13475,13475,13475,13475,13475,13475,13475,13475,13475,13475,13475,13475,13475,13475,13475,13475,13475,13475,13475,13475,13475,13475,13475,13475,13475,13475,13475,13475,13475,13475,13475,13475,13475,13475,13475,13475,13475,13475,13475,13475,13475,13475,13475,13475,13475,13475,13475,13475,13475,13475,13475,13475,13475,13475,13475,13475,13475,13475,13475,13475,13475,13475,13475,13475,13475,13475,13475,13475,13475,13475,13475,13475,13475,13475,13475,13475,13475,13475,13475,13475,13475,13475,13475,13475,13475,13475,13475,13475,13475,13475,13475,13475,13475,13475,13475,13475,13475,13475,13475,13475,13475,13475,13475,13475,13475,13475,13475,13475,13475,13475,13475,13475,13475,13475,13475,13475,13475,13475,13475,13475,13475,13475,13475,13475,13475,13475,13475,13475,13475,13475,13475,13475,13475,13475,13475,13475,13475,13475,13475,13475,13475,13475,13475,13475,13475,13475,13475,13475,13475,13475,13475,13475,13475,13475,13475,13475,13475,13475,13475,13475,13475,13475,13475,13475,13475,13475,13475,13475,13475,13475,13475,13475,13475,13475,13475,13475,13475,13475,13475,13475,13475,13475,13475,13475,13475,13475,13475,13475,13475,13475,13475,13475,13475,13475,13475,13475,13475,13475,13475,13475,13475,13475,13475,13475,13475,13475,13475,13475,13475,13475,13475,13475,13475,13475,13475,13475,13475,13475,13475,13475,13475,13475,13475,13475,13475,13475,13475,13475,13475,13475,13475,13475,13475,13475,13475,13475,13475,13475,13475,13475,13475,13475,13475,13475,13475,13475,13475,13475,13475,13475,13475,13475,13475,13475,13475,13475,13475,13475,13475,13475,13475,13475,13475,13475,13475,13475,13475,13475,13475,13475,13475,13475,13475,13475,13475,13475,13475,13475,13475,13475,13475,13475,13475,13475,13475,13475,13475,13475,13475,13475,13475,13475,13475,13475,13475,13475,13475,13475,13475,13475,13475,13475,13475,13475,13475,13475,13475,13475,13475,13475,13475,13475,13475,13475,13475,13475,13475,13475,13475,13475,13475,13475,13475,13475,13475,13475,13475,13475,13475,13475,13475,13475,13475,13475,13475,13475,13475,13475,13475,13475,13475,13475,13475,13475,13475,13475,13475,13475,13475,13475,13475,13475,13475,13475,13475,13475,13475,13475,13475,13475,13475,13475,13475,13475,13475,13475,13475,13475,13475,13475,13475,13475,13475,13475,13475,13475,13475,13475,13475,13475,13475,13475,13475,13475,13475,13475,13475,13475,13475,13475,13475,13475,13475,13475,13475,13475,13475,13475,13475,13475,13475,13475,13475,13475,13475,13475,13475,13475,13475,13475,13475,13475,13475,13475,13475,13475,13475,13475,13475,13475,13475,13475,13475,13475,13475,13475,13475,13475,13475,13475,13475,13475,13475,13475,13475,13475,13475,13475,13475,13475,13475,13475,13475,13475,13475,13475,13475,13475,13475,13475,13475,13475,13475,13475,13475,13475,13475,13475,13475,13475,13475,13475,13475,13475,13475,13475,13475,13475,13475,13475,13475,13475,13475,13475,13475,13475,13475,13475,13475,13475,13475,13475,13475,13475,13475,13475,13475,13475,13475,13475,13475,13475,13475,13475,13475,13475,13475,13475,13475,13475,13475,13475,13475,13475,13475,13475,13475,13475,13475,13475,13475,13475,13475,13475,13475,13475,13475,13475,13475,13475,13475,13475,13475,13475,13475,13475,13475,13475,13475,13475,13475,13475,13475,13475,13475,13475,13475,13475,13475,13475,13475,13475,13475,13475,13475,13475,13475,13475,13475,13475,13475,13475,13475,13475,13475,13475,13475,13475,13475,13475,13475,13475,13475,13475,13475,13475,13475,13475,13475,13475,13475,13475,13475,13475,13475,13475,13475,13475,13475,13475,13475,13475,13475,13475,13475,13475,13475,13475,13475,13475,13475,13475,13475,13475,13475,13475,13475,13475,13475,13475,13475,13475,13475,13475,13475,13475,13475,13475,13475,13475,13475,13475,13475,13475,13475,13475,13475,13475,13475,13475,13475,13475,13475,13475,13475,13475,13475,13475,13475,13475,13475,13475,13475,13475,13475,13475,13475,13475,13475,13475,13475,13475,13475,13475,13475,13475,13475,13475,13475,13475,13475,13475,13475,13475,13475,13475,13475,13475,13475,13475,13475,13475,13475,13475,13475,13475,13475,13475,13475,13475,13475,13475,13475,13475,13475,13475,13475,13475,13475,13475,13475,13475,13475,13475,13475,13475,13475,13475,13475,13475,13475,13475,13475,13475,13475,13475,13475,13475,13475,13475,13475,13475,13475,13475,13475,13475,13475,13475,13475,13475,13475,13475,13475,13475,13475,13475,13475,13475,13475,13475,13475,13475,13475,13475,13475,13475,13475,13475,13475,13475,13475,13475,13475,13475,13475,13475,13475,13475,13475,13475,13475,13475,13475,13475,13475,13475,13475,13475,13475,13475,13475,13475,13475,13475,13475,13475,13475,13475,13475,13475,13475,13475,13475,13475,13475,13475,13475,13475,13475,13475,13475,13475,13475,13475,13475,13475,13475,13475,13475,13475,13475,13475,13475,13475,13475,13475,13475,13475,13475,13475,13475,13475,13475,13475,13475,13475,13475,13475,13475,13475,13475,13475,13475,13475,13475,13475,13475,13475,13475,13475,13475,13475,13475,13475,13475,13475,13475,13475,13475,13475,13475,13475,13475,13475,13475,13475,13475,13475,13475,13475,13475,13475,13475,13475,13475,13475,13475,13475,13475,13475,13475,13475,13475,13475,13475,13475,13475,13475,13475,13475,13475,13475,13475,13475,13475,13475,13475,13475,13475,13475,13475,13475,13475,13475,13475,13475,13475,13475,13475,13475,13475,13475,13475,13475,13475,13475,13475,13475,13475,13475,13475,13475,13475,13475,13475,13475,13475,13475,13475,13475,13475,13475,13475,13475,13475,13475,13475,13475,13475,13475,13475,13475,13475,13475,13475,13475,13475,13475,13475,13475,13475,13475,13475,13475,13475,13475,13475,13475,13475,13475,13475,13475,13475,13475,13475,13475,13475,13475,13475,13475,13475,13475,13475,13475,13475,13475,13475,13475,13475,13475,13475,13475,13475,13475,13475,13475,13475,13475,13475,13475,13475,13475,13475,13475,13475,13475,13475,13475,13475,13475,13475,13475,13475,13475,13475,13475,13475,13475,13475,13475,13475,13475,13475,13475,13475,13475,13475,13475,13475,13475,13475,13475,13475,13475,13475,13475,13475,13475,13475,13475,13475,13475,13475,13475,13475,13475,13475,13475,13475,13475,13475,13475,13475,13475,13475,13475,13475,13475,13475,13475,13475,13475,13475,13475,13475,13475,13475,13475,13475,13475,13475,13475,13475,13475,13475,13475,13475,13475,13475,13475,13475,13475,13475,13475,13475,13475,13475,13475,13475,13475,13475,13475,13475,13475,13475,13475,13475,13475,13475,13475,13475,13475,13475,13475,13475,13475,13475,13475,13475,13475,13475,13475,13475,13475,13475,13475,13475,13475,13475,13475,13475,13475,13475,13475,13475,13475,13475,13475,13475,13475,13475,13475,13475,13475,13475,13475,13475,13475,13475,13475,13475,13475,13475,13475,13475],"properties":[{"name":"presentationOnly","type":"bool","value":true}],"id":49},{"name":"journey-veil-3","type":"tilelayer","width":30,"height":45,"x":0,"y":0,"opacity":1,"visible":false,"data":[13476,13476,13476,13476,13476,13476,13476,13476,13476,13476,13476,13476,13476,13476,13476,13476,13476,13476,13476,13476,13476,13476,13476,13476,13476,13476,13476,13476,13476,13476,13476,13476,13476,13476,13476,13476,13476,13476,13476,13476,13476,13476,13476,13476,13476,13476,13476,13476,13476,13476,13476,13476,13476,13476,13476,13476,13476,13476,13476,13476,13476,13476,13476,13476,13476,13476,13476,13476,13476,13476,13476,13476,13476,13476,13476,13476,13476,13476,13476,13476,13476,13476,13476,13476,13476,13476,13476,13476,13476,13476,13476,13476,13476,13476,13476,13476,13476,13476,13476,13476,13476,13476,13476,13476,13476,13476,13476,13476,13476,13476,13476,13476,13476,13476,13476,13476,13476,13476,13476,13476,13476,13476,13476,13476,13476,13476,13476,13476,13476,13476,13476,13476,13476,13476,13476,13476,13476,13476,13476,13476,13476,13476,13476,13476,13476,13476,13476,13476,13476,13476,13476,13476,13476,13476,13476,13476,13476,13476,13476,13476,13476,13476,13476,13476,13476,13476,13476,13476,13476,13476,13476,13476,13476,13476,13476,13476,13476,13476,13476,13476,13476,13476,13476,13476,13476,13476,13476,13476,13476,13476,13476,13476,13476,13476,13476,13476,13476,13476,13476,13476,13476,13476,13476,13476,13476,13476,13476,13476,13476,13476,13476,13476,13476,13476,13476,13476,13476,13476,13476,13476,13476,13476,13476,13476,13476,13476,13476,13476,13476,13476,13476,13476,13476,13476,13476,13476,13476,13476,13476,13476,13476,13476,13476,13476,13476,13476,13476,13476,13476,13476,13476,13476,13476,13476,13476,13476,13476,13476,13476,13476,13476,13476,13476,13476,13476,13476,13476,13476,13476,13476,13476,13476,13476,13476,13476,13476,13476,13476,13476,13476,13476,13476,13476,13476,13476,13476,13476,13476,13476,13476,13476,13476,13476,13476,13476,13476,13476,13476,13476,13476,13476,13476,13476,13476,13476,13476,13476,13476,13476,13476,13476,13476,13476,13476,13476,13476,13476,13476,13476,13476,13476,13476,13476,13476,13476,13476,13476,13476,13476,13476,13476,13476,13476,13476,13476,13476,13476,13476,13476,13476,13476,13476,13476,13476,13476,13476,13476,13476,13476,13476,13476,13476,13476,13476,13476,13476,13476,13476,13476,13476,13476,13476,13476,13476,13476,13476,13476,13476,13476,13476,13476,13476,13476,13476,13476,13476,13476,13476,13476,13476,13476,13476,13476,13476,13476,13476,13476,13476,13476,13476,13476,13476,13476,13476,13476,13476,13476,13476,13476,13476,13476,13476,13476,13476,13476,13476,13476,13476,13476,13476,13476,13476,13476,13476,13476,13476,13476,13476,13476,13476,13476,13476,13476,13476,13476,13476,13476,13476,13476,13476,13476,13476,13476,13476,13476,13476,13476,13476,13476,13476,13476,13476,13476,13476,13476,13476,13476,13476,13476,13476,13476,13476,13476,13476,13476,13476,13476,13476,13476,13476,13476,13476,13476,13476,13476,13476,13476,13476,13476,13476,13476,13476,13476,13476,13476,13476,13476,13476,13476,13476,13476,13476,13476,13476,13476,13476,13476,13476,13476,13476,13476,13476,13476,13476,13476,13476,13476,13476,13476,13476,13476,13476,13476,13476,13476,13476,13476,13476,13476,13476,13476,13476,13476,13476,13476,13476,13476,13476,13476,13476,13476,13476,13476,13476,13476,13476,13476,13476,13476,13476,13476,13476,13476,13476,13476,13476,13476,13476,13476,13476,13476,13476,13476,13476,13476,13476,13476,13476,13476,13476,13476,13476,13476,13476,13476,13476,13476,13476,13476,13476,13476,13476,13476,13476,13476,13476,13476,13476,13476,13476,13476,13476,13476,13476,13476,13476,13476,13476,13476,13476,13476,13476,13476,13476,13476,13476,13476,13476,13476,13476,13476,13476,13476,13476,13476,13476,13476,13476,13476,13476,13476,13476,13476,13476,13476,13476,13476,13476,13476,13476,13476,13476,13476,13476,13476,13476,13476,13476,13476,13476,13476,13476,13476,13476,13476,13476,13476,13476,13476,13476,13476,13476,13476,13476,13476,13476,13476,13476,13476,13476,13476,13476,13476,13476,13476,13476,13476,13476,13476,13476,13476,13476,13476,13476,13476,13476,13476,13476,13476,13476,13476,13476,13476,13476,13476,13476,13476,13476,13476,13476,13476,13476,13476,13476,13476,13476,13476,13476,13476,13476,13476,13476,13476,13476,13476,13476,13476,13476,13476,13476,13476,13476,13476,13476,13476,13476,13476,13476,13476,13476,13476,13476,13476,13476,13476,13476,13476,13476,13476,13476,13476,13476,13476,13476,13476,13476,13476,13476,13476,13476,13476,13476,13476,13476,13476,13476,13476,13476,13476,13476,13476,13476,13476,13476,13476,13476,13476,13476,13476,13476,13476,13476,13476,13476,13476,13476,13476,13476,13476,13476,13476,13476,13476,13476,13476,13476,13476,13476,13476,13476,13476,13476,13476,13476,13476,13476,13476,13476,13476,13476,13476,13476,13476,13476,13476,13476,13476,13476,13476,13476,13476,13476,13476,13476,13476,13476,13476,13476,13476,13476,13476,13476,13476,13476,13476,13476,13476,13476,13476,13476,13476,13476,13476,13476,13476,13476,13476,13476,13476,13476,13476,13476,13476,13476,13476,13476,13476,13476,13476,13476,13476,13476,13476,13476,13476,13476,13476,13476,13476,13476,13476,13476,13476,13476,13476,13476,13476,13476,13476,13476,13476,13476,13476,13476,13476,13476,13476,13476,13476,13476,13476,13476,13476,13476,13476,13476,13476,13476,13476,13476,13476,13476,13476,13476,13476,13476,13476,13476,13476,13476,13476,13476,13476,13476,13476,13476,13476,13476,13476,13476,13476,13476,13476,13476,13476,13476,13476,13476,13476,13476,13476,13476,13476,13476,13476,13476,13476,13476,13476,13476,13476,13476,13476,13476,13476,13476,13476,13476,13476,13476,13476,13476,13476,13476,13476,13476,13476,13476,13476,13476,13476,13476,13476,13476,13476,13476,13476,13476,13476,13476,13476,13476,13476,13476,13476,13476,13476,13476,13476,13476,13476,13476,13476,13476,13476,13476,13476,13476,13476,13476,13476,13476,13476,13476,13476,13476,13476,13476,13476,13476,13476,13476,13476,13476,13476,13476,13476,13476,13476,13476,13476,13476,13476,13476,13476,13476,13476,13476,13476,13476,13476,13476,13476,13476,13476,13476,13476,13476,13476,13476,13476,13476,13476,13476,13476,13476,13476,13476,13476,13476,13476,13476,13476,13476,13476,13476,13476,13476,13476,13476,13476,13476,13476,13476,13476,13476,13476,13476,13476,13476,13476,13476,13476,13476,13476,13476,13476,13476,13476,13476,13476,13476,13476,13476,13476,13476,13476,13476,13476,13476,13476,13476,13476,13476,13476,13476,13476,13476,13476,13476,13476,13476,13476,13476,13476,13476,13476,13476,13476,13476,13476,13476,13476,13476,13476,13476,13476,13476,13476,13476,13476,13476,13476,13476,13476,13476,13476,13476,13476,13476,13476,13476,13476,13476,13476,13476,13476,13476,13476,13476,13476,13476,13476,13476,13476,13476,13476,13476,13476,13476,13476,13476,13476,13476,13476,13476,13476,13476,13476,13476,13476,13476,13476,13476,13476,13476,13476,13476,13476,13476,13476,13476,13476,13476,13476,13476,13476,13476,13476,13476,13476,13476,13476,13476,13476,13476,13476,13476,13476,13476,13476,13476,13476,13476,13476,13476,13476,13476,13476,13476,13476,13476,13476,13476,13476,13476,13476,13476,13476,13476,13476,13476,13476,13476,13476,13476,13476,13476,13476,13476,13476,13476,13476,13476,13476,13476,13476,13476,13476,13476,13476,13476,13476,13476,13476,13476,13476,13476,13476,13476,13476,13476,13476,13476,13476,13476,13476,13476,13476,13476,13476,13476,13476,13476,13476,13476,13476,13476,13476,13476,13476,13476,13476,13476,13476,13476,13476,13476,13476,13476,13476,13476,13476,13476,13476,13476,13476,13476,13476,13476,13476,13476,13476,13476,13476,13476,13476,13476,13476,13476,13476,13476,13476,13476,13476,13476,13476,13476,13476,13476,13476,13476,13476,13476,13476,13476,13476,13476,13476,13476,13476,13476,13476,13476,13476,13476,13476,13476,13476,13476,13476,13476,13476,13476,13476,13476,13476,13476,13476,13476,13476,13476,13476,13476,13476,13476,13476,13476,13476,13476,13476,13476,13476,13476,13476,13476,13476,13476,13476,13476,13476,13476,13476,13476,13476,13476,13476,13476,13476,13476,13476,13476,13476,13476,13476,13476,13476,13476,13476,13476,13476,13476,13476,13476,13476,13476,13476,13476,13476,13476,13476,13476,13476,13476,13476,13476,13476,13476,13476,13476,13476,13476,13476,13476,13476,13476,13476,13476,13476,13476],"properties":[{"name":"presentationOnly","type":"bool","value":true}],"id":50},{"name":"journey-veil-4","type":"tilelayer","width":30,"height":45,"x":0,"y":0,"opacity":1,"visible":false,"data":[13477,13477,13477,13477,13477,13477,13477,13477,13477,13477,13477,13477,13477,13477,13477,13477,13477,13477,13477,13477,13477,13477,13477,13477,13477,13477,13477,13477,13477,13477,13477,13477,13477,13477,13477,13477,13477,13477,13477,13477,13477,13477,13477,13477,13477,13477,13477,13477,13477,13477,13477,13477,13477,13477,13477,13477,13477,13477,13477,13477,13477,13477,13477,13477,13477,13477,13477,13477,13477,13477,13477,13477,13477,13477,13477,13477,13477,13477,13477,13477,13477,13477,13477,13477,13477,13477,13477,13477,13477,13477,13477,13477,13477,13477,13477,13477,13477,13477,13477,13477,13477,13477,13477,13477,13477,13477,13477,13477,13477,13477,13477,13477,13477,13477,13477,13477,13477,13477,13477,13477,13477,13477,13477,13477,13477,13477,13477,13477,13477,13477,13477,13477,13477,13477,13477,13477,13477,13477,13477,13477,13477,13477,13477,13477,13477,13477,13477,13477,13477,13477,13477,13477,13477,13477,13477,13477,13477,13477,13477,13477,13477,13477,13477,13477,13477,13477,13477,13477,13477,13477,13477,13477,13477,13477,13477,13477,13477,13477,13477,13477,13477,13477,13477,13477,13477,13477,13477,13477,13477,13477,13477,13477,13477,13477,13477,13477,13477,13477,13477,13477,13477,13477,13477,13477,13477,13477,13477,13477,13477,13477,13477,13477,13477,13477,13477,13477,13477,13477,13477,13477,13477,13477,13477,13477,13477,13477,13477,13477,13477,13477,13477,13477,13477,13477,13477,13477,13477,13477,13477,13477,13477,13477,13477,13477,13477,13477,13477,13477,13477,13477,13477,13477,13477,13477,13477,13477,13477,13477,13477,13477,13477,13477,13477,13477,13477,13477,13477,13477,13477,13477,13477,13477,13477,13477,13477,13477,13477,13477,13477,13477,13477,13477,13477,13477,13477,13477,13477,13477,13477,13477,13477,13477,13477,13477,13477,13477,13477,13477,13477,13477,13477,13477,13477,13477,13477,13477,13477,13477,13477,13477,13477,13477,13477,13477,13477,13477,13477,13477,13477,13477,13477,13477,13477,13477,13477,13477,13477,13477,13477,13477,13477,13477,13477,13477,13477,13477,13477,13477,13477,13477,13477,13477,13477,13477,13477,13477,13477,13477,13477,13477,13477,13477,13477,13477,13477,13477,13477,13477,13477,13477,13477,13477,13477,13477,13477,13477,13477,13477,13477,13477,13477,13477,13477,13477,13477,13477,13477,13477,13477,13477,13477,13477,13477,13477,13477,13477,13477,13477,13477,13477,13477,13477,13477,13477,13477,13477,13477,13477,13477,13477,13477,13477,13477,13477,13477,13477,13477,13477,13477,13477,13477,13477,13477,13477,13477,13477,13477,13477,13477,13477,13477,13477,13477,13477,13477,13477,13477,13477,13477,13477,13477,13477,13477,13477,13477,13477,13477,13477,13477,13477,13477,13477,13477,13477,13477,13477,13477,13477,13477,13477,13477,13477,13477,13477,13477,13477,13477,13477,13477,13477,13477,13477,13477,13477,13477,13477,13477,13477,13477,13477,13477,13477,13477,13477,13477,13477,13477,13477,13477,13477,13477,13477,13477,13477,13477,13477,13477,13477,13477,13477,13477,13477,13477,13477,13477,13477,13477,13477,13477,13477,13477,13477,13477,13477,13477,13477,13477,13477,13477,13477,13477,13477,13477,13477,13477,13477,13477,13477,13477,13477,13477,13477,13477,13477,13477,13477,13477,13477,13477,13477,13477,13477,13477,13477,13477,13477,13477,13477,13477,13477,13477,13477,13477,13477,13477,13477,13477,13477,13477,13477,13477,13477,13477,13477,13477,13477,13477,13477,13477,13477,13477,13477,13477,13477,13477,13477,13477,13477,13477,13477,13477,13477,13477,13477,13477,13477,13477,13477,13477,13477,13477,13477,13477,13477,13477,13477,13477,13477,13477,13477,13477,13477,13477,13477,13477,13477,13477,13477,13477,13477,13477,13477,13477,13477,13477,13477,13477,13477,13477,13477,13477,13477,13477,13477,13477,13477,13477,13477,13477,13477,13477,13477,13477,13477,13477,13477,13477,13477,13477,13477,13477,13477,13477,13477,13477,13477,13477,13477,13477,13477,13477,13477,13477,13477,13477,13477,13477,13477,13477,13477,13477,13477,13477,13477,13477,13477,13477,13477,13477,13477,13477,13477,13477,13477,13477,13477,13477,13477,13477,13477,13477,13477,13477,13477,13477,13477,13477,13477,13477,13477,13477,13477,13477,13477,13477,13477,13477,13477,13477,13477,13477,13477,13477,13477,13477,13477,13477,13477,13477,13477,13477,13477,13477,13477,13477,13477,13477,13477,13477,13477,13477,13477,13477,13477,13477,13477,13477,13477,13477,13477,13477,13477,13477,13477,13477,13477,13477,13477,13477,13477,13477,13477,13477,13477,13477,13477,13477,13477,13477,13477,13477,13477,13477,13477,13477,13477,13477,13477,13477,13477,13477,13477,13477,13477,13477,13477,13477,13477,13477,13477,13477,13477,13477,13477,13477,13477,13477,13477,13477,13477,13477,13477,13477,13477,13477,13477,13477,13477,13477,13477,13477,13477,13477,13477,13477,13477,13477,13477,13477,13477,13477,13477,13477,13477,13477,13477,13477,13477,13477,13477,13477,13477,13477,13477,13477,13477,13477,13477,13477,13477,13477,13477,13477,13477,13477,13477,13477,13477,13477,13477,13477,13477,13477,13477,13477,13477,13477,13477,13477,13477,13477,13477,13477,13477,13477,13477,13477,13477,13477,13477,13477,13477,13477,13477,13477,13477,13477,13477,13477,13477,13477,13477,13477,13477,13477,13477,13477,13477,13477,13477,13477,13477,13477,13477,13477,13477,13477,13477,13477,13477,13477,13477,13477,13477,13477,13477,13477,13477,13477,13477,13477,13477,13477,13477,13477,13477,13477,13477,13477,13477,13477,13477,13477,13477,13477,13477,13477,13477,13477,13477,13477,13477,13477,13477,13477,13477,13477,13477,13477,13477,13477,13477,13477,13477,13477,13477,13477,13477,13477,13477,13477,13477,13477,13477,13477,13477,13477,13477,13477,13477,13477,13477,13477,13477,13477,13477,13477,13477,13477,13477,13477,13477,13477,13477,13477,13477,13477,13477,13477,13477,13477,13477,13477,13477,13477,13477,13477,13477,13477,13477,13477,13477,13477,13477,13477,13477,13477,13477,13477,13477,13477,13477,13477,13477,13477,13477,13477,13477,13477,13477,13477,13477,13477,13477,13477,13477,13477,13477,13477,13477,13477,13477,13477,13477,13477,13477,13477,13477,13477,13477,13477,13477,13477,13477,13477,13477,13477,13477,13477,13477,13477,13477,13477,13477,13477,13477,13477,13477,13477,13477,13477,13477,13477,13477,13477,13477,13477,13477,13477,13477,13477,13477,13477,13477,13477,13477,13477,13477,13477,13477,13477,13477,13477,13477,13477,13477,13477,13477,13477,13477,13477,13477,13477,13477,13477,13477,13477,13477,13477,13477,13477,13477,13477,13477,13477,13477,13477,13477,13477,13477,13477,13477,13477,13477,13477,13477,13477,13477,13477,13477,13477,13477,13477,13477,13477,13477,13477,13477,13477,13477,13477,13477,13477,13477,13477,13477,13477,13477,13477,13477,13477,13477,13477,13477,13477,13477,13477,13477,13477,13477,13477,13477,13477,13477,13477,13477,13477,13477,13477,13477,13477,13477,13477,13477,13477,13477,13477,13477,13477,13477,13477,13477,13477,13477,13477,13477,13477,13477,13477,13477,13477,13477,13477,13477,13477,13477,13477,13477,13477,13477,13477,13477,13477,13477,13477,13477,13477,13477,13477,13477,13477,13477,13477,13477,13477,13477,13477,13477,13477,13477,13477,13477,13477,13477,13477,13477,13477,13477,13477,13477,13477,13477,13477,13477,13477,13477,13477,13477,13477,13477,13477,13477,13477,13477,13477,13477,13477,13477,13477,13477,13477,13477,13477,13477,13477,13477,13477,13477,13477,13477,13477,13477,13477,13477,13477,13477,13477,13477,13477,13477,13477,13477,13477,13477,13477,13477,13477,13477,13477,13477,13477,13477,13477,13477,13477,13477,13477,13477,13477,13477,13477,13477,13477,13477,13477,13477,13477,13477,13477,13477,13477,13477,13477,13477,13477,13477,13477,13477,13477,13477,13477,13477,13477,13477,13477,13477,13477,13477,13477,13477,13477,13477,13477,13477,13477,13477,13477,13477,13477,13477,13477,13477,13477,13477,13477,13477,13477,13477,13477,13477,13477,13477,13477,13477,13477,13477,13477,13477,13477,13477,13477,13477,13477,13477,13477,13477,13477,13477,13477,13477,13477,13477,13477,13477,13477,13477,13477,13477,13477,13477,13477,13477,13477,13477,13477,13477,13477,13477,13477,13477,13477,13477,13477,13477,13477,13477,13477,13477,13477,13477,13477,13477,13477,13477,13477,13477,13477,13477,13477,13477],"properties":[{"name":"presentationOnly","type":"bool","value":true}],"id":51},{"id":54,"name":"native-audio-boundaries","type":"objectgroup","x":0,"y":0,"opacity":1,"visible":true,"draworder":"topdown","objects":[{"id":37,"name":"native-audio-source-gate-west-upper","type":"area","class":"area","x":53,"y":611,"width":363,"height":213,"rotation":0,"visible":true,"properties":[]},{"id":38,"name":"native-audio-source-gate-east-upper","type":"area","class":"area","x":576,"y":611,"width":329,"height":213,"rotation":0,"visible":true,"properties":[]},{"id":39,"name":"native-audio-source-gate-west-middle","type":"area","class":"area","x":70,"y":780,"width":346,"height":225,"rotation":0,"visible":true,"properties":[]},{"id":40,"name":"native-audio-source-gate-east-middle","type":"area","class":"area","x":576,"y":780,"width":317,"height":225,"rotation":0,"visible":true,"properties":[]},{"id":41,"name":"native-audio-source-gate-west-lower","type":"area","class":"area","x":82,"y":1045,"width":334,"height":270,"rotation":0,"visible":true,"properties":[]},{"id":42,"name":"native-audio-source-gate-east-lower","type":"area","class":"area","x":576,"y":1045,"width":304,"height":270,"rotation":0,"visible":true,"properties":[]}]}],"tilesets":[{"firstgid":1,"name":"campus-atlas-01","image":"../../v6/gate/map/tilesets/campus-atlas-01.png","imagewidth":1024,"imageheight":1024,"tilewidth":32,"tileheight":32,"columns":32,"tilecount":1024,"margin":0,"spacing":0,"tiles":[{"id":0,"properties":[{"name":"collides","type":"bool","value":true}]}]},{"firstgid":3073,"name":"campus-atlas-04","image":"../../v6/gate/map/tilesets/campus-atlas-04.png","imagewidth":1024,"imageheight":1024,"tilewidth":32,"tileheight":32,"columns":32,"tilecount":1024,"margin":0,"spacing":0,"tiles":[]},{"firstgid":4097,"name":"campus-atlas-05","image":"../../v6/gate/map/tilesets/campus-atlas-05.png","imagewidth":1024,"imageheight":1024,"tilewidth":32,"tileheight":32,"columns":32,"tilecount":1024,"margin":0,"spacing":0,"tiles":[]},{"firstgid":5121,"name":"campus-atlas-06","image":"../../v6/gate/map/tilesets/campus-atlas-06.png","imagewidth":1024,"imageheight":1024,"tilewidth":32,"tileheight":32,"columns":32,"tilecount":1024,"margin":0,"spacing":0,"tiles":[{"id":228,"animation":[{"tileid":228,"duration":130},{"tileid":229,"duration":130},{"tileid":230,"duration":130},{"tileid":231,"duration":130},{"tileid":232,"duration":130},{"tileid":233,"duration":130},{"tileid":234,"duration":130},{"tileid":235,"duration":130}]},{"id":236,"animation":[{"tileid":236,"duration":130},{"tileid":237,"duration":130},{"tileid":238,"duration":130},{"tileid":239,"duration":130},{"tileid":240,"duration":130},{"tileid":241,"duration":130},{"tileid":242,"duration":130},{"tileid":243,"duration":130}]},{"id":244,"animation":[{"tileid":244,"duration":130},{"tileid":245,"duration":130},{"tileid":246,"duration":130},{"tileid":247,"duration":130},{"tileid":248,"duration":130},{"tileid":249,"duration":130},{"tileid":250,"duration":130},{"tileid":251,"duration":130}]},{"id":252,"animation":[{"tileid":252,"duration":130},{"tileid":253,"duration":130},{"tileid":254,"duration":130},{"tileid":255,"duration":130},{"tileid":256,"duration":130},{"tileid":257,"duration":130},{"tileid":258,"duration":130},{"tileid":259,"duration":130}]},{"id":260,"animation":[{"tileid":260,"duration":130},{"tileid":261,"duration":130},{"tileid":262,"duration":130},{"tileid":263,"duration":130},{"tileid":264,"duration":130},{"tileid":265,"duration":130},{"tileid":266,"duration":130},{"tileid":267,"duration":130}]},{"id":268,"animation":[{"tileid":268,"duration":130},{"tileid":269,"duration":130},{"tileid":270,"duration":130},{"tileid":271,"duration":130},{"tileid":272,"duration":130},{"tileid":273,"duration":130},{"tileid":274,"duration":130},{"tileid":275,"duration":130}]},{"id":276,"animation":[{"tileid":276,"duration":130},{"tileid":277,"duration":130},{"tileid":278,"duration":130},{"tileid":279,"duration":130},{"tileid":280,"duration":130},{"tileid":281,"duration":130},{"tileid":282,"duration":130},{"tileid":283,"duration":130}]},{"id":284,"animation":[{"tileid":284,"duration":130},{"tileid":285,"duration":130},{"tileid":286,"duration":130},{"tileid":287,"duration":130},{"tileid":288,"duration":130},{"tileid":289,"duration":130},{"tileid":290,"duration":130},{"tileid":291,"duration":130}]},{"id":292,"animation":[{"tileid":292,"duration":130},{"tileid":293,"duration":130},{"tileid":294,"duration":130},{"tileid":295,"duration":130},{"tileid":296,"duration":130},{"tileid":297,"duration":130},{"tileid":298,"duration":130},{"tileid":299,"duration":130}]},{"id":300,"animation":[{"tileid":300,"duration":130},{"tileid":301,"duration":130},{"tileid":302,"duration":130},{"tileid":303,"duration":130},{"tileid":304,"duration":130},{"tileid":305,"duration":130},{"tileid":306,"duration":130},{"tileid":307,"duration":130}]},{"id":308,"animation":[{"tileid":308,"duration":110},{"tileid":309,"duration":110},{"tileid":310,"duration":110},{"tileid":311,"duration":110},{"tileid":312,"duration":110},{"tileid":313,"duration":110},{"tileid":314,"duration":110},{"tileid":315,"duration":110}]},{"id":316,"animation":[{"tileid":316,"duration":110},{"tileid":317,"duration":110},{"tileid":318,"duration":110},{"tileid":319,"duration":110},{"tileid":320,"duration":110},{"tileid":321,"duration":110},{"tileid":322,"duration":110},{"tileid":323,"duration":110}]},{"id":324,"animation":[{"tileid":324,"duration":110},{"tileid":325,"duration":110},{"tileid":326,"duration":110},{"tileid":327,"duration":110},{"tileid":328,"duration":110},{"tileid":329,"duration":110},{"tileid":330,"duration":110},{"tileid":331,"duration":110}]},{"id":332,"animation":[{"tileid":332,"duration":110},{"tileid":333,"duration":110},{"tileid":334,"duration":110},{"tileid":335,"duration":110},{"tileid":336,"duration":110},{"tileid":337,"duration":110},{"tileid":338,"duration":110},{"tileid":339,"duration":110}]},{"id":340,"animation":[{"tileid":340,"duration":110},{"tileid":341,"duration":110},{"tileid":342,"duration":110},{"tileid":343,"duration":110},{"tileid":344,"duration":110},{"tileid":345,"duration":110},{"tileid":346,"duration":110},{"tileid":347,"duration":110}]},{"id":348,"animation":[{"tileid":348,"duration":110},{"tileid":349,"duration":110},{"tileid":350,"duration":110},{"tileid":351,"duration":110},{"tileid":352,"duration":110},{"tileid":353,"duration":110},{"tileid":354,"duration":110},{"tileid":355,"duration":110}]},{"id":356,"animation":[{"tileid":356,"duration":110},{"tileid":357,"duration":110},{"tileid":358,"duration":110},{"tileid":359,"duration":110},{"tileid":360,"duration":110},{"tileid":361,"duration":110},{"tileid":362,"duration":110},{"tileid":363,"duration":110}]},{"id":364,"animation":[{"tileid":364,"duration":110},{"tileid":365,"duration":110},{"tileid":366,"duration":110},{"tileid":367,"duration":110},{"tileid":368,"duration":110},{"tileid":369,"duration":110},{"tileid":370,"duration":110},{"tileid":371,"duration":110}]},{"id":372,"animation":[{"tileid":372,"duration":110},{"tileid":373,"duration":110},{"tileid":374,"duration":110},{"tileid":375,"duration":110},{"tileid":376,"duration":110},{"tileid":377,"duration":110},{"tileid":378,"duration":110},{"tileid":379,"duration":110}]},{"id":380,"animation":[{"tileid":380,"duration":110},{"tileid":381,"duration":110},{"tileid":382,"duration":110},{"tileid":383,"duration":110},{"tileid":384,"duration":110},{"tileid":385,"duration":110},{"tileid":386,"duration":110},{"tileid":387,"duration":110}]},{"id":388,"animation":[{"tileid":388,"duration":110},{"tileid":389,"duration":110},{"tileid":390,"duration":110},{"tileid":391,"duration":110},{"tileid":392,"duration":110},{"tileid":393,"duration":110},{"tileid":394,"duration":110},{"tileid":395,"duration":110}]},{"id":396,"animation":[{"tileid":396,"duration":110},{"tileid":397,"duration":110},{"tileid":398,"duration":110},{"tileid":399,"duration":110},{"tileid":400,"duration":110},{"tileid":401,"duration":110},{"tileid":402,"duration":110},{"tileid":403,"duration":110}]},{"id":404,"animation":[{"tileid":404,"duration":110},{"tileid":405,"duration":110},{"tileid":406,"duration":110},{"tileid":407,"duration":110},{"tileid":408,"duration":110},{"tileid":409,"duration":110},{"tileid":410,"duration":110},{"tileid":411,"duration":110}]},{"id":412,"animation":[{"tileid":412,"duration":110},{"tileid":413,"duration":110},{"tileid":414,"duration":110},{"tileid":415,"duration":110},{"tileid":416,"duration":110},{"tileid":417,"duration":110},{"tileid":418,"duration":110},{"tileid":419,"duration":110}]},{"id":420,"animation":[{"tileid":420,"duration":110},{"tileid":421,"duration":110},{"tileid":422,"duration":110},{"tileid":423,"duration":110},{"tileid":424,"duration":110},{"tileid":425,"duration":110},{"tileid":426,"duration":110},{"tileid":427,"duration":110}]},{"id":428,"animation":[{"tileid":428,"duration":110},{"tileid":429,"duration":110},{"tileid":430,"duration":110},{"tileid":431,"duration":110},{"tileid":432,"duration":110},{"tileid":433,"duration":110},{"tileid":434,"duration":110},{"tileid":435,"duration":110}]},{"id":436,"animation":[{"tileid":436,"duration":110},{"tileid":437,"duration":110},{"tileid":438,"duration":110},{"tileid":439,"duration":110},{"tileid":440,"duration":110},{"tileid":441,"duration":110},{"tileid":442,"duration":110},{"tileid":443,"duration":110}]},{"id":444,"animation":[{"tileid":444,"duration":110},{"tileid":445,"duration":110},{"tileid":446,"duration":110},{"tileid":447,"duration":110},{"tileid":448,"duration":110},{"tileid":449,"duration":110},{"tileid":450,"duration":110},{"tileid":451,"duration":110}]},{"id":452,"animation":[{"tileid":452,"duration":110},{"tileid":453,"duration":110},{"tileid":454,"duration":110},{"tileid":455,"duration":110},{"tileid":456,"duration":110},{"tileid":457,"duration":110},{"tileid":458,"duration":110},{"tileid":459,"duration":110}]},{"id":460,"animation":[{"tileid":460,"duration":110},{"tileid":461,"duration":110},{"tileid":462,"duration":110},{"tileid":463,"duration":110},{"tileid":464,"duration":110},{"tileid":465,"duration":110},{"tileid":466,"duration":110},{"tileid":467,"duration":110}]},{"id":468,"animation":[{"tileid":468,"duration":110},{"tileid":469,"duration":110},{"tileid":470,"duration":110},{"tileid":471,"duration":110},{"tileid":472,"duration":110},{"tileid":473,"duration":110},{"tileid":474,"duration":110},{"tileid":475,"duration":110}]},{"id":476,"animation":[{"tileid":476,"duration":110},{"tileid":477,"duration":110},{"tileid":478,"duration":110},{"tileid":479,"duration":110},{"tileid":480,"duration":110},{"tileid":481,"duration":110},{"tileid":482,"duration":110},{"tileid":483,"duration":110}]},{"id":484,"animation":[{"tileid":484,"duration":110},{"tileid":485,"duration":110},{"tileid":486,"duration":110},{"tileid":487,"duration":110},{"tileid":488,"duration":110},{"tileid":489,"duration":110},{"tileid":490,"duration":110},{"tileid":491,"duration":110}]},{"id":492,"animation":[{"tileid":492,"duration":110},{"tileid":493,"duration":110},{"tileid":494,"duration":110},{"tileid":495,"duration":110},{"tileid":496,"duration":110},{"tileid":497,"duration":110},{"tileid":498,"duration":110},{"tileid":499,"duration":110}]},{"id":500,"animation":[{"tileid":500,"duration":110},{"tileid":501,"duration":110},{"tileid":502,"duration":110},{"tileid":503,"duration":110},{"tileid":504,"duration":110},{"tileid":505,"duration":110},{"tileid":506,"duration":110},{"tileid":507,"duration":110}]},{"id":508,"animation":[{"tileid":508,"duration":110},{"tileid":509,"duration":110},{"tileid":510,"duration":110},{"tileid":511,"duration":110},{"tileid":512,"duration":110},{"tileid":513,"duration":110},{"tileid":514,"duration":110},{"tileid":515,"duration":110}]},{"id":516,"animation":[{"tileid":516,"duration":110},{"tileid":517,"duration":110},{"tileid":518,"duration":110},{"tileid":519,"duration":110},{"tileid":520,"duration":110},{"tileid":521,"duration":110},{"tileid":522,"duration":110},{"tileid":523,"duration":110}]},{"id":524,"animation":[{"tileid":524,"duration":110},{"tileid":525,"duration":110},{"tileid":526,"duration":110},{"tileid":527,"duration":110},{"tileid":528,"duration":110},{"tileid":529,"duration":110},{"tileid":530,"duration":110},{"tileid":531,"duration":110}]},{"id":532,"animation":[{"tileid":532,"duration":110},{"tileid":533,"duration":110},{"tileid":534,"duration":110},{"tileid":535,"duration":110},{"tileid":536,"duration":110},{"tileid":537,"duration":110},{"tileid":538,"duration":110},{"tileid":539,"duration":110}]},{"id":540,"animation":[{"tileid":540,"duration":110},{"tileid":541,"duration":110},{"tileid":542,"duration":110},{"tileid":543,"duration":110},{"tileid":544,"duration":110},{"tileid":545,"duration":110},{"tileid":546,"duration":110},{"tileid":547,"duration":110},{"tileid":548,"duration":110},{"tileid":549,"duration":110},{"tileid":550,"duration":110},{"tileid":551,"duration":110}]},{"id":552,"animation":[{"tileid":552,"duration":110},{"tileid":553,"duration":110},{"tileid":554,"duration":110},{"tileid":555,"duration":110},{"tileid":556,"duration":110},{"tileid":557,"duration":110},{"tileid":558,"duration":110},{"tileid":559,"duration":110},{"tileid":560,"duration":110},{"tileid":561,"duration":110},{"tileid":562,"duration":110},{"tileid":563,"duration":110}]},{"id":564,"animation":[{"tileid":564,"duration":110},{"tileid":565,"duration":110},{"tileid":566,"duration":110},{"tileid":567,"duration":110},{"tileid":568,"duration":110},{"tileid":569,"duration":110},{"tileid":570,"duration":110},{"tileid":571,"duration":110},{"tileid":572,"duration":110},{"tileid":573,"duration":110},{"tileid":574,"duration":110},{"tileid":575,"duration":110}]},{"id":576,"animation":[{"tileid":576,"duration":110},{"tileid":577,"duration":110},{"tileid":578,"duration":110},{"tileid":579,"duration":110},{"tileid":580,"duration":110},{"tileid":581,"duration":110},{"tileid":582,"duration":110},{"tileid":583,"duration":110},{"tileid":584,"duration":110},{"tileid":585,"duration":110},{"tileid":586,"duration":110},{"tileid":587,"duration":110}]},{"id":588,"animation":[{"tileid":588,"duration":110},{"tileid":589,"duration":110},{"tileid":590,"duration":110},{"tileid":591,"duration":110},{"tileid":592,"duration":110},{"tileid":593,"duration":110},{"tileid":594,"duration":110},{"tileid":595,"duration":110},{"tileid":596,"duration":110},{"tileid":597,"duration":110},{"tileid":598,"duration":110},{"tileid":599,"duration":110}]},{"id":600,"animation":[{"tileid":600,"duration":110},{"tileid":601,"duration":110},{"tileid":602,"duration":110},{"tileid":603,"duration":110},{"tileid":604,"duration":110},{"tileid":605,"duration":110},{"tileid":606,"duration":110},{"tileid":607,"duration":110},{"tileid":608,"duration":110},{"tileid":609,"duration":110},{"tileid":610,"duration":110},{"tileid":611,"duration":110}]},{"id":612,"animation":[{"tileid":612,"duration":110},{"tileid":613,"duration":110},{"tileid":614,"duration":110},{"tileid":615,"duration":110},{"tileid":616,"duration":110},{"tileid":617,"duration":110},{"tileid":618,"duration":110},{"tileid":619,"duration":110},{"tileid":620,"duration":110},{"tileid":621,"duration":110},{"tileid":622,"duration":110},{"tileid":623,"duration":110}]},{"id":624,"animation":[{"tileid":624,"duration":110},{"tileid":625,"duration":110},{"tileid":626,"duration":110},{"tileid":627,"duration":110},{"tileid":628,"duration":110},{"tileid":629,"duration":110},{"tileid":630,"duration":110},{"tileid":631,"duration":110},{"tileid":632,"duration":110},{"tileid":633,"duration":110},{"tileid":634,"duration":110},{"tileid":635,"duration":110}]},{"id":636,"animation":[{"tileid":636,"duration":110},{"tileid":637,"duration":110},{"tileid":638,"duration":110},{"tileid":639,"duration":110},{"tileid":640,"duration":110},{"tileid":641,"duration":110},{"tileid":642,"duration":110},{"tileid":643,"duration":110},{"tileid":644,"duration":110},{"tileid":645,"duration":110},{"tileid":646,"duration":110},{"tileid":647,"duration":110}]},{"id":648,"animation":[{"tileid":648,"duration":110},{"tileid":649,"duration":110},{"tileid":650,"duration":110},{"tileid":651,"duration":110},{"tileid":652,"duration":110},{"tileid":653,"duration":110},{"tileid":654,"duration":110},{"tileid":655,"duration":110},{"tileid":656,"duration":110},{"tileid":657,"duration":110},{"tileid":658,"duration":110},{"tileid":659,"duration":110}]},{"id":660,"animation":[{"tileid":660,"duration":110},{"tileid":661,"duration":110},{"tileid":662,"duration":110},{"tileid":663,"duration":110},{"tileid":664,"duration":110},{"tileid":665,"duration":110},{"tileid":666,"duration":110},{"tileid":667,"duration":110},{"tileid":668,"duration":110},{"tileid":669,"duration":110},{"tileid":670,"duration":110},{"tileid":671,"duration":110}]},{"id":672,"animation":[{"tileid":672,"duration":110},{"tileid":673,"duration":110},{"tileid":674,"duration":110},{"tileid":675,"duration":110},{"tileid":676,"duration":110},{"tileid":677,"duration":110},{"tileid":678,"duration":110},{"tileid":679,"duration":110},{"tileid":680,"duration":110},{"tileid":681,"duration":110},{"tileid":682,"duration":110},{"tileid":683,"duration":110}]},{"id":684,"animation":[{"tileid":684,"duration":110},{"tileid":685,"duration":110},{"tileid":686,"duration":110},{"tileid":687,"duration":110},{"tileid":688,"duration":110},{"tileid":689,"duration":110},{"tileid":690,"duration":110},{"tileid":691,"duration":110},{"tileid":692,"duration":110},{"tileid":693,"duration":110},{"tileid":694,"duration":110},{"tileid":695,"duration":110}]},{"id":696,"animation":[{"tileid":696,"duration":110},{"tileid":697,"duration":110},{"tileid":698,"duration":110},{"tileid":699,"duration":110},{"tileid":700,"duration":110},{"tileid":701,"duration":110},{"tileid":702,"duration":110},{"tileid":703,"duration":110},{"tileid":704,"duration":110},{"tileid":705,"duration":110},{"tileid":706,"duration":110},{"tileid":707,"duration":110}]},{"id":708,"animation":[{"tileid":708,"duration":110},{"tileid":709,"duration":110},{"tileid":710,"duration":110},{"tileid":711,"duration":110},{"tileid":712,"duration":110},{"tileid":713,"duration":110},{"tileid":714,"duration":110},{"tileid":715,"duration":110},{"tileid":716,"duration":110},{"tileid":717,"duration":110},{"tileid":718,"duration":110},{"tileid":719,"duration":110}]},{"id":720,"animation":[{"tileid":720,"duration":110},{"tileid":721,"duration":110},{"tileid":722,"duration":110},{"tileid":723,"duration":110},{"tileid":724,"duration":110},{"tileid":725,"duration":110},{"tileid":726,"duration":110},{"tileid":727,"duration":110},{"tileid":728,"duration":110},{"tileid":729,"duration":110},{"tileid":730,"duration":110},{"tileid":731,"duration":110}]},{"id":732,"animation":[{"tileid":732,"duration":110},{"tileid":733,"duration":110},{"tileid":734,"duration":110},{"tileid":735,"duration":110},{"tileid":736,"duration":110},{"tileid":737,"duration":110},{"tileid":738,"duration":110},{"tileid":739,"duration":110},{"tileid":740,"duration":110},{"tileid":741,"duration":110},{"tileid":742,"duration":110},{"tileid":743,"duration":110}]},{"id":744,"animation":[{"tileid":744,"duration":110},{"tileid":745,"duration":110},{"tileid":746,"duration":110},{"tileid":747,"duration":110},{"tileid":748,"duration":110},{"tileid":749,"duration":110},{"tileid":750,"duration":110},{"tileid":751,"duration":110},{"tileid":752,"duration":110},{"tileid":753,"duration":110},{"tileid":754,"duration":110},{"tileid":755,"duration":110}]},{"id":756,"animation":[{"tileid":756,"duration":110},{"tileid":757,"duration":110},{"tileid":758,"duration":110},{"tileid":759,"duration":110},{"tileid":760,"duration":110},{"tileid":761,"duration":110},{"tileid":762,"duration":110},{"tileid":763,"duration":110},{"tileid":764,"duration":110},{"tileid":765,"duration":110},{"tileid":766,"duration":110},{"tileid":767,"duration":110}]},{"id":768,"animation":[{"tileid":768,"duration":110},{"tileid":769,"duration":110},{"tileid":770,"duration":110},{"tileid":771,"duration":110},{"tileid":772,"duration":110},{"tileid":773,"duration":110},{"tileid":774,"duration":110},{"tileid":775,"duration":110},{"tileid":776,"duration":110},{"tileid":777,"duration":110},{"tileid":778,"duration":110},{"tileid":779,"duration":110}]},{"id":780,"animation":[{"tileid":780,"duration":110},{"tileid":781,"duration":110},{"tileid":782,"duration":110},{"tileid":783,"duration":110},{"tileid":784,"duration":110},{"tileid":785,"duration":110},{"tileid":786,"duration":110},{"tileid":787,"duration":110},{"tileid":788,"duration":110},{"tileid":789,"duration":110},{"tileid":790,"duration":110},{"tileid":791,"duration":110}]},{"id":792,"animation":[{"tileid":792,"duration":110},{"tileid":793,"duration":110},{"tileid":794,"duration":110},{"tileid":795,"duration":110},{"tileid":796,"duration":110},{"tileid":797,"duration":110},{"tileid":798,"duration":110},{"tileid":799,"duration":110},{"tileid":800,"duration":110},{"tileid":801,"duration":110},{"tileid":802,"duration":110},{"tileid":803,"duration":110}]},{"id":804,"animation":[{"tileid":804,"duration":110},{"tileid":805,"duration":110},{"tileid":806,"duration":110},{"tileid":807,"duration":110},{"tileid":808,"duration":110},{"tileid":809,"duration":110},{"tileid":810,"duration":110},{"tileid":811,"duration":110},{"tileid":812,"duration":110},{"tileid":813,"duration":110},{"tileid":814,"duration":110},{"tileid":815,"duration":110}]},{"id":816,"animation":[{"tileid":816,"duration":110},{"tileid":817,"duration":110},{"tileid":818,"duration":110},{"tileid":819,"duration":110},{"tileid":820,"duration":110},{"tileid":821,"duration":110},{"tileid":822,"duration":110},{"tileid":823,"duration":110},{"tileid":824,"duration":110},{"tileid":825,"duration":110},{"tileid":826,"duration":110},{"tileid":827,"duration":110}]},{"id":828,"animation":[{"tileid":828,"duration":110},{"tileid":829,"duration":110},{"tileid":830,"duration":110},{"tileid":831,"duration":110},{"tileid":832,"duration":110},{"tileid":833,"duration":110},{"tileid":834,"duration":110},{"tileid":835,"duration":110},{"tileid":836,"duration":110},{"tileid":837,"duration":110},{"tileid":838,"duration":110},{"tileid":839,"duration":110}]},{"id":840,"animation":[{"tileid":840,"duration":110},{"tileid":841,"duration":110},{"tileid":842,"duration":110},{"tileid":843,"duration":110},{"tileid":844,"duration":110},{"tileid":845,"duration":110},{"tileid":846,"duration":110},{"tileid":847,"duration":110},{"tileid":848,"duration":110},{"tileid":849,"duration":110},{"tileid":850,"duration":110},{"tileid":851,"duration":110}]},{"id":852,"animation":[{"tileid":852,"duration":110},{"tileid":853,"duration":110},{"tileid":854,"duration":110},{"tileid":855,"duration":110},{"tileid":856,"duration":110},{"tileid":857,"duration":110},{"tileid":858,"duration":110},{"tileid":859,"duration":110},{"tileid":860,"duration":110},{"tileid":861,"duration":110},{"tileid":862,"duration":110},{"tileid":863,"duration":110}]},{"id":864,"animation":[{"tileid":864,"duration":110},{"tileid":865,"duration":110},{"tileid":866,"duration":110},{"tileid":867,"duration":110},{"tileid":868,"duration":110},{"tileid":869,"duration":110},{"tileid":870,"duration":110},{"tileid":871,"duration":110},{"tileid":872,"duration":110},{"tileid":873,"duration":110},{"tileid":874,"duration":110},{"tileid":875,"duration":110}]},{"id":876,"animation":[{"tileid":876,"duration":110},{"tileid":877,"duration":110},{"tileid":878,"duration":110},{"tileid":879,"duration":110},{"tileid":880,"duration":110},{"tileid":881,"duration":110},{"tileid":882,"duration":110},{"tileid":883,"duration":110},{"tileid":884,"duration":110},{"tileid":885,"duration":110},{"tileid":886,"duration":110},{"tileid":887,"duration":110}]},{"id":888,"animation":[{"tileid":888,"duration":110},{"tileid":889,"duration":110},{"tileid":890,"duration":110},{"tileid":891,"duration":110},{"tileid":892,"duration":110},{"tileid":893,"duration":110},{"tileid":894,"duration":110},{"tileid":895,"duration":110},{"tileid":896,"duration":110},{"tileid":897,"duration":110},{"tileid":898,"duration":110},{"tileid":899,"duration":110}]},{"id":900,"animation":[{"tileid":900,"duration":110},{"tileid":901,"duration":110},{"tileid":902,"duration":110},{"tileid":903,"duration":110},{"tileid":904,"duration":110},{"tileid":905,"duration":110},{"tileid":906,"duration":110},{"tileid":907,"duration":110},{"tileid":908,"duration":110},{"tileid":909,"duration":110},{"tileid":910,"duration":110},{"tileid":911,"duration":110}]},{"id":912,"animation":[{"tileid":912,"duration":110},{"tileid":913,"duration":110},{"tileid":914,"duration":110},{"tileid":915,"duration":110},{"tileid":916,"duration":110},{"tileid":917,"duration":110},{"tileid":918,"duration":110},{"tileid":919,"duration":110},{"tileid":920,"duration":110},{"tileid":921,"duration":110},{"tileid":922,"duration":110},{"tileid":923,"duration":110}]},{"id":924,"animation":[{"tileid":924,"duration":110},{"tileid":925,"duration":110},{"tileid":926,"duration":110},{"tileid":927,"duration":110},{"tileid":928,"duration":110},{"tileid":929,"duration":110},{"tileid":930,"duration":110},{"tileid":931,"duration":110},{"tileid":932,"duration":110},{"tileid":933,"duration":110},{"tileid":934,"duration":110},{"tileid":935,"duration":110}]},{"id":936,"animation":[{"tileid":936,"duration":110},{"tileid":937,"duration":110},{"tileid":938,"duration":110},{"tileid":939,"duration":110},{"tileid":940,"duration":110},{"tileid":941,"duration":110},{"tileid":942,"duration":110},{"tileid":943,"duration":110},{"tileid":944,"duration":110},{"tileid":945,"duration":110},{"tileid":946,"duration":110},{"tileid":947,"duration":110}]},{"id":948,"animation":[{"tileid":948,"duration":110},{"tileid":949,"duration":110},{"tileid":950,"duration":110},{"tileid":951,"duration":110},{"tileid":952,"duration":110},{"tileid":953,"duration":110},{"tileid":954,"duration":110},{"tileid":955,"duration":110},{"tileid":956,"duration":110},{"tileid":957,"duration":110},{"tileid":958,"duration":110},{"tileid":959,"duration":110}]},{"id":960,"animation":[{"tileid":960,"duration":110},{"tileid":961,"duration":110},{"tileid":962,"duration":110},{"tileid":963,"duration":110},{"tileid":964,"duration":110},{"tileid":965,"duration":110},{"tileid":966,"duration":110},{"tileid":967,"duration":110},{"tileid":968,"duration":110},{"tileid":969,"duration":110},{"tileid":970,"duration":110},{"tileid":971,"duration":110}]},{"id":972,"animation":[{"tileid":972,"duration":110},{"tileid":973,"duration":110},{"tileid":974,"duration":110},{"tileid":975,"duration":110},{"tileid":976,"duration":110},{"tileid":977,"duration":110},{"tileid":978,"duration":110},{"tileid":979,"duration":110},{"tileid":980,"duration":110},{"tileid":981,"duration":110},{"tileid":982,"duration":110},{"tileid":983,"duration":110}]},{"id":984,"animation":[{"tileid":984,"duration":110},{"tileid":985,"duration":110},{"tileid":986,"duration":110},{"tileid":987,"duration":110},{"tileid":988,"duration":110},{"tileid":989,"duration":110},{"tileid":990,"duration":110},{"tileid":991,"duration":110},{"tileid":992,"duration":110},{"tileid":993,"duration":110},{"tileid":994,"duration":110},{"tileid":995,"duration":110}]}]},{"firstgid":9377,"name":"gate-journey-01","image":"../../v6/gate/map/tilesets/gate-journey-01.png","imagewidth":1024,"imageheight":1024,"tilewidth":32,"tileheight":32,"columns":32,"tilecount":1024,"margin":0,"spacing":0,"tiles":[{"id":9,"animation":[{"tileid":9,"duration":120},{"tileid":1,"duration":480},{"tileid":2,"duration":120},{"tileid":3,"duration":120},{"tileid":1,"duration":360},{"tileid":4,"duration":120},{"tileid":5,"duration":120},{"tileid":1,"duration":480},{"tileid":6,"duration":120},{"tileid":7,"duration":120},{"tileid":1,"duration":600},{"tileid":8,"duration":120}]},{"id":34,"animation":[{"tileid":34,"duration":120},{"tileid":11,"duration":120},{"tileid":12,"duration":120},{"tileid":13,"duration":120},{"tileid":14,"duration":120},{"tileid":15,"duration":120},{"tileid":16,"duration":120},{"tileid":17,"duration":120},{"tileid":18,"duration":120},{"tileid":19,"duration":120},{"tileid":20,"duration":120},{"tileid":21,"duration":120},{"tileid":22,"duration":120},{"tileid":23,"duration":120},{"tileid":24,"duration":120},{"tileid":25,"duration":120},{"tileid":26,"duration":120},{"tileid":27,"duration":120},{"tileid":28,"duration":120},{"tileid":29,"duration":120},{"tileid":30,"duration":120},{"tileid":31,"duration":120},{"tileid":32,"duration":120},{"tileid":33,"duration":120}]},{"id":59,"animation":[{"tileid":59,"duration":120},{"tileid":36,"duration":120},{"tileid":37,"duration":120},{"tileid":38,"duration":120},{"tileid":39,"duration":120},{"tileid":40,"duration":120},{"tileid":41,"duration":120},{"tileid":42,"duration":120},{"tileid":43,"duration":120},{"tileid":44,"duration":120},{"tileid":45,"duration":120},{"tileid":46,"duration":120},{"tileid":47,"duration":120},{"tileid":48,"duration":120},{"tileid":49,"duration":120},{"tileid":50,"duration":120},{"tileid":51,"duration":120},{"tileid":52,"duration":120},{"tileid":53,"duration":120},{"tileid":54,"duration":120},{"tileid":55,"duration":120},{"tileid":56,"duration":120},{"tileid":57,"duration":120},{"tileid":58,"duration":120}]},{"id":84,"animation":[{"tileid":84,"duration":120},{"tileid":61,"duration":120},{"tileid":62,"duration":120},{"tileid":63,"duration":120},{"tileid":64,"duration":120},{"tileid":65,"duration":120},{"tileid":66,"duration":120},{"tileid":67,"duration":120},{"tileid":68,"duration":120},{"tileid":69,"duration":120},{"tileid":70,"duration":120},{"tileid":71,"duration":120},{"tileid":72,"duration":120},{"tileid":73,"duration":120},{"tileid":74,"duration":120},{"tileid":75,"duration":120},{"tileid":76,"duration":120},{"tileid":77,"duration":120},{"tileid":78,"duration":120},{"tileid":79,"duration":120},{"tileid":80,"duration":120},{"tileid":81,"duration":120},{"tileid":82,"duration":120},{"tileid":83,"duration":120}]},{"id":109,"animation":[{"tileid":109,"duration":120},{"tileid":86,"duration":120},{"tileid":87,"duration":120},{"tileid":88,"duration":120},{"tileid":89,"duration":120},{"tileid":90,"duration":120},{"tileid":91,"duration":120},{"tileid":92,"duration":120},{"tileid":93,"duration":120},{"tileid":94,"duration":120},{"tileid":95,"duration":120},{"tileid":96,"duration":120},{"tileid":97,"duration":120},{"tileid":98,"duration":120},{"tileid":99,"duration":120},{"tileid":100,"duration":120},{"tileid":101,"duration":120},{"tileid":102,"duration":120},{"tileid":103,"duration":120},{"tileid":104,"duration":120},{"tileid":105,"duration":120},{"tileid":106,"duration":120},{"tileid":107,"duration":120},{"tileid":108,"duration":120}]},{"id":120,"animation":[{"tileid":120,"duration":120},{"tileid":111,"duration":120},{"tileid":112,"duration":120},{"tileid":1,"duration":1680},{"tileid":113,"duration":120},{"tileid":114,"duration":120},{"tileid":115,"duration":120},{"tileid":116,"duration":120},{"tileid":117,"duration":120},{"tileid":118,"duration":120},{"tileid":119,"duration":120}]},{"id":131,"animation":[{"tileid":131,"duration":600},{"tileid":121,"duration":120},{"tileid":122,"duration":120},{"tileid":123,"duration":120},{"tileid":124,"duration":120},{"tileid":125,"duration":120},{"tileid":1,"duration":120},{"tileid":126,"duration":120},{"tileid":127,"duration":120},{"tileid":128,"duration":120},{"tileid":129,"duration":120},{"tileid":130,"duration":120},{"tileid":1,"duration":960}]},{"id":139,"animation":[{"tileid":139,"duration":1680},{"tileid":132,"duration":120},{"tileid":133,"duration":120},{"tileid":134,"duration":120},{"tileid":135,"duration":120},{"tileid":136,"duration":120},{"tileid":137,"duration":120},{"tileid":138,"duration":120},{"tileid":1,"duration":360}]},{"id":158,"animation":[{"tileid":158,"duration":120},{"tileid":141,"duration":120},{"tileid":142,"duration":120},{"tileid":143,"duration":120},{"tileid":144,"duration":120},{"tileid":145,"duration":120},{"tileid":146,"duration":120},{"tileid":147,"duration":120},{"tileid":148,"duration":120},{"tileid":149,"duration":120},{"tileid":150,"duration":120},{"tileid":151,"duration":120},{"tileid":152,"duration":120},{"tileid":153,"duration":120},{"tileid":154,"duration":120},{"tileid":1,"duration":720},{"tileid":155,"duration":120},{"tileid":156,"duration":120},{"tileid":157,"duration":120}]},{"id":183,"animation":[{"tileid":183,"duration":120},{"tileid":160,"duration":120},{"tileid":161,"duration":120},{"tileid":162,"duration":120},{"tileid":163,"duration":120},{"tileid":164,"duration":120},{"tileid":165,"duration":120},{"tileid":166,"duration":120},{"tileid":167,"duration":120},{"tileid":168,"duration":120},{"tileid":169,"duration":120},{"tileid":170,"duration":120},{"tileid":171,"duration":120},{"tileid":172,"duration":120},{"tileid":173,"duration":120},{"tileid":174,"duration":120},{"tileid":175,"duration":120},{"tileid":176,"duration":120},{"tileid":177,"duration":120},{"tileid":178,"duration":120},{"tileid":179,"duration":120},{"tileid":180,"duration":120},{"tileid":181,"duration":120},{"tileid":182,"duration":120}]},{"id":208,"animation":[{"tileid":208,"duration":120},{"tileid":185,"duration":120},{"tileid":186,"duration":120},{"tileid":187,"duration":120},{"tileid":188,"duration":120},{"tileid":189,"duration":120},{"tileid":190,"duration":120},{"tileid":191,"duration":120},{"tileid":192,"duration":120},{"tileid":193,"duration":120},{"tileid":194,"duration":120},{"tileid":195,"duration":120},{"tileid":196,"duration":120},{"tileid":197,"duration":120},{"tileid":198,"duration":120},{"tileid":199,"duration":120},{"tileid":200,"duration":120},{"tileid":201,"duration":120},{"tileid":202,"duration":120},{"tileid":203,"duration":120},{"tileid":204,"duration":120},{"tileid":205,"duration":120},{"tileid":206,"duration":120},{"tileid":207,"duration":120}]},{"id":228,"animation":[{"tileid":228,"duration":120},{"tileid":210,"duration":120},{"tileid":211,"duration":120},{"tileid":212,"duration":120},{"tileid":213,"duration":120},{"tileid":214,"duration":120},{"tileid":215,"duration":120},{"tileid":216,"duration":120},{"tileid":217,"duration":120},{"tileid":218,"duration":120},{"tileid":219,"duration":120},{"tileid":220,"duration":120},{"tileid":1,"duration":600},{"tileid":221,"duration":120},{"tileid":222,"duration":120},{"tileid":223,"duration":120},{"tileid":224,"duration":120},{"tileid":225,"duration":120},{"tileid":226,"duration":120},{"tileid":227,"duration":120}]},{"id":253,"animation":[{"tileid":253,"duration":120},{"tileid":230,"duration":120},{"tileid":231,"duration":120},{"tileid":232,"duration":120},{"tileid":233,"duration":120},{"tileid":234,"duration":120},{"tileid":235,"duration":120},{"tileid":236,"duration":120},{"tileid":237,"duration":120},{"tileid":238,"duration":120},{"tileid":239,"duration":120},{"tileid":240,"duration":120},{"tileid":241,"duration":120},{"tileid":242,"duration":120},{"tileid":243,"duration":120},{"tileid":244,"duration":120},{"tileid":245,"duration":120},{"tileid":246,"duration":120},{"tileid":247,"duration":120},{"tileid":248,"duration":120},{"tileid":249,"duration":120},{"tileid":250,"duration":120},{"tileid":251,"duration":120},{"tileid":252,"duration":120}]},{"id":266,"animation":[{"tileid":266,"duration":1200},{"tileid":254,"duration":120},{"tileid":255,"duration":120},{"tileid":256,"duration":120},{"tileid":257,"duration":120},{"tileid":258,"duration":120},{"tileid":259,"duration":120},{"tileid":260,"duration":120},{"tileid":261,"duration":120},{"tileid":262,"duration":120},{"tileid":263,"duration":120},{"tileid":264,"duration":120},{"tileid":265,"duration":120},{"tileid":1,"duration":240}]},{"id":280,"animation":[{"tileid":280,"duration":120},{"tileid":268,"duration":120},{"tileid":269,"duration":120},{"tileid":270,"duration":120},{"tileid":271,"duration":120},{"tileid":272,"duration":120},{"tileid":273,"duration":120},{"tileid":274,"duration":120},{"tileid":275,"duration":120},{"tileid":276,"duration":120},{"tileid":277,"duration":120},{"tileid":1,"duration":1320},{"tileid":278,"duration":120},{"tileid":279,"duration":120}]},{"id":286,"animation":[{"tileid":286,"duration":1080},{"tileid":281,"duration":120},{"tileid":282,"duration":120},{"tileid":283,"duration":120},{"tileid":284,"duration":120},{"tileid":285,"duration":120},{"tileid":1,"duration":1200}]},{"id":304,"animation":[{"tileid":304,"duration":120},{"tileid":288,"duration":120},{"tileid":289,"duration":120},{"tileid":290,"duration":120},{"tileid":291,"duration":120},{"tileid":292,"duration":120},{"tileid":293,"duration":120},{"tileid":294,"duration":120},{"tileid":1,"duration":840},{"tileid":295,"duration":120},{"tileid":296,"duration":120},{"tileid":297,"duration":120},{"tileid":298,"duration":120},{"tileid":299,"duration":120},{"tileid":300,"duration":120},{"tileid":301,"duration":120},{"tileid":302,"duration":120},{"tileid":303,"duration":120}]},{"id":325,"animation":[{"tileid":325,"duration":120},{"tileid":306,"duration":120},{"tileid":307,"duration":120},{"tileid":308,"duration":120},{"tileid":309,"duration":120},{"tileid":1,"duration":480},{"tileid":310,"duration":120},{"tileid":311,"duration":120},{"tileid":312,"duration":120},{"tileid":313,"duration":120},{"tileid":314,"duration":120},{"tileid":315,"duration":120},{"tileid":316,"duration":120},{"tileid":317,"duration":120},{"tileid":318,"duration":120},{"tileid":319,"duration":120},{"tileid":320,"duration":120},{"tileid":321,"duration":120},{"tileid":322,"duration":120},{"tileid":323,"duration":120},{"tileid":324,"duration":120}]},{"id":342,"animation":[{"tileid":342,"duration":720},{"tileid":326,"duration":120},{"tileid":327,"duration":120},{"tileid":328,"duration":120},{"tileid":329,"duration":120},{"tileid":330,"duration":120},{"tileid":331,"duration":120},{"tileid":332,"duration":120},{"tileid":333,"duration":120},{"tileid":334,"duration":120},{"tileid":335,"duration":120},{"tileid":336,"duration":120},{"tileid":337,"duration":120},{"tileid":338,"duration":120},{"tileid":339,"duration":120},{"tileid":340,"duration":120},{"tileid":341,"duration":120},{"tileid":1,"duration":240}]},{"id":359,"animation":[{"tileid":359,"duration":120},{"tileid":344,"duration":120},{"tileid":345,"duration":120},{"tileid":346,"duration":120},{"tileid":347,"duration":120},{"tileid":348,"duration":120},{"tileid":349,"duration":120},{"tileid":350,"duration":120},{"tileid":351,"duration":120},{"tileid":352,"duration":120},{"tileid":353,"duration":120},{"tileid":1,"duration":960},{"tileid":354,"duration":120},{"tileid":355,"duration":120},{"tileid":356,"duration":120},{"tileid":357,"duration":120},{"tileid":358,"duration":120}]},{"id":384,"animation":[{"tileid":384,"duration":120},{"tileid":361,"duration":120},{"tileid":362,"duration":120},{"tileid":363,"duration":120},{"tileid":364,"duration":120},{"tileid":365,"duration":120},{"tileid":366,"duration":120},{"tileid":367,"duration":120},{"tileid":368,"duration":120},{"tileid":369,"duration":120},{"tileid":370,"duration":120},{"tileid":371,"duration":120},{"tileid":372,"duration":120},{"tileid":373,"duration":120},{"tileid":374,"duration":120},{"tileid":375,"duration":120},{"tileid":376,"duration":120},{"tileid":377,"duration":120},{"tileid":378,"duration":120},{"tileid":379,"duration":120},{"tileid":380,"duration":120},{"tileid":381,"duration":120},{"tileid":382,"duration":120},{"tileid":383,"duration":120}]},{"id":404,"animation":[{"tileid":404,"duration":120},{"tileid":386,"duration":120},{"tileid":387,"duration":120},{"tileid":388,"duration":120},{"tileid":389,"duration":120},{"tileid":390,"duration":120},{"tileid":391,"duration":120},{"tileid":392,"duration":120},{"tileid":393,"duration":120},{"tileid":1,"duration":600},{"tileid":394,"duration":120},{"tileid":395,"duration":120},{"tileid":396,"duration":120},{"tileid":397,"duration":120},{"tileid":398,"duration":120},{"tileid":399,"duration":120},{"tileid":400,"duration":120},{"tileid":401,"duration":120},{"tileid":402,"duration":120},{"tileid":403,"duration":120}]},{"id":424,"animation":[{"tileid":424,"duration":360},{"tileid":405,"duration":120},{"tileid":406,"duration":120},{"tileid":407,"duration":120},{"tileid":408,"duration":120},{"tileid":409,"duration":120},{"tileid":410,"duration":120},{"tileid":411,"duration":120},{"tileid":412,"duration":120},{"tileid":413,"duration":120},{"tileid":414,"duration":120},{"tileid":415,"duration":120},{"tileid":416,"duration":120},{"tileid":417,"duration":120},{"tileid":418,"duration":120},{"tileid":419,"duration":120},{"tileid":420,"duration":120},{"tileid":421,"duration":120},{"tileid":422,"duration":120},{"tileid":423,"duration":120},{"tileid":1,"duration":240}]},{"id":443,"animation":[{"tileid":443,"duration":240},{"tileid":425,"duration":120},{"tileid":426,"duration":120},{"tileid":427,"duration":120},{"tileid":428,"duration":120},{"tileid":429,"duration":120},{"tileid":430,"duration":120},{"tileid":431,"duration":120},{"tileid":432,"duration":120},{"tileid":433,"duration":120},{"tileid":434,"duration":120},{"tileid":435,"duration":120},{"tileid":436,"duration":120},{"tileid":437,"duration":120},{"tileid":438,"duration":120},{"tileid":439,"duration":120},{"tileid":440,"duration":120},{"tileid":441,"duration":120},{"tileid":442,"duration":120},{"tileid":1,"duration":480}]},{"id":454,"animation":[{"tileid":454,"duration":120},{"tileid":444,"duration":120},{"tileid":445,"duration":120},{"tileid":446,"duration":120},{"tileid":447,"duration":120},{"tileid":448,"duration":120},{"tileid":1,"duration":120},{"tileid":449,"duration":120},{"tileid":450,"duration":120},{"tileid":451,"duration":120},{"tileid":452,"duration":120},{"tileid":453,"duration":120},{"tileid":1,"duration":1440}]},{"id":465,"animation":[{"tileid":465,"duration":120},{"tileid":1,"duration":1560},{"tileid":456,"duration":120},{"tileid":457,"duration":120},{"tileid":458,"duration":120},{"tileid":459,"duration":120},{"tileid":460,"duration":120},{"tileid":1,"duration":120},{"tileid":461,"duration":120},{"tileid":462,"duration":120},{"tileid":463,"duration":120},{"tileid":464,"duration":120}]},{"id":480,"animation":[{"tileid":480,"duration":120},{"tileid":466,"duration":120},{"tileid":467,"duration":120},{"tileid":468,"duration":120},{"tileid":469,"duration":120},{"tileid":1,"duration":240},{"tileid":470,"duration":120},{"tileid":471,"duration":120},{"tileid":472,"duration":120},{"tileid":1,"duration":360},{"tileid":473,"duration":120},{"tileid":474,"duration":120},{"tileid":475,"duration":120},{"tileid":1,"duration":240},{"tileid":476,"duration":120},{"tileid":477,"duration":120},{"tileid":478,"duration":120},{"tileid":479,"duration":120},{"tileid":1,"duration":240}]},{"id":505,"animation":[{"tileid":505,"duration":120},{"tileid":482,"duration":120},{"tileid":483,"duration":120},{"tileid":484,"duration":120},{"tileid":485,"duration":120},{"tileid":486,"duration":120},{"tileid":487,"duration":120},{"tileid":488,"duration":120},{"tileid":489,"duration":120},{"tileid":490,"duration":120},{"tileid":491,"duration":120},{"tileid":492,"duration":120},{"tileid":493,"duration":120},{"tileid":494,"duration":120},{"tileid":495,"duration":120},{"tileid":496,"duration":120},{"tileid":497,"duration":120},{"tileid":498,"duration":120},{"tileid":499,"duration":120},{"tileid":500,"duration":120},{"tileid":501,"duration":120},{"tileid":502,"duration":120},{"tileid":503,"duration":120},{"tileid":504,"duration":120}]},{"id":530,"animation":[{"tileid":530,"duration":120},{"tileid":507,"duration":120},{"tileid":508,"duration":120},{"tileid":509,"duration":120},{"tileid":510,"duration":120},{"tileid":511,"duration":120},{"tileid":512,"duration":120},{"tileid":513,"duration":120},{"tileid":514,"duration":120},{"tileid":515,"duration":120},{"tileid":516,"duration":120},{"tileid":517,"duration":120},{"tileid":518,"duration":120},{"tileid":519,"duration":120},{"tileid":520,"duration":120},{"tileid":521,"duration":120},{"tileid":522,"duration":120},{"tileid":523,"duration":120},{"tileid":524,"duration":120},{"tileid":525,"duration":120},{"tileid":526,"duration":120},{"tileid":527,"duration":120},{"tileid":528,"duration":120},{"tileid":529,"duration":120}]},{"id":560,"animation":[{"tileid":560,"duration":750},{"tileid":531,"duration":75},{"tileid":532,"duration":75},{"tileid":533,"duration":75},{"tileid":534,"duration":75},{"tileid":1,"duration":675},{"tileid":535,"duration":75},{"tileid":536,"duration":75},{"tileid":537,"duration":75},{"tileid":538,"duration":75},{"tileid":539,"duration":75},{"tileid":1,"duration":675},{"tileid":540,"duration":75},{"tileid":541,"duration":75},{"tileid":542,"duration":75},{"tileid":543,"duration":75},{"tileid":1,"duration":750},{"tileid":544,"duration":75},{"tileid":545,"duration":75},{"tileid":546,"duration":75},{"tileid":547,"duration":75},{"tileid":1,"duration":750},{"tileid":548,"duration":75},{"tileid":549,"duration":75},{"tileid":550,"duration":75},{"tileid":551,"duration":75},{"tileid":1,"duration":675},{"tileid":552,"duration":75},{"tileid":553,"duration":75},{"tileid":554,"duration":75},{"tileid":555,"duration":75},{"tileid":1,"duration":750},{"tileid":556,"duration":75},{"tileid":557,"duration":75},{"tileid":558,"duration":75},{"tileid":559,"duration":75}]},{"id":590,"animation":[{"tileid":590,"duration":750},{"tileid":561,"duration":75},{"tileid":562,"duration":75},{"tileid":563,"duration":75},{"tileid":564,"duration":75},{"tileid":1,"duration":675},{"tileid":565,"duration":75},{"tileid":566,"duration":75},{"tileid":567,"duration":75},{"tileid":568,"duration":75},{"tileid":569,"duration":75},{"tileid":1,"duration":675},{"tileid":570,"duration":75},{"tileid":571,"duration":75},{"tileid":572,"duration":75},{"tileid":573,"duration":75},{"tileid":1,"duration":750},{"tileid":574,"duration":75},{"tileid":575,"duration":75},{"tileid":576,"duration":75},{"tileid":577,"duration":75},{"tileid":1,"duration":750},{"tileid":578,"duration":75},{"tileid":579,"duration":75},{"tileid":580,"duration":75},{"tileid":581,"duration":75},{"tileid":1,"duration":675},{"tileid":582,"duration":75},{"tileid":583,"duration":75},{"tileid":584,"duration":75},{"tileid":585,"duration":75},{"tileid":1,"duration":750},{"tileid":586,"duration":75},{"tileid":587,"duration":75},{"tileid":588,"duration":75},{"tileid":589,"duration":75}]},{"id":638,"animation":[{"tileid":638,"duration":450},{"tileid":591,"duration":75},{"tileid":592,"duration":75},{"tileid":593,"duration":75},{"tileid":594,"duration":75},{"tileid":595,"duration":75},{"tileid":596,"duration":75},{"tileid":1,"duration":600},{"tileid":597,"duration":75},{"tileid":598,"duration":75},{"tileid":599,"duration":75},{"tileid":600,"duration":75},{"tileid":601,"duration":75},{"tileid":602,"duration":75},{"tileid":603,"duration":75},{"tileid":1,"duration":450},{"tileid":604,"duration":75},{"tileid":605,"duration":75},{"tileid":606,"duration":75},{"tileid":607,"duration":75},{"tileid":608,"duration":75},{"tileid":609,"duration":75},{"tileid":610,"duration":75},{"tileid":611,"duration":75},{"tileid":1,"duration":525},{"tileid":612,"duration":75},{"tileid":613,"duration":75},{"tileid":614,"duration":75},{"tileid":615,"duration":75},{"tileid":616,"duration":75},{"tileid":1,"duration":600},{"tileid":617,"duration":75},{"tileid":618,"duration":75},{"tileid":619,"duration":75},{"tileid":620,"duration":75},{"tileid":621,"duration":75},{"tileid":622,"duration":75},{"tileid":1,"duration":600},{"tileid":623,"duration":75},{"tileid":624,"duration":75},{"tileid":625,"duration":75},{"tileid":626,"duration":75},{"tileid":627,"duration":75},{"tileid":628,"duration":75},{"tileid":629,"duration":75},{"tileid":1,"duration":450},{"tileid":630,"duration":75},{"tileid":631,"duration":75},{"tileid":632,"duration":75},{"tileid":633,"duration":75},{"tileid":634,"duration":75},{"tileid":635,"duration":75},{"tileid":636,"duration":75},{"tileid":637,"duration":75}]},{"id":686,"animation":[{"tileid":686,"duration":450},{"tileid":639,"duration":75},{"tileid":640,"duration":75},{"tileid":641,"duration":75},{"tileid":642,"duration":75},{"tileid":643,"duration":75},{"tileid":644,"duration":75},{"tileid":645,"duration":75},{"tileid":1,"duration":525},{"tileid":646,"duration":75},{"tileid":647,"duration":75},{"tileid":648,"duration":75},{"tileid":649,"duration":75},{"tileid":650,"duration":75},{"tileid":651,"duration":75},{"tileid":1,"duration":525},{"tileid":652,"duration":75},{"tileid":653,"duration":75},{"tileid":654,"duration":75},{"tileid":655,"duration":75},{"tileid":656,"duration":75},{"tileid":657,"duration":75},{"tileid":658,"duration":75},{"tileid":1,"duration":525},{"tileid":659,"duration":75},{"tileid":660,"duration":75},{"tileid":661,"duration":75},{"tileid":662,"duration":75},{"tileid":663,"duration":75},{"tileid":664,"duration":75},{"tileid":665,"duration":75},{"tileid":1,"duration":525},{"tileid":666,"duration":75},{"tileid":667,"duration":75},{"tileid":668,"duration":75},{"tileid":669,"duration":75},{"tileid":670,"duration":75},{"tileid":671,"duration":75},{"tileid":672,"duration":75},{"tileid":1,"duration":525},{"tileid":673,"duration":75},{"tileid":674,"duration":75},{"tileid":675,"duration":75},{"tileid":676,"duration":75},{"tileid":677,"duration":75},{"tileid":678,"duration":75},{"tileid":1,"duration":525},{"tileid":679,"duration":75},{"tileid":680,"duration":75},{"tileid":681,"duration":75},{"tileid":682,"duration":75},{"tileid":683,"duration":75},{"tileid":684,"duration":75},{"tileid":685,"duration":75},{"tileid":1,"duration":75}]},{"id":735,"animation":[{"tileid":735,"duration":150},{"tileid":687,"duration":75},{"tileid":688,"duration":75},{"tileid":689,"duration":75},{"tileid":690,"duration":75},{"tileid":691,"duration":75},{"tileid":692,"duration":75},{"tileid":693,"duration":75},{"tileid":1,"duration":525},{"tileid":694,"duration":75},{"tileid":695,"duration":75},{"tileid":696,"duration":75},{"tileid":697,"duration":75},{"tileid":698,"duration":75},{"tileid":699,"duration":75},{"tileid":700,"duration":75},{"tileid":701,"duration":75},{"tileid":1,"duration":450},{"tileid":702,"duration":75},{"tileid":703,"duration":75},{"tileid":704,"duration":75},{"tileid":705,"duration":75},{"tileid":706,"duration":75},{"tileid":707,"duration":75},{"tileid":708,"duration":75},{"tileid":709,"duration":75},{"tileid":1,"duration":675},{"tileid":710,"duration":75},{"tileid":711,"duration":75},{"tileid":1,"duration":600},{"tileid":712,"duration":75},{"tileid":713,"duration":75},{"tileid":714,"duration":75},{"tileid":715,"duration":75},{"tileid":716,"duration":75},{"tileid":717,"duration":75},{"tileid":718,"duration":75},{"tileid":719,"duration":75},{"tileid":1,"duration":450},{"tileid":720,"duration":75},{"tileid":721,"duration":75},{"tileid":722,"duration":75},{"tileid":723,"duration":75},{"tileid":724,"duration":75},{"tileid":725,"duration":75},{"tileid":726,"duration":75},{"tileid":727,"duration":75},{"tileid":1,"duration":450},{"tileid":728,"duration":75},{"tileid":729,"duration":75},{"tileid":730,"duration":75},{"tileid":731,"duration":75},{"tileid":732,"duration":75},{"tileid":733,"duration":75},{"tileid":734,"duration":75},{"tileid":1,"duration":300}]},{"id":785,"animation":[{"tileid":785,"duration":150},{"tileid":736,"duration":75},{"tileid":737,"duration":75},{"tileid":738,"duration":75},{"tileid":739,"duration":75},{"tileid":740,"duration":75},{"tileid":741,"duration":75},{"tileid":742,"duration":75},{"tileid":743,"duration":75},{"tileid":1,"duration":450},{"tileid":744,"duration":75},{"tileid":745,"duration":75},{"tileid":746,"duration":75},{"tileid":747,"duration":75},{"tileid":748,"duration":75},{"tileid":749,"duration":75},{"tileid":750,"duration":75},{"tileid":1,"duration":525},{"tileid":751,"duration":75},{"tileid":752,"duration":75},{"tileid":753,"duration":75},{"tileid":754,"duration":75},{"tileid":755,"duration":75},{"tileid":756,"duration":75},{"tileid":1,"duration":525},{"tileid":757,"duration":75},{"tileid":758,"duration":75},{"tileid":759,"duration":75},{"tileid":760,"duration":75},{"tileid":761,"duration":75},{"tileid":762,"duration":75},{"tileid":763,"duration":75},{"tileid":764,"duration":75},{"tileid":1,"duration":525},{"tileid":765,"duration":75},{"tileid":766,"duration":75},{"tileid":767,"duration":75},{"tileid":768,"duration":75},{"tileid":769,"duration":75},{"tileid":770,"duration":75},{"tileid":1,"duration":525},{"tileid":771,"duration":75},{"tileid":772,"duration":75},{"tileid":773,"duration":75},{"tileid":774,"duration":75},{"tileid":775,"duration":75},{"tileid":776,"duration":75},{"tileid":777,"duration":75},{"tileid":1,"duration":525},{"tileid":778,"duration":75},{"tileid":779,"duration":75},{"tileid":780,"duration":75},{"tileid":781,"duration":75},{"tileid":782,"duration":75},{"tileid":783,"duration":75},{"tileid":784,"duration":75},{"tileid":1,"duration":300}]},{"id":831,"animation":[{"tileid":831,"duration":75},{"tileid":787,"duration":75},{"tileid":788,"duration":75},{"tileid":789,"duration":75},{"tileid":790,"duration":75},{"tileid":1,"duration":600},{"tileid":791,"duration":75},{"tileid":792,"duration":75},{"tileid":793,"duration":75},{"tileid":794,"duration":75},{"tileid":795,"duration":75},{"tileid":796,"duration":75},{"tileid":797,"duration":75},{"tileid":1,"duration":450},{"tileid":798,"duration":75},{"tileid":799,"duration":75},{"tileid":800,"duration":75},{"tileid":801,"duration":75},{"tileid":802,"duration":75},{"tileid":803,"duration":75},{"tileid":804,"duration":75},{"tileid":805,"duration":75},{"tileid":1,"duration":1500},{"tileid":806,"duration":75},{"tileid":807,"duration":75},{"tileid":808,"duration":75},{"tileid":809,"duration":75},{"tileid":810,"duration":75},{"tileid":811,"duration":75},{"tileid":812,"duration":75},{"tileid":813,"duration":75},{"tileid":1,"duration":375},{"tileid":814,"duration":75},{"tileid":815,"duration":75},{"tileid":816,"duration":75},{"tileid":817,"duration":75},{"tileid":818,"duration":75},{"tileid":819,"duration":75},{"tileid":820,"duration":75},{"tileid":821,"duration":75},{"tileid":1,"duration":450},{"tileid":822,"duration":75},{"tileid":823,"duration":75},{"tileid":824,"duration":75},{"tileid":825,"duration":75},{"tileid":826,"duration":75},{"tileid":827,"duration":75},{"tileid":828,"duration":75},{"tileid":829,"duration":75},{"tileid":1,"duration":450},{"tileid":830,"duration":75}]},{"id":882,"animation":[{"tileid":882,"duration":75},{"tileid":833,"duration":75},{"tileid":834,"duration":75},{"tileid":835,"duration":75},{"tileid":836,"duration":75},{"tileid":837,"duration":75},{"tileid":838,"duration":75},{"tileid":1,"duration":450},{"tileid":839,"duration":75},{"tileid":840,"duration":75},{"tileid":841,"duration":75},{"tileid":842,"duration":75},{"tileid":843,"duration":75},{"tileid":844,"duration":75},{"tileid":1,"duration":525},{"tileid":845,"duration":75},{"tileid":846,"duration":75},{"tileid":847,"duration":75},{"tileid":848,"duration":75},{"tileid":849,"duration":75},{"tileid":850,"duration":75},{"tileid":851,"duration":75},{"tileid":1,"duration":525},{"tileid":852,"duration":75},{"tileid":853,"duration":75},{"tileid":854,"duration":75},{"tileid":855,"duration":75},{"tileid":856,"duration":75},{"tileid":857,"duration":75},{"tileid":858,"duration":75},{"tileid":859,"duration":75},{"tileid":1,"duration":450},{"tileid":860,"duration":75},{"tileid":861,"duration":75},{"tileid":862,"duration":75},{"tileid":863,"duration":75},{"tileid":864,"duration":75},{"tileid":865,"duration":75},{"tileid":1,"duration":525},{"tileid":866,"duration":75},{"tileid":867,"duration":75},{"tileid":868,"duration":75},{"tileid":869,"duration":75},{"tileid":870,"duration":75},{"tileid":871,"duration":75},{"tileid":872,"duration":75},{"tileid":1,"duration":525},{"tileid":873,"duration":75},{"tileid":874,"duration":75},{"tileid":875,"duration":75},{"tileid":876,"duration":75},{"tileid":877,"duration":75},{"tileid":878,"duration":75},{"tileid":879,"duration":75},{"tileid":880,"duration":75},{"tileid":1,"duration":450},{"tileid":881,"duration":75}]},{"id":929,"animation":[{"tileid":929,"duration":75},{"tileid":884,"duration":75},{"tileid":885,"duration":75},{"tileid":1,"duration":450},{"tileid":886,"duration":75},{"tileid":887,"duration":75},{"tileid":888,"duration":75},{"tileid":889,"duration":75},{"tileid":890,"duration":75},{"tileid":891,"duration":75},{"tileid":892,"duration":75},{"tileid":893,"duration":75},{"tileid":1,"duration":375},{"tileid":894,"duration":75},{"tileid":895,"duration":75},{"tileid":896,"duration":75},{"tileid":897,"duration":75},{"tileid":898,"duration":75},{"tileid":899,"duration":75},{"tileid":900,"duration":75},{"tileid":901,"duration":75},{"tileid":1,"duration":1500},{"tileid":902,"duration":75},{"tileid":903,"duration":75},{"tileid":904,"duration":75},{"tileid":905,"duration":75},{"tileid":906,"duration":75},{"tileid":907,"duration":75},{"tileid":908,"duration":75},{"tileid":909,"duration":75},{"tileid":1,"duration":450},{"tileid":910,"duration":75},{"tileid":911,"duration":75},{"tileid":912,"duration":75},{"tileid":913,"duration":75},{"tileid":914,"duration":75},{"tileid":915,"duration":75},{"tileid":1,"duration":525},{"tileid":916,"duration":75},{"tileid":917,"duration":75},{"tileid":918,"duration":75},{"tileid":919,"duration":75},{"tileid":920,"duration":75},{"tileid":921,"duration":75},{"tileid":922,"duration":75},{"tileid":923,"duration":75},{"tileid":1,"duration":450},{"tileid":924,"duration":75},{"tileid":925,"duration":75},{"tileid":926,"duration":75},{"tileid":927,"duration":75},{"tileid":928,"duration":75}]},{"id":981,"animation":[{"tileid":981,"duration":75},{"tileid":931,"duration":75},{"tileid":932,"duration":75},{"tileid":1,"duration":450},{"tileid":933,"duration":75},{"tileid":934,"duration":75},{"tileid":935,"duration":75},{"tileid":936,"duration":75},{"tileid":937,"duration":75},{"tileid":938,"duration":75},{"tileid":939,"duration":75},{"tileid":1,"duration":525},{"tileid":940,"duration":75},{"tileid":941,"duration":75},{"tileid":942,"duration":75},{"tileid":943,"duration":75},{"tileid":944,"duration":75},{"tileid":945,"duration":75},{"tileid":1,"duration":525},{"tileid":946,"duration":75},{"tileid":947,"duration":75},{"tileid":948,"duration":75},{"tileid":949,"duration":75},{"tileid":950,"duration":75},{"tileid":951,"duration":75},{"tileid":952,"duration":75},{"tileid":953,"duration":75},{"tileid":1,"duration":525},{"tileid":954,"duration":75},{"tileid":955,"duration":75},{"tileid":956,"duration":75},{"tileid":957,"duration":75},{"tileid":958,"duration":75},{"tileid":959,"duration":75},{"tileid":1,"duration":525},{"tileid":960,"duration":75},{"tileid":961,"duration":75},{"tileid":962,"duration":75},{"tileid":963,"duration":75},{"tileid":964,"duration":75},{"tileid":965,"duration":75},{"tileid":966,"duration":75},{"tileid":967,"duration":75},{"tileid":1,"duration":375},{"tileid":968,"duration":75},{"tileid":969,"duration":75},{"tileid":970,"duration":75},{"tileid":971,"duration":75},{"tileid":972,"duration":75},{"tileid":973,"duration":75},{"tileid":974,"duration":75},{"tileid":975,"duration":75},{"tileid":1,"duration":450},{"tileid":976,"duration":75},{"tileid":977,"duration":75},{"tileid":978,"duration":75},{"tileid":979,"duration":75},{"tileid":980,"duration":75}]},{"id":986,"animation":[{"tileid":986,"duration":2775},{"tileid":982,"duration":75},{"tileid":983,"duration":75},{"tileid":984,"duration":75},{"tileid":985,"duration":75},{"tileid":1,"duration":4125}]},{"id":991,"animation":[{"tileid":991,"duration":2550},{"tileid":987,"duration":75},{"tileid":988,"duration":75},{"tileid":989,"duration":75},{"tileid":990,"duration":75},{"tileid":1,"duration":4350}]},{"id":996,"animation":[{"tileid":996,"duration":2250},{"tileid":982,"duration":75},{"tileid":992,"duration":75},{"tileid":993,"duration":75},{"tileid":994,"duration":75},{"tileid":995,"duration":75},{"tileid":1,"duration":1650},{"tileid":982,"duration":75},{"tileid":1,"duration":2850}]},{"id":1005,"animation":[{"tileid":1005,"duration":375},{"tileid":997,"duration":75},{"tileid":998,"duration":75},{"tileid":999,"duration":75},{"tileid":1000,"duration":75},{"tileid":1,"duration":3825},{"tileid":1001,"duration":75},{"tileid":1002,"duration":75},{"tileid":1003,"duration":75},{"tileid":1004,"duration":75},{"tileid":1,"duration":2400}]},{"id":1022,"animation":[{"tileid":1022,"duration":1425},{"tileid":1006,"duration":75},{"tileid":1007,"duration":75},{"tileid":1008,"duration":75},{"tileid":1009,"duration":75},{"tileid":1010,"duration":75},{"tileid":1,"duration":1650},{"tileid":1011,"duration":75},{"tileid":1012,"duration":75},{"tileid":1013,"duration":75},{"tileid":1014,"duration":75},{"tileid":1015,"duration":75},{"tileid":1016,"duration":75},{"tileid":1017,"duration":75},{"tileid":1,"duration":2550},{"tileid":1018,"duration":75},{"tileid":1019,"duration":75},{"tileid":1020,"duration":75},{"tileid":1021,"duration":75},{"tileid":1,"duration":375}]}]},{"firstgid":10401,"name":"gate-journey-02","image":"../../v6/gate/map/tilesets/gate-journey-02.png","imagewidth":1024,"imageheight":1024,"tilewidth":32,"tileheight":32,"columns":32,"tilecount":1024,"margin":0,"spacing":0,"tiles":[{"id":46,"animation":[{"tileid":46,"duration":375},{"tileid":1,"duration":75},{"tileid":2,"duration":75},{"tileid":3,"duration":75},{"tileid":4,"duration":75},{"tileid":5,"duration":75},{"tileid":6,"duration":75},{"tileid":7,"duration":75},{"tileid":8,"duration":75},{"tileid":0,"duration":450},{"tileid":9,"duration":75},{"tileid":10,"duration":75},{"tileid":11,"duration":75},{"tileid":12,"duration":75},{"tileid":13,"duration":75},{"tileid":14,"duration":75},{"tileid":15,"duration":75},{"tileid":16,"duration":75},{"tileid":0,"duration":1500},{"tileid":17,"duration":75},{"tileid":18,"duration":75},{"tileid":19,"duration":75},{"tileid":20,"duration":75},{"tileid":21,"duration":75},{"tileid":22,"duration":75},{"tileid":23,"duration":75},{"tileid":0,"duration":525},{"tileid":24,"duration":75},{"tileid":25,"duration":75},{"tileid":26,"duration":75},{"tileid":27,"duration":75},{"tileid":28,"duration":75},{"tileid":29,"duration":75},{"tileid":0,"duration":525},{"tileid":30,"duration":75},{"tileid":31,"duration":75},{"tileid":32,"duration":75},{"tileid":33,"duration":75},{"tileid":34,"duration":75},{"tileid":35,"duration":75},{"tileid":36,"duration":75},{"tileid":37,"duration":75},{"tileid":0,"duration":450},{"tileid":38,"duration":75},{"tileid":39,"duration":75},{"tileid":40,"duration":75},{"tileid":41,"duration":75},{"tileid":42,"duration":75},{"tileid":43,"duration":75},{"tileid":44,"duration":75},{"tileid":45,"duration":75}]},{"id":91,"animation":[{"tileid":91,"duration":375},{"tileid":47,"duration":75},{"tileid":48,"duration":75},{"tileid":49,"duration":75},{"tileid":50,"duration":75},{"tileid":51,"duration":75},{"tileid":52,"duration":75},{"tileid":53,"duration":75},{"tileid":0,"duration":525},{"tileid":54,"duration":75},{"tileid":55,"duration":75},{"tileid":56,"duration":75},{"tileid":57,"duration":75},{"tileid":58,"duration":75},{"tileid":59,"duration":75},{"tileid":0,"duration":600},{"tileid":60,"duration":75},{"tileid":61,"duration":75},{"tileid":62,"duration":75},{"tileid":63,"duration":75},{"tileid":64,"duration":75},{"tileid":65,"duration":75},{"tileid":66,"duration":75},{"tileid":67,"duration":75},{"tileid":0,"duration":675},{"tileid":68,"duration":75},{"tileid":69,"duration":75},{"tileid":0,"duration":600},{"tileid":70,"duration":75},{"tileid":71,"duration":75},{"tileid":72,"duration":75},{"tileid":73,"duration":75},{"tileid":74,"duration":75},{"tileid":75,"duration":75},{"tileid":76,"duration":75},{"tileid":77,"duration":75},{"tileid":0,"duration":450},{"tileid":78,"duration":75},{"tileid":79,"duration":75},{"tileid":80,"duration":75},{"tileid":81,"duration":75},{"tileid":82,"duration":75},{"tileid":83,"duration":75},{"tileid":0,"duration":75},{"tileid":84,"duration":75},{"tileid":0,"duration":450},{"tileid":85,"duration":75},{"tileid":86,"duration":75},{"tileid":87,"duration":75},{"tileid":88,"duration":75},{"tileid":89,"duration":75},{"tileid":90,"duration":75},{"tileid":0,"duration":150}]},{"id":131,"animation":[{"tileid":131,"duration":150},{"tileid":92,"duration":75},{"tileid":93,"duration":75},{"tileid":94,"duration":75},{"tileid":95,"duration":75},{"tileid":96,"duration":75},{"tileid":97,"duration":75},{"tileid":0,"duration":525},{"tileid":98,"duration":75},{"tileid":99,"duration":75},{"tileid":100,"duration":75},{"tileid":101,"duration":75},{"tileid":102,"duration":75},{"tileid":103,"duration":75},{"tileid":104,"duration":75},{"tileid":105,"duration":75},{"tileid":0,"duration":1500},{"tileid":106,"duration":75},{"tileid":107,"duration":75},{"tileid":108,"duration":75},{"tileid":109,"duration":75},{"tileid":110,"duration":75},{"tileid":111,"duration":75},{"tileid":112,"duration":75},{"tileid":113,"duration":75},{"tileid":0,"duration":750},{"tileid":114,"duration":75},{"tileid":0,"duration":600},{"tileid":115,"duration":75},{"tileid":116,"duration":75},{"tileid":117,"duration":75},{"tileid":118,"duration":75},{"tileid":119,"duration":75},{"tileid":120,"duration":75},{"tileid":121,"duration":75},{"tileid":122,"duration":75},{"tileid":0,"duration":450},{"tileid":123,"duration":75},{"tileid":124,"duration":75},{"tileid":125,"duration":75},{"tileid":126,"duration":75},{"tileid":127,"duration":75},{"tileid":128,"duration":75},{"tileid":129,"duration":75},{"tileid":130,"duration":75},{"tileid":0,"duration":300}]},{"id":173,"animation":[{"tileid":173,"duration":75},{"tileid":132,"duration":75},{"tileid":133,"duration":75},{"tileid":134,"duration":75},{"tileid":135,"duration":75},{"tileid":136,"duration":75},{"tileid":137,"duration":75},{"tileid":138,"duration":75},{"tileid":139,"duration":75},{"tileid":0,"duration":525},{"tileid":140,"duration":75},{"tileid":141,"duration":75},{"tileid":142,"duration":75},{"tileid":143,"duration":75},{"tileid":144,"duration":75},{"tileid":145,"duration":75},{"tileid":0,"duration":525},{"tileid":146,"duration":75},{"tileid":147,"duration":75},{"tileid":148,"duration":75},{"tileid":149,"duration":75},{"tileid":150,"duration":75},{"tileid":151,"duration":75},{"tileid":152,"duration":75},{"tileid":153,"duration":75},{"tileid":0,"duration":1425},{"tileid":98,"duration":75},{"tileid":154,"duration":75},{"tileid":155,"duration":75},{"tileid":156,"duration":75},{"tileid":157,"duration":75},{"tileid":158,"duration":75},{"tileid":159,"duration":75},{"tileid":160,"duration":75},{"tileid":0,"duration":525},{"tileid":161,"duration":75},{"tileid":162,"duration":75},{"tileid":163,"duration":75},{"tileid":164,"duration":75},{"tileid":165,"duration":75},{"tileid":166,"duration":75},{"tileid":0,"duration":600},{"tileid":167,"duration":75},{"tileid":168,"duration":75},{"tileid":169,"duration":75},{"tileid":170,"duration":75},{"tileid":171,"duration":75},{"tileid":172,"duration":75},{"tileid":0,"duration":375}]},{"id":211,"animation":[{"tileid":211,"duration":75},{"tileid":175,"duration":75},{"tileid":176,"duration":75},{"tileid":177,"duration":75},{"tileid":0,"duration":600},{"tileid":178,"duration":75},{"tileid":179,"duration":75},{"tileid":180,"duration":75},{"tileid":181,"duration":75},{"tileid":182,"duration":75},{"tileid":183,"duration":75},{"tileid":184,"duration":75},{"tileid":185,"duration":75},{"tileid":0,"duration":1425},{"tileid":186,"duration":75},{"tileid":187,"duration":75},{"tileid":188,"duration":75},{"tileid":189,"duration":75},{"tileid":190,"duration":75},{"tileid":191,"duration":75},{"tileid":192,"duration":75},{"tileid":193,"duration":75},{"tileid":0,"duration":1500},{"tileid":194,"duration":75},{"tileid":195,"duration":75},{"tileid":196,"duration":75},{"tileid":197,"duration":75},{"tileid":198,"duration":75},{"tileid":199,"duration":75},{"tileid":200,"duration":75},{"tileid":201,"duration":75},{"tileid":0,"duration":375},{"tileid":202,"duration":75},{"tileid":203,"duration":75},{"tileid":204,"duration":75},{"tileid":205,"duration":75},{"tileid":206,"duration":75},{"tileid":207,"duration":75},{"tileid":208,"duration":75},{"tileid":209,"duration":75},{"tileid":0,"duration":525},{"tileid":210,"duration":75}]},{"id":251,"animation":[{"tileid":251,"duration":75},{"tileid":213,"duration":75},{"tileid":214,"duration":75},{"tileid":215,"duration":75},{"tileid":216,"duration":75},{"tileid":217,"duration":75},{"tileid":0,"duration":525},{"tileid":218,"duration":75},{"tileid":219,"duration":75},{"tileid":220,"duration":75},{"tileid":221,"duration":75},{"tileid":222,"duration":75},{"tileid":0,"duration":600},{"tileid":223,"duration":75},{"tileid":224,"duration":75},{"tileid":225,"duration":75},{"tileid":226,"duration":75},{"tileid":227,"duration":75},{"tileid":228,"duration":75},{"tileid":229,"duration":75},{"tileid":67,"duration":75},{"tileid":0,"duration":1425},{"tileid":230,"duration":75},{"tileid":231,"duration":75},{"tileid":232,"duration":75},{"tileid":233,"duration":75},{"tileid":234,"duration":75},{"tileid":235,"duration":75},{"tileid":236,"duration":75},{"tileid":237,"duration":75},{"tileid":0,"duration":525},{"tileid":238,"duration":75},{"tileid":239,"duration":75},{"tileid":240,"duration":75},{"tileid":241,"duration":75},{"tileid":242,"duration":75},{"tileid":0,"duration":600},{"tileid":243,"duration":75},{"tileid":244,"duration":75},{"tileid":245,"duration":75},{"tileid":246,"duration":75},{"tileid":247,"duration":75},{"tileid":248,"duration":75},{"tileid":0,"duration":525},{"tileid":249,"duration":75},{"tileid":250,"duration":75}]},{"id":257,"animation":[{"tileid":257,"duration":2025},{"tileid":218,"duration":75},{"tileid":252,"duration":75},{"tileid":253,"duration":75},{"tileid":254,"duration":75},{"tileid":0,"duration":1650},{"tileid":255,"duration":75},{"tileid":256,"duration":75},{"tileid":239,"duration":75},{"tileid":220,"duration":75},{"tileid":254,"duration":75},{"tileid":0,"duration":2850}]},{"id":292,"animation":[{"tileid":292,"duration":600},{"tileid":258,"duration":75},{"tileid":259,"duration":75},{"tileid":260,"duration":75},{"tileid":261,"duration":75},{"tileid":262,"duration":75},{"tileid":263,"duration":75},{"tileid":264,"duration":75},{"tileid":265,"duration":75},{"tileid":0,"duration":1425},{"tileid":266,"duration":75},{"tileid":267,"duration":75},{"tileid":268,"duration":75},{"tileid":269,"duration":75},{"tileid":270,"duration":75},{"tileid":271,"duration":75},{"tileid":272,"duration":75},{"tileid":273,"duration":75},{"tileid":0,"duration":1500},{"tileid":274,"duration":75},{"tileid":275,"duration":75},{"tileid":276,"duration":75},{"tileid":277,"duration":75},{"tileid":278,"duration":75},{"tileid":279,"duration":75},{"tileid":280,"duration":75},{"tileid":281,"duration":75},{"tileid":0,"duration":450},{"tileid":282,"duration":75},{"tileid":283,"duration":75},{"tileid":284,"duration":75},{"tileid":285,"duration":75},{"tileid":286,"duration":75},{"tileid":287,"duration":75},{"tileid":288,"duration":75},{"tileid":289,"duration":75},{"tileid":0,"duration":675},{"tileid":290,"duration":75},{"tileid":291,"duration":75}]},{"id":324,"animation":[{"tileid":324,"duration":75},{"tileid":294,"duration":75},{"tileid":0,"duration":750},{"tileid":295,"duration":75},{"tileid":296,"duration":75},{"tileid":0,"duration":600},{"tileid":297,"duration":75},{"tileid":298,"duration":75},{"tileid":299,"duration":75},{"tileid":300,"duration":75},{"tileid":301,"duration":75},{"tileid":302,"duration":75},{"tileid":303,"duration":75},{"tileid":304,"duration":75},{"tileid":0,"duration":1425},{"tileid":305,"duration":75},{"tileid":306,"duration":75},{"tileid":307,"duration":75},{"tileid":308,"duration":75},{"tileid":309,"duration":75},{"tileid":310,"duration":75},{"tileid":311,"duration":75},{"tileid":312,"duration":75},{"tileid":0,"duration":750},{"tileid":313,"duration":75},{"tileid":314,"duration":75},{"tileid":0,"duration":675},{"tileid":238,"duration":75},{"tileid":219,"duration":75},{"tileid":315,"duration":75},{"tileid":316,"duration":75},{"tileid":317,"duration":75},{"tileid":0,"duration":525},{"tileid":318,"duration":75},{"tileid":319,"duration":75},{"tileid":320,"duration":75},{"tileid":321,"duration":75},{"tileid":322,"duration":75},{"tileid":323,"duration":75}]},{"id":334,"animation":[{"tileid":334,"duration":1725},{"tileid":325,"duration":75},{"tileid":326,"duration":75},{"tileid":327,"duration":75},{"tileid":313,"duration":75},{"tileid":296,"duration":75},{"tileid":0,"duration":1575},{"tileid":328,"duration":75},{"tileid":329,"duration":75},{"tileid":330,"duration":75},{"tileid":331,"duration":75},{"tileid":332,"duration":75},{"tileid":333,"duration":75},{"tileid":0,"duration":3075}]},{"id":366,"animation":[{"tileid":366,"duration":375},{"tileid":335,"duration":75},{"tileid":336,"duration":75},{"tileid":337,"duration":75},{"tileid":338,"duration":75},{"tileid":339,"duration":75},{"tileid":340,"duration":75},{"tileid":341,"duration":75},{"tileid":342,"duration":75},{"tileid":0,"duration":1425},{"tileid":343,"duration":75},{"tileid":344,"duration":75},{"tileid":345,"duration":75},{"tileid":346,"duration":75},{"tileid":347,"duration":75},{"tileid":348,"duration":75},{"tileid":349,"duration":75},{"tileid":350,"duration":75},{"tileid":0,"duration":1500},{"tileid":351,"duration":75},{"tileid":352,"duration":75},{"tileid":353,"duration":75},{"tileid":354,"duration":75},{"tileid":355,"duration":75},{"tileid":356,"duration":75},{"tileid":357,"duration":75},{"tileid":0,"duration":450},{"tileid":358,"duration":75},{"tileid":359,"duration":75},{"tileid":360,"duration":75},{"tileid":361,"duration":75},{"tileid":362,"duration":75},{"tileid":363,"duration":75},{"tileid":364,"duration":75},{"tileid":365,"duration":75},{"tileid":0,"duration":1125}]},{"id":396,"animation":[{"tileid":396,"duration":1350},{"tileid":367,"duration":75},{"tileid":368,"duration":75},{"tileid":369,"duration":75},{"tileid":370,"duration":75},{"tileid":371,"duration":75},{"tileid":372,"duration":75},{"tileid":373,"duration":75},{"tileid":374,"duration":75},{"tileid":0,"duration":525},{"tileid":375,"duration":75},{"tileid":376,"duration":75},{"tileid":0,"duration":825},{"tileid":377,"duration":75},{"tileid":378,"duration":75},{"tileid":379,"duration":75},{"tileid":380,"duration":75},{"tileid":381,"duration":75},{"tileid":382,"duration":75},{"tileid":383,"duration":75},{"tileid":0,"duration":1500},{"tileid":384,"duration":75},{"tileid":385,"duration":75},{"tileid":386,"duration":75},{"tileid":387,"duration":75},{"tileid":388,"duration":75},{"tileid":314,"duration":75},{"tileid":0,"duration":600},{"tileid":389,"duration":75},{"tileid":390,"duration":75},{"tileid":391,"duration":75},{"tileid":392,"duration":75},{"tileid":393,"duration":75},{"tileid":394,"duration":75},{"tileid":395,"duration":75},{"tileid":0,"duration":150}]},{"id":409,"animation":[{"tileid":409,"duration":75},{"tileid":397,"duration":75},{"tileid":398,"duration":75},{"tileid":399,"duration":75},{"tileid":400,"duration":75},{"tileid":401,"duration":75},{"tileid":402,"duration":75},{"tileid":0,"duration":3675},{"tileid":403,"duration":75},{"tileid":404,"duration":75},{"tileid":405,"duration":75},{"tileid":406,"duration":75},{"tileid":407,"duration":75},{"tileid":408,"duration":75},{"tileid":0,"duration":2550}]},{"id":442,"animation":[{"tileid":442,"duration":75},{"tileid":410,"duration":75},{"tileid":411,"duration":75},{"tileid":412,"duration":75},{"tileid":413,"duration":75},{"tileid":414,"duration":75},{"tileid":415,"duration":75},{"tileid":416,"duration":75},{"tileid":417,"duration":75},{"tileid":0,"duration":1425},{"tileid":418,"duration":75},{"tileid":419,"duration":75},{"tileid":420,"duration":75},{"tileid":421,"duration":75},{"tileid":422,"duration":75},{"tileid":423,"duration":75},{"tileid":424,"duration":75},{"tileid":425,"duration":75},{"tileid":0,"duration":1500},{"tileid":426,"duration":75},{"tileid":427,"duration":75},{"tileid":428,"duration":75},{"tileid":429,"duration":75},{"tileid":430,"duration":75},{"tileid":431,"duration":75},{"tileid":432,"duration":75},{"tileid":433,"duration":75},{"tileid":0,"duration":375},{"tileid":434,"duration":75},{"tileid":435,"duration":75},{"tileid":436,"duration":75},{"tileid":437,"duration":75},{"tileid":438,"duration":75},{"tileid":439,"duration":75},{"tileid":440,"duration":75},{"tileid":441,"duration":75},{"tileid":0,"duration":1425}]},{"id":477,"animation":[{"tileid":477,"duration":1125},{"tileid":443,"duration":75},{"tileid":444,"duration":75},{"tileid":445,"duration":75},{"tileid":446,"duration":75},{"tileid":447,"duration":75},{"tileid":448,"duration":75},{"tileid":449,"duration":75},{"tileid":450,"duration":75},{"tileid":0,"duration":375},{"tileid":451,"duration":75},{"tileid":452,"duration":75},{"tileid":453,"duration":75},{"tileid":454,"duration":75},{"tileid":455,"duration":75},{"tileid":456,"duration":75},{"tileid":0,"duration":675},{"tileid":457,"duration":75},{"tileid":458,"duration":75},{"tileid":459,"duration":75},{"tileid":460,"duration":75},{"tileid":461,"duration":75},{"tileid":462,"duration":75},{"tileid":0,"duration":1500},{"tileid":463,"duration":75},{"tileid":464,"duration":75},{"tileid":465,"duration":75},{"tileid":466,"duration":75},{"tileid":467,"duration":75},{"tileid":468,"duration":75},{"tileid":0,"duration":600},{"tileid":469,"duration":75},{"tileid":470,"duration":75},{"tileid":471,"duration":75},{"tileid":472,"duration":75},{"tileid":473,"duration":75},{"tileid":474,"duration":75},{"tileid":475,"duration":75},{"tileid":476,"duration":75},{"tileid":0,"duration":375}]},{"id":497,"animation":[{"tileid":497,"duration":1125},{"tileid":478,"duration":75},{"tileid":479,"duration":75},{"tileid":480,"duration":75},{"tileid":481,"duration":75},{"tileid":482,"duration":75},{"tileid":0,"duration":1650},{"tileid":483,"duration":75},{"tileid":484,"duration":75},{"tileid":485,"duration":75},{"tileid":486,"duration":75},{"tileid":487,"duration":75},{"tileid":488,"duration":75},{"tileid":489,"duration":75},{"tileid":490,"duration":75},{"tileid":0,"duration":2475},{"tileid":491,"duration":75},{"tileid":492,"duration":75},{"tileid":493,"duration":75},{"tileid":494,"duration":75},{"tileid":495,"duration":75},{"tileid":496,"duration":75},{"tileid":0,"duration":525}]},{"id":514,"animation":[{"tileid":514,"duration":75},{"tileid":499,"duration":75},{"tileid":500,"duration":75},{"tileid":501,"duration":75},{"tileid":502,"duration":75},{"tileid":503,"duration":75},{"tileid":0,"duration":3450},{"tileid":504,"duration":75},{"tileid":505,"duration":75},{"tileid":506,"duration":75},{"tileid":507,"duration":75},{"tileid":508,"duration":75},{"tileid":509,"duration":75},{"tileid":510,"duration":75},{"tileid":511,"duration":75},{"tileid":0,"duration":2550},{"tileid":512,"duration":75},{"tileid":513,"duration":75}]},{"id":541,"animation":[{"tileid":541,"duration":75},{"tileid":516,"duration":75},{"tileid":517,"duration":75},{"tileid":518,"duration":75},{"tileid":0,"duration":75},{"tileid":519,"duration":75},{"tileid":0,"duration":1425},{"tileid":520,"duration":75},{"tileid":521,"duration":75},{"tileid":522,"duration":75},{"tileid":523,"duration":75},{"tileid":524,"duration":75},{"tileid":525,"duration":75},{"tileid":526,"duration":75},{"tileid":0,"duration":1575},{"tileid":527,"duration":75},{"tileid":528,"duration":75},{"tileid":529,"duration":75},{"tileid":530,"duration":75},{"tileid":531,"duration":75},{"tileid":532,"duration":75},{"tileid":0,"duration":525},{"tileid":533,"duration":75},{"tileid":534,"duration":75},{"tileid":535,"duration":75},{"tileid":536,"duration":75},{"tileid":537,"duration":75},{"tileid":538,"duration":75},{"tileid":539,"duration":75},{"tileid":0,"duration":1650},{"tileid":540,"duration":75}]},{"id":575,"animation":[{"tileid":575,"duration":825},{"tileid":542,"duration":75},{"tileid":543,"duration":75},{"tileid":544,"duration":75},{"tileid":545,"duration":75},{"tileid":546,"duration":75},{"tileid":547,"duration":75},{"tileid":548,"duration":75},{"tileid":549,"duration":75},{"tileid":0,"duration":450},{"tileid":550,"duration":75},{"tileid":551,"duration":75},{"tileid":552,"duration":75},{"tileid":553,"duration":75},{"tileid":554,"duration":75},{"tileid":555,"duration":75},{"tileid":0,"duration":600},{"tileid":556,"duration":75},{"tileid":557,"duration":75},{"tileid":558,"duration":75},{"tileid":559,"duration":75},{"tileid":560,"duration":75},{"tileid":561,"duration":75},{"tileid":0,"duration":1575},{"tileid":562,"duration":75},{"tileid":563,"duration":75},{"tileid":564,"duration":75},{"tileid":565,"duration":75},{"tileid":566,"duration":75},{"tileid":567,"duration":75},{"tileid":0,"duration":600},{"tileid":568,"duration":75},{"tileid":569,"duration":75},{"tileid":570,"duration":75},{"tileid":571,"duration":75},{"tileid":572,"duration":75},{"tileid":573,"duration":75},{"tileid":574,"duration":75},{"tileid":0,"duration":675}]},{"id":595,"animation":[{"tileid":595,"duration":825},{"tileid":576,"duration":75},{"tileid":577,"duration":75},{"tileid":578,"duration":75},{"tileid":579,"duration":75},{"tileid":580,"duration":75},{"tileid":581,"duration":75},{"tileid":0,"duration":1650},{"tileid":582,"duration":75},{"tileid":583,"duration":75},{"tileid":584,"duration":75},{"tileid":585,"duration":75},{"tileid":586,"duration":75},{"tileid":587,"duration":75},{"tileid":588,"duration":75},{"tileid":0,"duration":2550},{"tileid":589,"duration":75},{"tileid":590,"duration":75},{"tileid":591,"duration":75},{"tileid":592,"duration":75},{"tileid":593,"duration":75},{"tileid":594,"duration":75},{"tileid":0,"duration":750}]},{"id":597,"animation":[{"tileid":597,"duration":6825},{"tileid":596,"duration":75},{"tileid":0,"duration":300}]},{"id":614,"animation":[{"tileid":614,"duration":75},{"tileid":599,"duration":75},{"tileid":0,"duration":3525},{"tileid":600,"duration":75},{"tileid":601,"duration":75},{"tileid":602,"duration":75},{"tileid":603,"duration":75},{"tileid":604,"duration":75},{"tileid":605,"duration":75},{"tileid":606,"duration":75},{"tileid":607,"duration":75},{"tileid":0,"duration":2475},{"tileid":608,"duration":75},{"tileid":609,"duration":75},{"tileid":610,"duration":75},{"tileid":611,"duration":75},{"tileid":612,"duration":75},{"tileid":613,"duration":75}]},{"id":634,"animation":[{"tileid":634,"duration":1575},{"tileid":615,"duration":75},{"tileid":616,"duration":75},{"tileid":617,"duration":75},{"tileid":618,"duration":75},{"tileid":619,"duration":75},{"tileid":620,"duration":75},{"tileid":621,"duration":75},{"tileid":622,"duration":75},{"tileid":0,"duration":1725},{"tileid":623,"duration":75},{"tileid":624,"duration":75},{"tileid":625,"duration":75},{"tileid":0,"duration":600},{"tileid":626,"duration":75},{"tileid":627,"duration":75},{"tileid":628,"duration":75},{"tileid":629,"duration":75},{"tileid":630,"duration":75},{"tileid":631,"duration":75},{"tileid":0,"duration":1875},{"tileid":632,"duration":75},{"tileid":633,"duration":75}]},{"id":671,"animation":[{"tileid":671,"duration":525},{"tileid":635,"duration":75},{"tileid":636,"duration":75},{"tileid":637,"duration":75},{"tileid":638,"duration":75},{"tileid":639,"duration":75},{"tileid":640,"duration":75},{"tileid":641,"duration":75},{"tileid":642,"duration":75},{"tileid":0,"duration":450},{"tileid":643,"duration":75},{"tileid":644,"duration":75},{"tileid":645,"duration":75},{"tileid":646,"duration":75},{"tileid":647,"duration":75},{"tileid":648,"duration":75},{"tileid":0,"duration":600},{"tileid":649,"duration":75},{"tileid":650,"duration":75},{"tileid":651,"duration":75},{"tileid":652,"duration":75},{"tileid":653,"duration":75},{"tileid":654,"duration":75},{"tileid":0,"duration":1575},{"tileid":655,"duration":75},{"tileid":656,"duration":75},{"tileid":657,"duration":75},{"tileid":658,"duration":75},{"tileid":659,"duration":75},{"tileid":660,"duration":75},{"tileid":661,"duration":75},{"tileid":662,"duration":75},{"tileid":0,"duration":450},{"tileid":663,"duration":75},{"tileid":664,"duration":75},{"tileid":665,"duration":75},{"tileid":666,"duration":75},{"tileid":667,"duration":75},{"tileid":668,"duration":75},{"tileid":669,"duration":75},{"tileid":670,"duration":75},{"tileid":0,"duration":900}]},{"id":693,"animation":[{"tileid":693,"duration":525},{"tileid":672,"duration":75},{"tileid":673,"duration":75},{"tileid":674,"duration":75},{"tileid":675,"duration":75},{"tileid":676,"duration":75},{"tileid":677,"duration":75},{"tileid":678,"duration":75},{"tileid":0,"duration":1575},{"tileid":679,"duration":75},{"tileid":680,"duration":75},{"tileid":681,"duration":75},{"tileid":682,"duration":75},{"tileid":683,"duration":75},{"tileid":684,"duration":75},{"tileid":685,"duration":75},{"tileid":433,"duration":75},{"tileid":0,"duration":2475},{"tileid":686,"duration":75},{"tileid":687,"duration":75},{"tileid":688,"duration":75},{"tileid":689,"duration":75},{"tileid":690,"duration":75},{"tileid":691,"duration":75},{"tileid":692,"duration":75},{"tileid":0,"duration":975}]},{"id":704,"animation":[{"tileid":704,"duration":3375},{"tileid":694,"duration":75},{"tileid":695,"duration":75},{"tileid":696,"duration":75},{"tileid":697,"duration":75},{"tileid":0,"duration":2775},{"tileid":698,"duration":75},{"tileid":699,"duration":75},{"tileid":700,"duration":75},{"tileid":701,"duration":75},{"tileid":702,"duration":75},{"tileid":703,"duration":75},{"tileid":0,"duration":300}]},{"id":721,"animation":[{"tileid":721,"duration":3375},{"tileid":705,"duration":75},{"tileid":706,"duration":75},{"tileid":707,"duration":75},{"tileid":708,"duration":75},{"tileid":709,"duration":75},{"tileid":710,"duration":75},{"tileid":711,"duration":75},{"tileid":712,"duration":75},{"tileid":0,"duration":2475},{"tileid":713,"duration":75},{"tileid":714,"duration":75},{"tileid":715,"duration":75},{"tileid":716,"duration":75},{"tileid":717,"duration":75},{"tileid":718,"duration":75},{"tileid":719,"duration":75},{"tileid":720,"duration":75},{"tileid":0,"duration":150}]},{"id":733,"animation":[{"tileid":733,"duration":1350},{"tileid":722,"duration":75},{"tileid":723,"duration":75},{"tileid":724,"duration":75},{"tileid":725,"duration":75},{"tileid":726,"duration":75},{"tileid":727,"duration":75},{"tileid":0,"duration":2700},{"tileid":728,"duration":75},{"tileid":729,"duration":75},{"tileid":730,"duration":75},{"tileid":731,"duration":75},{"tileid":732,"duration":75},{"tileid":0,"duration":2325}]},{"id":766,"animation":[{"tileid":766,"duration":375},{"tileid":734,"duration":75},{"tileid":735,"duration":75},{"tileid":736,"duration":75},{"tileid":737,"duration":75},{"tileid":738,"duration":75},{"tileid":0,"duration":600},{"tileid":739,"duration":75},{"tileid":740,"duration":75},{"tileid":741,"duration":75},{"tileid":742,"duration":75},{"tileid":743,"duration":75},{"tileid":744,"duration":75},{"tileid":745,"duration":75},{"tileid":0,"duration":525},{"tileid":746,"duration":75},{"tileid":747,"duration":75},{"tileid":748,"duration":75},{"tileid":749,"duration":75},{"tileid":750,"duration":75},{"tileid":751,"duration":75},{"tileid":0,"duration":1575},{"tileid":752,"duration":75},{"tileid":753,"duration":75},{"tileid":754,"duration":75},{"tileid":755,"duration":75},{"tileid":756,"duration":75},{"tileid":757,"duration":75},{"tileid":758,"duration":75},{"tileid":0,"duration":525},{"tileid":759,"duration":75},{"tileid":760,"duration":75},{"tileid":761,"duration":75},{"tileid":762,"duration":75},{"tileid":763,"duration":75},{"tileid":764,"duration":75},{"tileid":765,"duration":75},{"tileid":0,"duration":1200}]},{"id":787,"animation":[{"tileid":787,"duration":300},{"tileid":767,"duration":75},{"tileid":768,"duration":75},{"tileid":769,"duration":75},{"tileid":770,"duration":75},{"tileid":771,"duration":75},{"tileid":772,"duration":75},{"tileid":773,"duration":75},{"tileid":0,"duration":1575},{"tileid":774,"duration":75},{"tileid":775,"duration":75},{"tileid":776,"duration":75},{"tileid":777,"duration":75},{"tileid":778,"duration":75},{"tileid":779,"duration":75},{"tileid":780,"duration":75},{"tileid":0,"duration":2550},{"tileid":781,"duration":75},{"tileid":782,"duration":75},{"tileid":783,"duration":75},{"tileid":784,"duration":75},{"tileid":785,"duration":75},{"tileid":786,"duration":75},{"tileid":0,"duration":1275}]},{"id":801,"animation":[{"tileid":801,"duration":3075},{"tileid":788,"duration":75},{"tileid":789,"duration":75},{"tileid":790,"duration":75},{"tileid":791,"duration":75},{"tileid":792,"duration":75},{"tileid":793,"duration":75},{"tileid":0,"duration":2625},{"tileid":794,"duration":75},{"tileid":795,"duration":75},{"tileid":796,"duration":75},{"tileid":797,"duration":75},{"tileid":798,"duration":75},{"tileid":799,"duration":75},{"tileid":800,"duration":75},{"tileid":0,"duration":525}]},{"id":818,"animation":[{"tileid":818,"duration":3075},{"tileid":802,"duration":75},{"tileid":803,"duration":75},{"tileid":804,"duration":75},{"tileid":805,"duration":75},{"tileid":806,"duration":75},{"tileid":807,"duration":75},{"tileid":808,"duration":75},{"tileid":809,"duration":75},{"tileid":0,"duration":2550},{"tileid":810,"duration":75},{"tileid":811,"duration":75},{"tileid":812,"duration":75},{"tileid":813,"duration":75},{"tileid":814,"duration":75},{"tileid":815,"duration":75},{"tileid":816,"duration":75},{"tileid":817,"duration":75},{"tileid":0,"duration":375}]},{"id":825,"animation":[{"tileid":825,"duration":1050},{"tileid":819,"duration":75},{"tileid":820,"duration":75},{"tileid":821,"duration":75},{"tileid":822,"duration":75},{"tileid":823,"duration":75},{"tileid":824,"duration":75},{"tileid":0,"duration":5700}]},{"id":859,"animation":[{"tileid":859,"duration":300},{"tileid":826,"duration":75},{"tileid":827,"duration":75},{"tileid":0,"duration":600},{"tileid":828,"duration":75},{"tileid":829,"duration":75},{"tileid":830,"duration":75},{"tileid":831,"duration":75},{"tileid":832,"duration":75},{"tileid":833,"duration":75},{"tileid":834,"duration":75},{"tileid":835,"duration":75},{"tileid":0,"duration":450},{"tileid":836,"duration":75},{"tileid":837,"duration":75},{"tileid":838,"duration":75},{"tileid":839,"duration":75},{"tileid":840,"duration":75},{"tileid":841,"duration":75},{"tileid":842,"duration":75},{"tileid":0,"duration":1500},{"tileid":843,"duration":75},{"tileid":844,"duration":75},{"tileid":845,"duration":75},{"tileid":846,"duration":75},{"tileid":847,"duration":75},{"tileid":848,"duration":75},{"tileid":849,"duration":75},{"tileid":850,"duration":75},{"tileid":0,"duration":450},{"tileid":851,"duration":75},{"tileid":852,"duration":75},{"tileid":853,"duration":75},{"tileid":854,"duration":75},{"tileid":855,"duration":75},{"tileid":856,"duration":75},{"tileid":857,"duration":75},{"tileid":858,"duration":75},{"tileid":0,"duration":1425}]},{"id":882,"animation":[{"tileid":882,"duration":75},{"tileid":861,"duration":75},{"tileid":862,"duration":75},{"tileid":863,"duration":75},{"tileid":864,"duration":75},{"tileid":865,"duration":75},{"tileid":866,"duration":75},{"tileid":867,"duration":75},{"tileid":0,"duration":1500},{"tileid":868,"duration":75},{"tileid":869,"duration":75},{"tileid":870,"duration":75},{"tileid":871,"duration":75},{"tileid":872,"duration":75},{"tileid":873,"duration":75},{"tileid":874,"duration":75},{"tileid":875,"duration":75},{"tileid":0,"duration":2550},{"tileid":876,"duration":75},{"tileid":877,"duration":75},{"tileid":878,"duration":75},{"tileid":879,"duration":75},{"tileid":880,"duration":75},{"tileid":881,"duration":75},{"tileid":0,"duration":1500}]},{"id":885,"animation":[{"tileid":885,"duration":75},{"tileid":884,"duration":75},{"tileid":0,"duration":7050}]},{"id":900,"animation":[{"tileid":900,"duration":2850},{"tileid":886,"duration":75},{"tileid":887,"duration":75},{"tileid":888,"duration":75},{"tileid":889,"duration":75},{"tileid":890,"duration":75},{"tileid":891,"duration":75},{"tileid":0,"duration":2625},{"tileid":892,"duration":75},{"tileid":893,"duration":75},{"tileid":894,"duration":75},{"tileid":895,"duration":75},{"tileid":896,"duration":75},{"tileid":897,"duration":75},{"tileid":898,"duration":75},{"tileid":899,"duration":75},{"tileid":0,"duration":675}]},{"id":915,"animation":[{"tileid":915,"duration":2775},{"tileid":901,"duration":75},{"tileid":902,"duration":75},{"tileid":903,"duration":75},{"tileid":904,"duration":75},{"tileid":905,"duration":75},{"tileid":906,"duration":75},{"tileid":907,"duration":75},{"tileid":908,"duration":75},{"tileid":0,"duration":2625},{"tileid":909,"duration":75},{"tileid":910,"duration":75},{"tileid":911,"duration":75},{"tileid":912,"duration":75},{"tileid":913,"duration":75},{"tileid":914,"duration":75},{"tileid":0,"duration":750}]},{"id":922,"animation":[{"tileid":922,"duration":825},{"tileid":916,"duration":75},{"tileid":917,"duration":75},{"tileid":918,"duration":75},{"tileid":919,"duration":75},{"tileid":920,"duration":75},{"tileid":921,"duration":75},{"tileid":0,"duration":5925}]},{"id":953,"animation":[{"tileid":953,"duration":825},{"tileid":923,"duration":75},{"tileid":924,"duration":75},{"tileid":925,"duration":75},{"tileid":926,"duration":75},{"tileid":927,"duration":75},{"tileid":928,"duration":75},{"tileid":929,"duration":75},{"tileid":0,"duration":450},{"tileid":930,"duration":75},{"tileid":931,"duration":75},{"tileid":932,"duration":75},{"tileid":933,"duration":75},{"tileid":934,"duration":75},{"tileid":935,"duration":75},{"tileid":936,"duration":75},{"tileid":937,"duration":75},{"tileid":0,"duration":1500},{"tileid":938,"duration":75},{"tileid":939,"duration":75},{"tileid":940,"duration":75},{"tileid":941,"duration":75},{"tileid":942,"duration":75},{"tileid":943,"duration":75},{"tileid":944,"duration":75},{"tileid":0,"duration":525},{"tileid":945,"duration":75},{"tileid":946,"duration":75},{"tileid":947,"duration":75},{"tileid":948,"duration":75},{"tileid":949,"duration":75},{"tileid":950,"duration":75},{"tileid":951,"duration":75},{"tileid":952,"duration":75},{"tileid":0,"duration":1650}]},{"id":974,"animation":[{"tileid":974,"duration":75},{"tileid":955,"duration":75},{"tileid":956,"duration":75},{"tileid":957,"duration":75},{"tileid":0,"duration":1575},{"tileid":958,"duration":75},{"tileid":959,"duration":75},{"tileid":960,"duration":75},{"tileid":961,"duration":75},{"tileid":962,"duration":75},{"tileid":963,"duration":75},{"tileid":0,"duration":1650},{"tileid":964,"duration":75},{"tileid":965,"duration":75},{"tileid":0,"duration":900},{"tileid":966,"duration":75},{"tileid":967,"duration":75},{"tileid":968,"duration":75},{"tileid":969,"duration":75},{"tileid":970,"duration":75},{"tileid":0,"duration":1575},{"tileid":971,"duration":75},{"tileid":972,"duration":75},{"tileid":973,"duration":75}]},{"id":981,"animation":[{"tileid":981,"duration":75},{"tileid":976,"duration":75},{"tileid":0,"duration":6750},{"tileid":977,"duration":75},{"tileid":978,"duration":75},{"tileid":979,"duration":75},{"tileid":980,"duration":75}]},{"id":995,"animation":[{"tileid":995,"duration":2625},{"tileid":982,"duration":75},{"tileid":983,"duration":75},{"tileid":984,"duration":75},{"tileid":985,"duration":75},{"tileid":986,"duration":75},{"tileid":0,"duration":2625},{"tileid":987,"duration":75},{"tileid":988,"duration":75},{"tileid":989,"duration":75},{"tileid":990,"duration":75},{"tileid":991,"duration":75},{"tileid":992,"duration":75},{"tileid":993,"duration":75},{"tileid":994,"duration":75},{"tileid":0,"duration":975}]},{"id":1008,"animation":[{"tileid":1008,"duration":2550},{"tileid":996,"duration":75},{"tileid":997,"duration":75},{"tileid":998,"duration":75},{"tileid":999,"duration":75},{"tileid":1000,"duration":75},{"tileid":1001,"duration":75},{"tileid":1002,"duration":75},{"tileid":1003,"duration":75},{"tileid":0,"duration":2625},{"tileid":1004,"duration":75},{"tileid":1005,"duration":75},{"tileid":1006,"duration":75},{"tileid":1007,"duration":75},{"tileid":0,"duration":1125}]},{"id":1017,"animation":[{"tileid":1017,"duration":525},{"tileid":1009,"duration":75},{"tileid":1010,"duration":75},{"tileid":1011,"duration":75},{"tileid":1012,"duration":75},{"tileid":1013,"duration":75},{"tileid":1014,"duration":75},{"tileid":1015,"duration":75},{"tileid":1016,"duration":75},{"tileid":0,"duration":6075}]},{"id":1020,"animation":[{"tileid":1020,"duration":6450},{"tileid":1018,"duration":75},{"tileid":1019,"duration":75},{"tileid":0,"duration":600}]},{"id":1022,"animation":[{"tileid":1022,"duration":6300},{"tileid":1021,"duration":75},{"tileid":0,"duration":825}]}]},{"firstgid":11425,"name":"gate-journey-03","image":"../../v6/gate/map/tilesets/gate-journey-03.png","imagewidth":1024,"imageheight":1024,"tilewidth":32,"tileheight":32,"columns":32,"tilecount":1024,"margin":0,"spacing":0,"tiles":[{"id":33,"animation":[{"tileid":33,"duration":600},{"tileid":1,"duration":75},{"tileid":2,"duration":75},{"tileid":3,"duration":75},{"tileid":4,"duration":75},{"tileid":5,"duration":75},{"tileid":6,"duration":75},{"tileid":7,"duration":75},{"tileid":0,"duration":375},{"tileid":8,"duration":75},{"tileid":9,"duration":75},{"tileid":10,"duration":75},{"tileid":11,"duration":75},{"tileid":12,"duration":75},{"tileid":13,"duration":75},{"tileid":14,"duration":75},{"tileid":15,"duration":75},{"tileid":16,"duration":75},{"tileid":0,"duration":1425},{"tileid":17,"duration":75},{"tileid":18,"duration":75},{"tileid":19,"duration":75},{"tileid":20,"duration":75},{"tileid":21,"duration":75},{"tileid":22,"duration":75},{"tileid":23,"duration":75},{"tileid":24,"duration":75},{"tileid":0,"duration":450},{"tileid":25,"duration":75},{"tileid":26,"duration":75},{"tileid":27,"duration":75},{"tileid":28,"duration":75},{"tileid":29,"duration":75},{"tileid":30,"duration":75},{"tileid":31,"duration":75},{"tileid":32,"duration":75},{"tileid":0,"duration":1950}]},{"id":52,"animation":[{"tileid":52,"duration":1575},{"tileid":34,"duration":75},{"tileid":35,"duration":75},{"tileid":36,"duration":75},{"tileid":37,"duration":75},{"tileid":38,"duration":75},{"tileid":39,"duration":75},{"tileid":0,"duration":1650},{"tileid":40,"duration":75},{"tileid":41,"duration":75},{"tileid":42,"duration":75},{"tileid":43,"duration":75},{"tileid":44,"duration":75},{"tileid":0,"duration":900},{"tileid":45,"duration":75},{"tileid":46,"duration":75},{"tileid":0,"duration":1650},{"tileid":47,"duration":75},{"tileid":48,"duration":75},{"tileid":49,"duration":75},{"tileid":50,"duration":75},{"tileid":51,"duration":75},{"tileid":0,"duration":75}]},{"id":61,"animation":[{"tileid":61,"duration":75},{"tileid":0,"duration":6600},{"tileid":54,"duration":75},{"tileid":55,"duration":75},{"tileid":56,"duration":75},{"tileid":57,"duration":75},{"tileid":58,"duration":75},{"tileid":59,"duration":75},{"tileid":60,"duration":75}]},{"id":73,"animation":[{"tileid":73,"duration":2475},{"tileid":62,"duration":75},{"tileid":63,"duration":75},{"tileid":64,"duration":75},{"tileid":0,"duration":2625},{"tileid":65,"duration":75},{"tileid":66,"duration":75},{"tileid":67,"duration":75},{"tileid":68,"duration":75},{"tileid":69,"duration":75},{"tileid":70,"duration":75},{"tileid":71,"duration":75},{"tileid":72,"duration":75},{"tileid":0,"duration":1275}]},{"id":82,"animation":[{"tileid":82,"duration":2250},{"tileid":74,"duration":75},{"tileid":75,"duration":75},{"tileid":76,"duration":75},{"tileid":77,"duration":75},{"tileid":78,"duration":75},{"tileid":79,"duration":75},{"tileid":80,"duration":75},{"tileid":81,"duration":75},{"tileid":0,"duration":4350}]},{"id":93,"animation":[{"tileid":93,"duration":300},{"tileid":83,"duration":75},{"tileid":84,"duration":75},{"tileid":85,"duration":75},{"tileid":86,"duration":75},{"tileid":87,"duration":75},{"tileid":88,"duration":75},{"tileid":89,"duration":75},{"tileid":0,"duration":3600},{"tileid":90,"duration":75},{"tileid":91,"duration":75},{"tileid":92,"duration":75},{"tileid":0,"duration":2550}]},{"id":122,"animation":[{"tileid":122,"duration":375},{"tileid":94,"duration":75},{"tileid":95,"duration":75},{"tileid":96,"duration":75},{"tileid":97,"duration":75},{"tileid":98,"duration":75},{"tileid":0,"duration":525},{"tileid":99,"duration":75},{"tileid":100,"duration":75},{"tileid":101,"duration":75},{"tileid":102,"duration":75},{"tileid":103,"duration":75},{"tileid":104,"duration":75},{"tileid":105,"duration":75},{"tileid":106,"duration":75},{"tileid":0,"duration":1500},{"tileid":107,"duration":75},{"tileid":108,"duration":75},{"tileid":109,"duration":75},{"tileid":110,"duration":75},{"tileid":111,"duration":75},{"tileid":112,"duration":75},{"tileid":113,"duration":75},{"tileid":0,"duration":450},{"tileid":114,"duration":75},{"tileid":115,"duration":75},{"tileid":116,"duration":75},{"tileid":117,"duration":75},{"tileid":118,"duration":75},{"tileid":119,"duration":75},{"tileid":120,"duration":75},{"tileid":121,"duration":75},{"tileid":0,"duration":2250}]},{"id":134,"animation":[{"tileid":134,"duration":1275},{"tileid":123,"duration":75},{"tileid":124,"duration":75},{"tileid":125,"duration":75},{"tileid":126,"duration":75},{"tileid":127,"duration":75},{"tileid":128,"duration":75},{"tileid":0,"duration":1725},{"tileid":129,"duration":75},{"tileid":130,"duration":75},{"tileid":131,"duration":75},{"tileid":132,"duration":75},{"tileid":0,"duration":3000},{"tileid":133,"duration":75},{"tileid":0,"duration":375}]},{"id":142,"animation":[{"tileid":142,"duration":6450},{"tileid":135,"duration":75},{"tileid":136,"duration":75},{"tileid":137,"duration":75},{"tileid":138,"duration":75},{"tileid":139,"duration":75},{"tileid":140,"duration":75},{"tileid":141,"duration":75},{"tileid":0,"duration":225}]},{"id":150,"animation":[{"tileid":150,"duration":5100},{"tileid":143,"duration":75},{"tileid":144,"duration":75},{"tileid":145,"duration":75},{"tileid":146,"duration":75},{"tileid":147,"duration":75},{"tileid":148,"duration":75},{"tileid":149,"duration":75},{"tileid":0,"duration":1575}]},{"id":162,"animation":[{"tileid":162,"duration":2025},{"tileid":151,"duration":75},{"tileid":152,"duration":75},{"tileid":153,"duration":75},{"tileid":154,"duration":75},{"tileid":155,"duration":75},{"tileid":156,"duration":75},{"tileid":157,"duration":75},{"tileid":0,"duration":2625},{"tileid":158,"duration":75},{"tileid":159,"duration":75},{"tileid":160,"duration":75},{"tileid":161,"duration":75},{"tileid":0,"duration":1725}]},{"id":177,"animation":[{"tileid":177,"duration":75},{"tileid":164,"duration":75},{"tileid":165,"duration":75},{"tileid":166,"duration":75},{"tileid":167,"duration":75},{"tileid":168,"duration":75},{"tileid":169,"duration":75},{"tileid":170,"duration":75},{"tileid":0,"duration":3450},{"tileid":171,"duration":75},{"tileid":172,"duration":75},{"tileid":173,"duration":75},{"tileid":174,"duration":75},{"tileid":175,"duration":75},{"tileid":176,"duration":75},{"tileid":0,"duration":2700}]},{"id":203,"animation":[{"tileid":203,"duration":300},{"tileid":45,"duration":75},{"tileid":178,"duration":75},{"tileid":0,"duration":525},{"tileid":179,"duration":75},{"tileid":180,"duration":75},{"tileid":181,"duration":75},{"tileid":182,"duration":75},{"tileid":183,"duration":75},{"tileid":184,"duration":75},{"tileid":185,"duration":75},{"tileid":186,"duration":75},{"tileid":0,"duration":1500},{"tileid":187,"duration":75},{"tileid":188,"duration":75},{"tileid":189,"duration":75},{"tileid":190,"duration":75},{"tileid":191,"duration":75},{"tileid":192,"duration":75},{"tileid":193,"duration":75},{"tileid":194,"duration":75},{"tileid":0,"duration":375},{"tileid":195,"duration":75},{"tileid":196,"duration":75},{"tileid":197,"duration":75},{"tileid":198,"duration":75},{"tileid":199,"duration":75},{"tileid":200,"duration":75},{"tileid":201,"duration":75},{"tileid":202,"duration":75},{"tileid":0,"duration":2550}]},{"id":211,"animation":[{"tileid":211,"duration":975},{"tileid":204,"duration":75},{"tileid":205,"duration":75},{"tileid":206,"duration":75},{"tileid":207,"duration":75},{"tileid":208,"duration":75},{"tileid":209,"duration":75},{"tileid":0,"duration":1950},{"tileid":210,"duration":75},{"tileid":0,"duration":3750}]},{"id":220,"animation":[{"tileid":220,"duration":6150},{"tileid":212,"duration":75},{"tileid":213,"duration":75},{"tileid":214,"duration":75},{"tileid":215,"duration":75},{"tileid":216,"duration":75},{"tileid":217,"duration":75},{"tileid":218,"duration":75},{"tileid":219,"duration":75},{"tileid":0,"duration":450}]},{"id":226,"animation":[{"tileid":226,"duration":6150},{"tileid":221,"duration":75},{"tileid":222,"duration":75},{"tileid":223,"duration":75},{"tileid":224,"duration":75},{"tileid":225,"duration":75},{"tileid":0,"duration":675}]},{"id":234,"animation":[{"tileid":234,"duration":4800},{"tileid":227,"duration":75},{"tileid":228,"duration":75},{"tileid":229,"duration":75},{"tileid":230,"duration":75},{"tileid":231,"duration":75},{"tileid":232,"duration":75},{"tileid":233,"duration":75},{"tileid":186,"duration":75},{"tileid":0,"duration":1800}]},{"id":252,"animation":[{"tileid":252,"duration":75},{"tileid":0,"duration":1725},{"tileid":236,"duration":75},{"tileid":237,"duration":75},{"tileid":238,"duration":75},{"tileid":239,"duration":75},{"tileid":240,"duration":75},{"tileid":241,"duration":75},{"tileid":242,"duration":75},{"tileid":0,"duration":2550},{"tileid":243,"duration":75},{"tileid":244,"duration":75},{"tileid":245,"duration":75},{"tileid":246,"duration":75},{"tileid":247,"duration":75},{"tileid":0,"duration":1650},{"tileid":248,"duration":75},{"tileid":249,"duration":75},{"tileid":250,"duration":75},{"tileid":251,"duration":75}]},{"id":273,"animation":[{"tileid":273,"duration":75},{"tileid":254,"duration":75},{"tileid":255,"duration":75},{"tileid":256,"duration":75},{"tileid":0,"duration":1500},{"tileid":257,"duration":75},{"tileid":258,"duration":75},{"tileid":259,"duration":75},{"tileid":0,"duration":825},{"tileid":260,"duration":75},{"tileid":261,"duration":75},{"tileid":262,"duration":75},{"tileid":0,"duration":750},{"tileid":263,"duration":75},{"tileid":264,"duration":75},{"tileid":265,"duration":75},{"tileid":266,"duration":75},{"tileid":267,"duration":75},{"tileid":268,"duration":75},{"tileid":0,"duration":2625},{"tileid":269,"duration":75},{"tileid":270,"duration":75},{"tileid":271,"duration":75},{"tileid":272,"duration":75}]},{"id":297,"animation":[{"tileid":297,"duration":675},{"tileid":274,"duration":75},{"tileid":275,"duration":75},{"tileid":276,"duration":75},{"tileid":277,"duration":75},{"tileid":278,"duration":75},{"tileid":279,"duration":75},{"tileid":280,"duration":75},{"tileid":281,"duration":75},{"tileid":0,"duration":1575},{"tileid":282,"duration":75},{"tileid":283,"duration":75},{"tileid":284,"duration":75},{"tileid":285,"duration":75},{"tileid":286,"duration":75},{"tileid":287,"duration":75},{"tileid":288,"duration":75},{"tileid":0,"duration":450},{"tileid":289,"duration":75},{"tileid":290,"duration":75},{"tileid":291,"duration":75},{"tileid":292,"duration":75},{"tileid":293,"duration":75},{"tileid":294,"duration":75},{"tileid":295,"duration":75},{"tileid":296,"duration":75},{"tileid":0,"duration":2775}]},{"id":304,"animation":[{"tileid":304,"duration":675},{"tileid":298,"duration":75},{"tileid":299,"duration":75},{"tileid":300,"duration":75},{"tileid":301,"duration":75},{"tileid":302,"duration":75},{"tileid":303,"duration":75},{"tileid":0,"duration":6075}]},{"id":312,"animation":[{"tileid":312,"duration":5925},{"tileid":305,"duration":75},{"tileid":306,"duration":75},{"tileid":307,"duration":75},{"tileid":308,"duration":75},{"tileid":309,"duration":75},{"tileid":310,"duration":75},{"tileid":311,"duration":75},{"tileid":0,"duration":750}]},{"id":319,"animation":[{"tileid":319,"duration":5925},{"tileid":313,"duration":75},{"tileid":314,"duration":75},{"tileid":315,"duration":75},{"tileid":316,"duration":75},{"tileid":317,"duration":75},{"tileid":318,"duration":75},{"tileid":0,"duration":825}]},{"id":327,"animation":[{"tileid":327,"duration":4575},{"tileid":320,"duration":75},{"tileid":321,"duration":75},{"tileid":322,"duration":75},{"tileid":323,"duration":75},{"tileid":324,"duration":75},{"tileid":325,"duration":75},{"tileid":326,"duration":75},{"tileid":0,"duration":2100}]},{"id":350,"animation":[{"tileid":350,"duration":1500},{"tileid":328,"duration":75},{"tileid":329,"duration":75},{"tileid":330,"duration":75},{"tileid":331,"duration":75},{"tileid":332,"duration":75},{"tileid":333,"duration":75},{"tileid":334,"duration":75},{"tileid":335,"duration":75},{"tileid":0,"duration":2475},{"tileid":336,"duration":75},{"tileid":337,"duration":75},{"tileid":338,"duration":75},{"tileid":339,"duration":75},{"tileid":340,"duration":75},{"tileid":341,"duration":75},{"tileid":0,"duration":1575},{"tileid":342,"duration":75},{"tileid":343,"duration":75},{"tileid":344,"duration":75},{"tileid":345,"duration":75},{"tileid":346,"duration":75},{"tileid":347,"duration":75},{"tileid":348,"duration":75},{"tileid":349,"duration":75}]},{"id":374,"animation":[{"tileid":374,"duration":1575},{"tileid":351,"duration":75},{"tileid":352,"duration":75},{"tileid":353,"duration":75},{"tileid":354,"duration":75},{"tileid":0,"duration":675},{"tileid":355,"duration":75},{"tileid":356,"duration":75},{"tileid":357,"duration":75},{"tileid":358,"duration":75},{"tileid":359,"duration":75},{"tileid":360,"duration":75},{"tileid":0,"duration":525},{"tileid":361,"duration":75},{"tileid":362,"duration":75},{"tileid":363,"duration":75},{"tileid":364,"duration":75},{"tileid":365,"duration":75},{"tileid":366,"duration":75},{"tileid":0,"duration":2700},{"tileid":367,"duration":75},{"tileid":368,"duration":75},{"tileid":369,"duration":75},{"tileid":370,"duration":75},{"tileid":371,"duration":75},{"tileid":372,"duration":75},{"tileid":373,"duration":75}]},{"id":398,"animation":[{"tileid":398,"duration":450},{"tileid":375,"duration":75},{"tileid":376,"duration":75},{"tileid":377,"duration":75},{"tileid":378,"duration":75},{"tileid":379,"duration":75},{"tileid":380,"duration":75},{"tileid":381,"duration":75},{"tileid":0,"duration":1575},{"tileid":382,"duration":75},{"tileid":383,"duration":75},{"tileid":384,"duration":75},{"tileid":385,"duration":75},{"tileid":386,"duration":75},{"tileid":387,"duration":75},{"tileid":388,"duration":75},{"tileid":389,"duration":75},{"tileid":0,"duration":375},{"tileid":390,"duration":75},{"tileid":391,"duration":75},{"tileid":392,"duration":75},{"tileid":393,"duration":75},{"tileid":394,"duration":75},{"tileid":395,"duration":75},{"tileid":396,"duration":75},{"tileid":397,"duration":75},{"tileid":0,"duration":3075}]},{"id":405,"animation":[{"tileid":405,"duration":450},{"tileid":399,"duration":75},{"tileid":400,"duration":75},{"tileid":401,"duration":75},{"tileid":402,"duration":75},{"tileid":403,"duration":75},{"tileid":404,"duration":75},{"tileid":0,"duration":6300}]},{"id":411,"animation":[{"tileid":411,"duration":5700},{"tileid":406,"duration":75},{"tileid":407,"duration":75},{"tileid":408,"duration":75},{"tileid":409,"duration":75},{"tileid":410,"duration":75},{"tileid":0,"duration":1125}]},{"id":420,"animation":[{"tileid":420,"duration":5625},{"tileid":412,"duration":75},{"tileid":413,"duration":75},{"tileid":414,"duration":75},{"tileid":415,"duration":75},{"tileid":416,"duration":75},{"tileid":417,"duration":75},{"tileid":418,"duration":75},{"tileid":419,"duration":75},{"tileid":0,"duration":975}]},{"id":428,"animation":[{"tileid":428,"duration":4350},{"tileid":421,"duration":75},{"tileid":422,"duration":75},{"tileid":423,"duration":75},{"tileid":424,"duration":75},{"tileid":425,"duration":75},{"tileid":426,"duration":75},{"tileid":427,"duration":75},{"tileid":0,"duration":2325}]},{"id":450,"animation":[{"tileid":450,"duration":1275},{"tileid":429,"duration":75},{"tileid":430,"duration":75},{"tileid":431,"duration":75},{"tileid":432,"duration":75},{"tileid":433,"duration":75},{"tileid":434,"duration":75},{"tileid":435,"duration":75},{"tileid":0,"duration":2550},{"tileid":436,"duration":75},{"tileid":437,"duration":75},{"tileid":438,"duration":75},{"tileid":439,"duration":75},{"tileid":440,"duration":75},{"tileid":441,"duration":75},{"tileid":0,"duration":1575},{"tileid":442,"duration":75},{"tileid":443,"duration":75},{"tileid":444,"duration":75},{"tileid":445,"duration":75},{"tileid":446,"duration":75},{"tileid":447,"duration":75},{"tileid":448,"duration":75},{"tileid":449,"duration":75},{"tileid":0,"duration":225}]},{"id":473,"animation":[{"tileid":473,"duration":1275},{"tileid":451,"duration":75},{"tileid":452,"duration":75},{"tileid":453,"duration":75},{"tileid":454,"duration":75},{"tileid":455,"duration":75},{"tileid":0,"duration":600},{"tileid":456,"duration":75},{"tileid":457,"duration":75},{"tileid":458,"duration":75},{"tileid":459,"duration":75},{"tileid":460,"duration":75},{"tileid":461,"duration":75},{"tileid":462,"duration":75},{"tileid":463,"duration":75},{"tileid":0,"duration":450},{"tileid":464,"duration":75},{"tileid":465,"duration":75},{"tileid":466,"duration":75},{"tileid":467,"duration":75},{"tileid":468,"duration":75},{"tileid":0,"duration":2850},{"tileid":469,"duration":75},{"tileid":470,"duration":75},{"tileid":471,"duration":75},{"tileid":472,"duration":75},{"tileid":0,"duration":375}]},{"id":492,"animation":[{"tileid":492,"duration":375},{"tileid":474,"duration":75},{"tileid":475,"duration":75},{"tileid":476,"duration":75},{"tileid":0,"duration":1725},{"tileid":477,"duration":75},{"tileid":478,"duration":75},{"tileid":479,"duration":75},{"tileid":480,"duration":75},{"tileid":481,"duration":75},{"tileid":482,"duration":75},{"tileid":483,"duration":75},{"tileid":0,"duration":375},{"tileid":484,"duration":75},{"tileid":485,"duration":75},{"tileid":486,"duration":75},{"tileid":487,"duration":75},{"tileid":488,"duration":75},{"tileid":489,"duration":75},{"tileid":490,"duration":75},{"tileid":491,"duration":75},{"tileid":0,"duration":3375}]},{"id":501,"animation":[{"tileid":501,"duration":150},{"tileid":493,"duration":75},{"tileid":494,"duration":75},{"tileid":495,"duration":75},{"tileid":496,"duration":75},{"tileid":497,"duration":75},{"tileid":498,"duration":75},{"tileid":499,"duration":75},{"tileid":500,"duration":75},{"tileid":0,"duration":6450}]},{"id":508,"animation":[{"tileid":508,"duration":5400},{"tileid":502,"duration":75},{"tileid":503,"duration":75},{"tileid":504,"duration":75},{"tileid":505,"duration":75},{"tileid":506,"duration":75},{"tileid":507,"duration":75},{"tileid":0,"duration":1350}]},{"id":516,"animation":[{"tileid":516,"duration":5400},{"tileid":509,"duration":75},{"tileid":510,"duration":75},{"tileid":511,"duration":75},{"tileid":512,"duration":75},{"tileid":513,"duration":75},{"tileid":514,"duration":75},{"tileid":515,"duration":75},{"tileid":0,"duration":1275}]},{"id":525,"animation":[{"tileid":525,"duration":4050},{"tileid":517,"duration":75},{"tileid":518,"duration":75},{"tileid":519,"duration":75},{"tileid":520,"duration":75},{"tileid":521,"duration":75},{"tileid":522,"duration":75},{"tileid":523,"duration":75},{"tileid":524,"duration":75},{"tileid":0,"duration":2550}]},{"id":550,"animation":[{"tileid":550,"duration":975},{"tileid":526,"duration":75},{"tileid":527,"duration":75},{"tileid":528,"duration":75},{"tileid":529,"duration":75},{"tileid":530,"duration":75},{"tileid":531,"duration":75},{"tileid":532,"duration":75},{"tileid":533,"duration":75},{"tileid":0,"duration":2475},{"tileid":534,"duration":75},{"tileid":535,"duration":75},{"tileid":536,"duration":75},{"tileid":537,"duration":75},{"tileid":538,"duration":75},{"tileid":539,"duration":75},{"tileid":540,"duration":75},{"tileid":541,"duration":75},{"tileid":0,"duration":1425},{"tileid":542,"duration":75},{"tileid":543,"duration":75},{"tileid":544,"duration":75},{"tileid":545,"duration":75},{"tileid":546,"duration":75},{"tileid":547,"duration":75},{"tileid":548,"duration":75},{"tileid":549,"duration":75},{"tileid":0,"duration":525}]},{"id":566,"animation":[{"tileid":566,"duration":1050},{"tileid":551,"duration":75},{"tileid":552,"duration":75},{"tileid":553,"duration":75},{"tileid":554,"duration":75},{"tileid":555,"duration":75},{"tileid":0,"duration":525},{"tileid":556,"duration":75},{"tileid":557,"duration":75},{"tileid":558,"duration":75},{"tileid":559,"duration":75},{"tileid":560,"duration":75},{"tileid":561,"duration":75},{"tileid":562,"duration":75},{"tileid":563,"duration":75},{"tileid":0,"duration":675},{"tileid":564,"duration":75},{"tileid":565,"duration":75},{"tileid":0,"duration":3825}]},{"id":577,"animation":[{"tileid":577,"duration":2250},{"tileid":567,"duration":75},{"tileid":568,"duration":75},{"tileid":569,"duration":75},{"tileid":0,"duration":525},{"tileid":570,"duration":75},{"tileid":571,"duration":75},{"tileid":572,"duration":75},{"tileid":573,"duration":75},{"tileid":574,"duration":75},{"tileid":575,"duration":75},{"tileid":576,"duration":75},{"tileid":0,"duration":3675}]},{"id":585,"animation":[{"tileid":585,"duration":75},{"tileid":579,"duration":75},{"tileid":580,"duration":75},{"tileid":581,"duration":75},{"tileid":582,"duration":75},{"tileid":583,"duration":75},{"tileid":0,"duration":6675},{"tileid":584,"duration":75}]},{"id":595,"animation":[{"tileid":595,"duration":75},{"tileid":587,"duration":75},{"tileid":0,"duration":4950},{"tileid":588,"duration":75},{"tileid":589,"duration":75},{"tileid":590,"duration":75},{"tileid":591,"duration":75},{"tileid":592,"duration":75},{"tileid":593,"duration":75},{"tileid":0,"duration":1575},{"tileid":594,"duration":75}]},{"id":604,"animation":[{"tileid":604,"duration":5100},{"tileid":596,"duration":75},{"tileid":597,"duration":75},{"tileid":598,"duration":75},{"tileid":599,"duration":75},{"tileid":600,"duration":75},{"tileid":601,"duration":75},{"tileid":602,"duration":75},{"tileid":603,"duration":75},{"tileid":0,"duration":1500}]},{"id":615,"animation":[{"tileid":615,"duration":3825},{"tileid":605,"duration":75},{"tileid":606,"duration":75},{"tileid":607,"duration":75},{"tileid":608,"duration":75},{"tileid":609,"duration":75},{"tileid":610,"duration":75},{"tileid":0,"duration":1575},{"tileid":611,"duration":75},{"tileid":612,"duration":75},{"tileid":613,"duration":75},{"tileid":614,"duration":75},{"tileid":0,"duration":1050}]},{"id":641,"animation":[{"tileid":641,"duration":750},{"tileid":616,"duration":75},{"tileid":617,"duration":75},{"tileid":618,"duration":75},{"tileid":619,"duration":75},{"tileid":620,"duration":75},{"tileid":621,"duration":75},{"tileid":622,"duration":75},{"tileid":0,"duration":450},{"tileid":623,"duration":75},{"tileid":624,"duration":75},{"tileid":625,"duration":75},{"tileid":0,"duration":1875},{"tileid":626,"duration":75},{"tileid":627,"duration":75},{"tileid":628,"duration":75},{"tileid":629,"duration":75},{"tileid":630,"duration":75},{"tileid":631,"duration":75},{"tileid":632,"duration":75},{"tileid":0,"duration":1425},{"tileid":633,"duration":75},{"tileid":634,"duration":75},{"tileid":635,"duration":75},{"tileid":636,"duration":75},{"tileid":637,"duration":75},{"tileid":638,"duration":75},{"tileid":639,"duration":75},{"tileid":640,"duration":75},{"tileid":0,"duration":825}]},{"id":654,"animation":[{"tileid":654,"duration":900},{"tileid":642,"duration":75},{"tileid":643,"duration":75},{"tileid":644,"duration":75},{"tileid":645,"duration":75},{"tileid":0,"duration":450},{"tileid":646,"duration":75},{"tileid":647,"duration":75},{"tileid":648,"duration":75},{"tileid":649,"duration":75},{"tileid":650,"duration":75},{"tileid":651,"duration":75},{"tileid":652,"duration":75},{"tileid":653,"duration":75},{"tileid":0,"duration":4950}]},{"id":663,"animation":[{"tileid":663,"duration":2700},{"tileid":655,"duration":75},{"tileid":656,"duration":75},{"tileid":657,"duration":75},{"tileid":658,"duration":75},{"tileid":659,"duration":75},{"tileid":660,"duration":75},{"tileid":661,"duration":75},{"tileid":662,"duration":75},{"tileid":0,"duration":3900}]},{"id":675,"animation":[{"tileid":675,"duration":75},{"tileid":665,"duration":75},{"tileid":666,"duration":75},{"tileid":0,"duration":2475},{"tileid":667,"duration":75},{"tileid":668,"duration":75},{"tileid":669,"duration":75},{"tileid":670,"duration":75},{"tileid":0,"duration":3900},{"tileid":671,"duration":75},{"tileid":672,"duration":75},{"tileid":673,"duration":75},{"tileid":674,"duration":75}]},{"id":688,"animation":[{"tileid":688,"duration":75},{"tileid":0,"duration":4725},{"tileid":677,"duration":75},{"tileid":678,"duration":75},{"tileid":679,"duration":75},{"tileid":680,"duration":75},{"tileid":681,"duration":75},{"tileid":682,"duration":75},{"tileid":683,"duration":75},{"tileid":0,"duration":1575},{"tileid":684,"duration":75},{"tileid":685,"duration":75},{"tileid":686,"duration":75},{"tileid":687,"duration":75}]},{"id":697,"animation":[{"tileid":697,"duration":4800},{"tileid":689,"duration":75},{"tileid":690,"duration":75},{"tileid":691,"duration":75},{"tileid":692,"duration":75},{"tileid":693,"duration":75},{"tileid":694,"duration":75},{"tileid":695,"duration":75},{"tileid":696,"duration":75},{"tileid":0,"duration":1800}]},{"id":711,"animation":[{"tileid":711,"duration":450},{"tileid":698,"duration":75},{"tileid":699,"duration":75},{"tileid":700,"duration":75},{"tileid":0,"duration":2850},{"tileid":701,"duration":75},{"tileid":702,"duration":75},{"tileid":703,"duration":75},{"tileid":704,"duration":75},{"tileid":705,"duration":75},{"tileid":706,"duration":75},{"tileid":707,"duration":75},{"tileid":0,"duration":1650},{"tileid":708,"duration":75},{"tileid":709,"duration":75},{"tileid":710,"duration":75},{"tileid":0,"duration":1275}]},{"id":739,"animation":[{"tileid":739,"duration":450},{"tileid":712,"duration":75},{"tileid":713,"duration":75},{"tileid":714,"duration":75},{"tileid":715,"duration":75},{"tileid":716,"duration":75},{"tileid":717,"duration":75},{"tileid":718,"duration":75},{"tileid":719,"duration":75},{"tileid":0,"duration":375},{"tileid":720,"duration":75},{"tileid":721,"duration":75},{"tileid":722,"duration":75},{"tileid":723,"duration":75},{"tileid":724,"duration":75},{"tileid":0,"duration":1800},{"tileid":725,"duration":75},{"tileid":726,"duration":75},{"tileid":727,"duration":75},{"tileid":728,"duration":75},{"tileid":729,"duration":75},{"tileid":730,"duration":75},{"tileid":731,"duration":75},{"tileid":0,"duration":1425},{"tileid":732,"duration":75},{"tileid":733,"duration":75},{"tileid":734,"duration":75},{"tileid":735,"duration":75},{"tileid":736,"duration":75},{"tileid":737,"duration":75},{"tileid":738,"duration":75},{"tileid":0,"duration":1125}]},{"id":747,"animation":[{"tileid":747,"duration":1425},{"tileid":740,"duration":75},{"tileid":741,"duration":75},{"tileid":742,"duration":75},{"tileid":743,"duration":75},{"tileid":744,"duration":75},{"tileid":745,"duration":75},{"tileid":746,"duration":75},{"tileid":0,"duration":5250}]},{"id":755,"animation":[{"tileid":755,"duration":2475},{"tileid":748,"duration":75},{"tileid":749,"duration":75},{"tileid":750,"duration":75},{"tileid":751,"duration":75},{"tileid":752,"duration":75},{"tileid":753,"duration":75},{"tileid":754,"duration":75},{"tileid":0,"duration":4200}]},{"id":765,"animation":[{"tileid":765,"duration":2475},{"tileid":756,"duration":75},{"tileid":757,"duration":75},{"tileid":758,"duration":75},{"tileid":759,"duration":75},{"tileid":760,"duration":75},{"tileid":761,"duration":75},{"tileid":0,"duration":3900},{"tileid":762,"duration":75},{"tileid":763,"duration":75},{"tileid":764,"duration":75},{"tileid":0,"duration":150}]},{"id":782,"animation":[{"tileid":782,"duration":4500},{"tileid":766,"duration":75},{"tileid":767,"duration":75},{"tileid":768,"duration":75},{"tileid":769,"duration":75},{"tileid":770,"duration":75},{"tileid":771,"duration":75},{"tileid":772,"duration":75},{"tileid":773,"duration":75},{"tileid":0,"duration":1500},{"tileid":774,"duration":75},{"tileid":775,"duration":75},{"tileid":776,"duration":75},{"tileid":777,"duration":75},{"tileid":778,"duration":75},{"tileid":779,"duration":75},{"tileid":780,"duration":75},{"tileid":781,"duration":75}]},{"id":789,"animation":[{"tileid":789,"duration":4575},{"tileid":783,"duration":75},{"tileid":784,"duration":75},{"tileid":785,"duration":75},{"tileid":786,"duration":75},{"tileid":787,"duration":75},{"tileid":788,"duration":75},{"tileid":0,"duration":2175}]},{"id":803,"animation":[{"tileid":803,"duration":150},{"tileid":790,"duration":75},{"tileid":791,"duration":75},{"tileid":792,"duration":75},{"tileid":793,"duration":75},{"tileid":794,"duration":75},{"tileid":795,"duration":75},{"tileid":0,"duration":2700},{"tileid":796,"duration":75},{"tileid":797,"duration":75},{"tileid":798,"duration":75},{"tileid":799,"duration":75},{"tileid":800,"duration":75},{"tileid":801,"duration":75},{"tileid":802,"duration":75},{"tileid":0,"duration":3375}]},{"id":828,"animation":[{"tileid":828,"duration":225},{"tileid":804,"duration":75},{"tileid":805,"duration":75},{"tileid":806,"duration":75},{"tileid":807,"duration":75},{"tileid":808,"duration":75},{"tileid":809,"duration":75},{"tileid":810,"duration":75},{"tileid":0,"duration":450},{"tileid":811,"duration":75},{"tileid":812,"duration":75},{"tileid":813,"duration":75},{"tileid":814,"duration":75},{"tileid":815,"duration":75},{"tileid":0,"duration":1800},{"tileid":816,"duration":75},{"tileid":817,"duration":75},{"tileid":818,"duration":75},{"tileid":819,"duration":75},{"tileid":820,"duration":75},{"tileid":0,"duration":1575},{"tileid":821,"duration":75},{"tileid":822,"duration":75},{"tileid":823,"duration":75},{"tileid":824,"duration":75},{"tileid":825,"duration":75},{"tileid":826,"duration":75},{"tileid":827,"duration":75},{"tileid":0,"duration":1350}]},{"id":837,"animation":[{"tileid":837,"duration":1125},{"tileid":829,"duration":75},{"tileid":830,"duration":75},{"tileid":831,"duration":75},{"tileid":832,"duration":75},{"tileid":833,"duration":75},{"tileid":834,"duration":75},{"tileid":835,"duration":75},{"tileid":836,"duration":75},{"tileid":0,"duration":5475}]},{"id":841,"animation":[{"tileid":841,"duration":2400},{"tileid":838,"duration":75},{"tileid":839,"duration":75},{"tileid":840,"duration":75},{"tileid":0,"duration":4575}]},{"id":849,"animation":[{"tileid":849,"duration":2250},{"tileid":842,"duration":75},{"tileid":843,"duration":75},{"tileid":844,"duration":75},{"tileid":845,"duration":75},{"tileid":846,"duration":75},{"tileid":847,"duration":75},{"tileid":848,"duration":75},{"tileid":0,"duration":4425}]},{"id":864,"animation":[{"tileid":864,"duration":4275},{"tileid":850,"duration":75},{"tileid":851,"duration":75},{"tileid":852,"duration":75},{"tileid":853,"duration":75},{"tileid":854,"duration":75},{"tileid":855,"duration":75},{"tileid":856,"duration":75},{"tileid":0,"duration":1575},{"tileid":857,"duration":75},{"tileid":858,"duration":75},{"tileid":859,"duration":75},{"tileid":860,"duration":75},{"tileid":861,"duration":75},{"tileid":862,"duration":75},{"tileid":863,"duration":75},{"tileid":0,"duration":300}]},{"id":873,"animation":[{"tileid":873,"duration":4425},{"tileid":865,"duration":75},{"tileid":866,"duration":75},{"tileid":867,"duration":75},{"tileid":868,"duration":75},{"tileid":0,"duration":1650},{"tileid":869,"duration":75},{"tileid":870,"duration":75},{"tileid":871,"duration":75},{"tileid":872,"duration":75},{"tileid":0,"duration":525}]},{"id":885,"animation":[{"tileid":885,"duration":75},{"tileid":874,"duration":75},{"tileid":875,"duration":75},{"tileid":876,"duration":75},{"tileid":877,"duration":75},{"tileid":878,"duration":75},{"tileid":0,"duration":2700},{"tileid":879,"duration":75},{"tileid":880,"duration":75},{"tileid":881,"duration":75},{"tileid":882,"duration":75},{"tileid":883,"duration":75},{"tileid":884,"duration":75},{"tileid":0,"duration":3600}]},{"id":896,"animation":[{"tileid":896,"duration":150},{"tileid":886,"duration":75},{"tileid":887,"duration":75},{"tileid":888,"duration":75},{"tileid":0,"duration":825},{"tileid":889,"duration":75},{"tileid":0,"duration":2100},{"tileid":890,"duration":75},{"tileid":0,"duration":1725},{"tileid":891,"duration":75},{"tileid":892,"duration":75},{"tileid":893,"duration":75},{"tileid":894,"duration":75},{"tileid":895,"duration":75},{"tileid":0,"duration":1650}]},{"id":902,"animation":[{"tileid":902,"duration":1050},{"tileid":897,"duration":75},{"tileid":898,"duration":75},{"tileid":899,"duration":75},{"tileid":900,"duration":75},{"tileid":901,"duration":75},{"tileid":0,"duration":5775}]},{"id":909,"animation":[{"tileid":909,"duration":2100},{"tileid":903,"duration":75},{"tileid":904,"duration":75},{"tileid":905,"duration":75},{"tileid":906,"duration":75},{"tileid":907,"duration":75},{"tileid":908,"duration":75},{"tileid":0,"duration":4650}]},{"id":920,"animation":[{"tileid":920,"duration":4200},{"tileid":910,"duration":75},{"tileid":911,"duration":75},{"tileid":912,"duration":75},{"tileid":913,"duration":75},{"tileid":0,"duration":1725},{"tileid":914,"duration":75},{"tileid":915,"duration":75},{"tileid":916,"duration":75},{"tileid":917,"duration":75},{"tileid":918,"duration":75},{"tileid":919,"duration":75},{"tileid":0,"duration":525}]},{"id":925,"animation":[{"tileid":925,"duration":6225},{"tileid":921,"duration":75},{"tileid":922,"duration":75},{"tileid":923,"duration":75},{"tileid":924,"duration":75},{"tileid":0,"duration":675}]},{"id":930,"animation":[{"tileid":930,"duration":3120},{"tileid":926,"duration":120},{"tileid":927,"duration":120},{"tileid":928,"duration":120},{"tileid":929,"duration":120}]},{"id":944,"animation":[{"tileid":944,"duration":960},{"tileid":931,"duration":120},{"tileid":932,"duration":120},{"tileid":933,"duration":120},{"tileid":934,"duration":120},{"tileid":935,"duration":120},{"tileid":936,"duration":120},{"tileid":0,"duration":720},{"tileid":937,"duration":120},{"tileid":938,"duration":120},{"tileid":939,"duration":120},{"tileid":940,"duration":120},{"tileid":0,"duration":240},{"tileid":941,"duration":120},{"tileid":942,"duration":120},{"tileid":943,"duration":120},{"tileid":0,"duration":120}]},{"id":954,"animation":[{"tileid":954,"duration":1680},{"tileid":945,"duration":120},{"tileid":946,"duration":120},{"tileid":947,"duration":120},{"tileid":948,"duration":120},{"tileid":949,"duration":120},{"tileid":0,"duration":120},{"tileid":950,"duration":120},{"tileid":951,"duration":120},{"tileid":952,"duration":120},{"tileid":953,"duration":120},{"tileid":0,"duration":720}]},{"id":964,"animation":[{"tileid":964,"duration":1080},{"tileid":955,"duration":120},{"tileid":956,"duration":120},{"tileid":957,"duration":120},{"tileid":958,"duration":120},{"tileid":0,"duration":120},{"tileid":959,"duration":120},{"tileid":960,"duration":120},{"tileid":961,"duration":120},{"tileid":962,"duration":120},{"tileid":963,"duration":120},{"tileid":0,"duration":1320}]},{"id":979,"animation":[{"tileid":979,"duration":360},{"tileid":965,"duration":120},{"tileid":966,"duration":120},{"tileid":967,"duration":120},{"tileid":968,"duration":120},{"tileid":0,"duration":120},{"tileid":969,"duration":120},{"tileid":970,"duration":120},{"tileid":971,"duration":120},{"tileid":972,"duration":120},{"tileid":973,"duration":120},{"tileid":0,"duration":1440},{"tileid":974,"duration":120},{"tileid":975,"duration":120},{"tileid":976,"duration":120},{"tileid":977,"duration":120},{"tileid":978,"duration":120}]},{"id":982,"animation":[{"tileid":982,"duration":360},{"tileid":980,"duration":120},{"tileid":981,"duration":120},{"tileid":0,"duration":3000}]},{"id":990,"animation":[{"tileid":990,"duration":2640},{"tileid":983,"duration":120},{"tileid":984,"duration":120},{"tileid":985,"duration":120},{"tileid":986,"duration":120},{"tileid":987,"duration":120},{"tileid":988,"duration":120},{"tileid":989,"duration":120},{"tileid":0,"duration":120}]},{"id":1010,"animation":[{"tileid":1010,"duration":120},{"tileid":992,"duration":120},{"tileid":993,"duration":120},{"tileid":994,"duration":120},{"tileid":995,"duration":120},{"tileid":996,"duration":120},{"tileid":997,"duration":120},{"tileid":998,"duration":120},{"tileid":0,"duration":960},{"tileid":999,"duration":120},{"tileid":1000,"duration":120},{"tileid":1001,"duration":120},{"tileid":1002,"duration":120},{"tileid":1003,"duration":120},{"tileid":1004,"duration":120},{"tileid":1005,"duration":120},{"tileid":1006,"duration":120},{"tileid":1007,"duration":120},{"tileid":1008,"duration":120},{"tileid":1009,"duration":120},{"tileid":0,"duration":360}]},{"id":1023,"animation":[{"tileid":1023,"duration":120},{"tileid":1012,"duration":120},{"tileid":1013,"duration":120},{"tileid":1014,"duration":120},{"tileid":0,"duration":480},{"tileid":1015,"duration":120},{"tileid":1016,"duration":120},{"tileid":1017,"duration":120},{"tileid":1018,"duration":120},{"tileid":1019,"duration":120},{"tileid":1020,"duration":120},{"tileid":1021,"duration":120},{"tileid":0,"duration":1680},{"tileid":1022,"duration":120}]}]},{"firstgid":12449,"name":"gate-journey-04","image":"../../v6/gate/map/tilesets/gate-journey-04.png","imagewidth":1024,"imageheight":1024,"tilewidth":32,"tileheight":32,"columns":32,"tilecount":1024,"margin":0,"spacing":0,"tiles":[{"id":17,"animation":[{"tileid":17,"duration":1200},{"tileid":1,"duration":120},{"tileid":2,"duration":120},{"tileid":3,"duration":120},{"tileid":4,"duration":120},{"tileid":5,"duration":120},{"tileid":6,"duration":120},{"tileid":0,"duration":120},{"tileid":7,"duration":120},{"tileid":8,"duration":120},{"tileid":9,"duration":120},{"tileid":10,"duration":120},{"tileid":11,"duration":120},{"tileid":0,"duration":360},{"tileid":12,"duration":120},{"tileid":13,"duration":120},{"tileid":14,"duration":120},{"tileid":15,"duration":120},{"tileid":16,"duration":120}]},{"id":31,"animation":[{"tileid":31,"duration":600},{"tileid":18,"duration":120},{"tileid":19,"duration":120},{"tileid":20,"duration":120},{"tileid":21,"duration":120},{"tileid":22,"duration":120},{"tileid":23,"duration":120},{"tileid":24,"duration":120},{"tileid":25,"duration":120},{"tileid":26,"duration":120},{"tileid":27,"duration":120},{"tileid":28,"duration":120},{"tileid":29,"duration":120},{"tileid":30,"duration":120},{"tileid":0,"duration":1440}]},{"id":53,"animation":[{"tileid":53,"duration":120},{"tileid":33,"duration":120},{"tileid":34,"duration":120},{"tileid":35,"duration":120},{"tileid":36,"duration":120},{"tileid":37,"duration":120},{"tileid":38,"duration":120},{"tileid":39,"duration":120},{"tileid":40,"duration":120},{"tileid":41,"duration":120},{"tileid":42,"duration":120},{"tileid":43,"duration":120},{"tileid":0,"duration":600},{"tileid":44,"duration":120},{"tileid":45,"duration":120},{"tileid":46,"duration":120},{"tileid":47,"duration":120},{"tileid":48,"duration":120},{"tileid":49,"duration":120},{"tileid":50,"duration":120},{"tileid":51,"duration":120},{"tileid":0,"duration":480},{"tileid":52,"duration":120}]},{"id":61,"animation":[{"tileid":61,"duration":2160},{"tileid":54,"duration":120},{"tileid":55,"duration":120},{"tileid":56,"duration":120},{"tileid":57,"duration":120},{"tileid":58,"duration":120},{"tileid":59,"duration":120},{"tileid":60,"duration":120},{"tileid":0,"duration":600}]},{"id":77,"animation":[{"tileid":77,"duration":1440},{"tileid":62,"duration":120},{"tileid":63,"duration":120},{"tileid":64,"duration":120},{"tileid":65,"duration":120},{"tileid":66,"duration":120},{"tileid":67,"duration":120},{"tileid":68,"duration":120},{"tileid":69,"duration":120},{"tileid":70,"duration":120},{"tileid":71,"duration":120},{"tileid":72,"duration":120},{"tileid":0,"duration":360},{"tileid":73,"duration":120},{"tileid":74,"duration":120},{"tileid":75,"duration":120},{"tileid":76,"duration":120}]},{"id":94,"animation":[{"tileid":94,"duration":840},{"tileid":78,"duration":120},{"tileid":79,"duration":120},{"tileid":80,"duration":120},{"tileid":81,"duration":120},{"tileid":82,"duration":120},{"tileid":0,"duration":360},{"tileid":83,"duration":120},{"tileid":84,"duration":120},{"tileid":85,"duration":120},{"tileid":86,"duration":120},{"tileid":87,"duration":120},{"tileid":88,"duration":120},{"tileid":89,"duration":120},{"tileid":90,"duration":120},{"tileid":91,"duration":120},{"tileid":92,"duration":120},{"tileid":93,"duration":120},{"tileid":0,"duration":480}]},{"id":107,"animation":[{"tileid":107,"duration":120},{"tileid":95,"duration":120},{"tileid":96,"duration":120},{"tileid":97,"duration":120},{"tileid":98,"duration":120},{"tileid":99,"duration":120},{"tileid":0,"duration":120},{"tileid":100,"duration":120},{"tileid":101,"duration":120},{"tileid":102,"duration":120},{"tileid":103,"duration":120},{"tileid":104,"duration":120},{"tileid":105,"duration":120},{"tileid":106,"duration":120},{"tileid":0,"duration":1920}]},{"id":129,"animation":[{"tileid":129,"duration":120},{"tileid":109,"duration":120},{"tileid":110,"duration":120},{"tileid":111,"duration":120},{"tileid":112,"duration":120},{"tileid":113,"duration":120},{"tileid":114,"duration":120},{"tileid":115,"duration":120},{"tileid":0,"duration":120},{"tileid":116,"duration":120},{"tileid":117,"duration":120},{"tileid":118,"duration":120},{"tileid":119,"duration":120},{"tileid":120,"duration":120},{"tileid":121,"duration":120},{"tileid":122,"duration":120},{"tileid":123,"duration":120},{"tileid":0,"duration":960},{"tileid":124,"duration":120},{"tileid":125,"duration":120},{"tileid":126,"duration":120},{"tileid":127,"duration":120},{"tileid":128,"duration":120}]},{"id":144,"animation":[{"tileid":144,"duration":120},{"tileid":131,"duration":120},{"tileid":132,"duration":120},{"tileid":133,"duration":120},{"tileid":134,"duration":120},{"tileid":135,"duration":120},{"tileid":136,"duration":120},{"tileid":137,"duration":120},{"tileid":138,"duration":120},{"tileid":0,"duration":1920},{"tileid":139,"duration":120},{"tileid":140,"duration":120},{"tileid":141,"duration":120},{"tileid":142,"duration":120},{"tileid":143,"duration":120}]},{"id":157,"animation":[{"tileid":157,"duration":1680},{"tileid":145,"duration":120},{"tileid":146,"duration":120},{"tileid":147,"duration":120},{"tileid":148,"duration":120},{"tileid":149,"duration":120},{"tileid":150,"duration":120},{"tileid":151,"duration":120},{"tileid":152,"duration":120},{"tileid":0,"duration":480},{"tileid":153,"duration":120},{"tileid":154,"duration":120},{"tileid":155,"duration":120},{"tileid":156,"duration":120}]},{"id":176,"animation":[{"tileid":176,"duration":960},{"tileid":158,"duration":120},{"tileid":159,"duration":120},{"tileid":160,"duration":120},{"tileid":161,"duration":120},{"tileid":162,"duration":120},{"tileid":163,"duration":120},{"tileid":164,"duration":120},{"tileid":165,"duration":120},{"tileid":166,"duration":120},{"tileid":167,"duration":120},{"tileid":168,"duration":120},{"tileid":169,"duration":120},{"tileid":170,"duration":120},{"tileid":171,"duration":120},{"tileid":172,"duration":120},{"tileid":173,"duration":120},{"tileid":174,"duration":120},{"tileid":175,"duration":120},{"tileid":0,"duration":480}]},{"id":192,"animation":[{"tileid":192,"duration":360},{"tileid":177,"duration":120},{"tileid":178,"duration":120},{"tileid":179,"duration":120},{"tileid":180,"duration":120},{"tileid":181,"duration":120},{"tileid":182,"duration":120},{"tileid":183,"duration":120},{"tileid":184,"duration":120},{"tileid":185,"duration":120},{"tileid":186,"duration":120},{"tileid":187,"duration":120},{"tileid":188,"duration":120},{"tileid":189,"duration":120},{"tileid":190,"duration":120},{"tileid":191,"duration":120},{"tileid":0,"duration":1440}]},{"id":205,"animation":[{"tileid":205,"duration":120},{"tileid":194,"duration":120},{"tileid":195,"duration":120},{"tileid":196,"duration":120},{"tileid":197,"duration":120},{"tileid":198,"duration":120},{"tileid":199,"duration":120},{"tileid":200,"duration":120},{"tileid":201,"duration":120},{"tileid":0,"duration":2160},{"tileid":202,"duration":120},{"tileid":203,"duration":120},{"tileid":204,"duration":120}]},{"id":224,"animation":[{"tileid":224,"duration":120},{"tileid":207,"duration":120},{"tileid":208,"duration":120},{"tileid":209,"duration":120},{"tileid":210,"duration":120},{"tileid":211,"duration":120},{"tileid":212,"duration":120},{"tileid":213,"duration":120},{"tileid":214,"duration":120},{"tileid":0,"duration":1440},{"tileid":215,"duration":120},{"tileid":216,"duration":120},{"tileid":217,"duration":120},{"tileid":218,"duration":120},{"tileid":219,"duration":120},{"tileid":220,"duration":120},{"tileid":221,"duration":120},{"tileid":222,"duration":120},{"tileid":223,"duration":120}]},{"id":233,"animation":[{"tileid":233,"duration":120},{"tileid":0,"duration":2400},{"tileid":226,"duration":120},{"tileid":227,"duration":120},{"tileid":228,"duration":120},{"tileid":229,"duration":120},{"tileid":230,"duration":120},{"tileid":231,"duration":120},{"tileid":232,"duration":120},{"tileid":0,"duration":240}]},{"id":251,"animation":[{"tileid":251,"duration":1200},{"tileid":234,"duration":120},{"tileid":235,"duration":120},{"tileid":236,"duration":120},{"tileid":237,"duration":120},{"tileid":238,"duration":120},{"tileid":239,"duration":120},{"tileid":240,"duration":120},{"tileid":241,"duration":120},{"tileid":242,"duration":120},{"tileid":243,"duration":120},{"tileid":244,"duration":120},{"tileid":245,"duration":120},{"tileid":246,"duration":120},{"tileid":247,"duration":120},{"tileid":248,"duration":120},{"tileid":249,"duration":120},{"tileid":250,"duration":120},{"tileid":0,"duration":360}]},{"id":264,"animation":[{"tileid":264,"duration":600},{"tileid":252,"duration":120},{"tileid":178,"duration":120},{"tileid":253,"duration":120},{"tileid":254,"duration":120},{"tileid":255,"duration":120},{"tileid":256,"duration":120},{"tileid":257,"duration":120},{"tileid":258,"duration":120},{"tileid":259,"duration":120},{"tileid":260,"duration":120},{"tileid":261,"duration":120},{"tileid":262,"duration":120},{"tileid":263,"duration":120},{"tileid":0,"duration":1440}]},{"id":276,"animation":[{"tileid":276,"duration":120},{"tileid":266,"duration":120},{"tileid":267,"duration":120},{"tileid":268,"duration":120},{"tileid":269,"duration":120},{"tileid":270,"duration":120},{"tileid":271,"duration":120},{"tileid":272,"duration":120},{"tileid":273,"duration":120},{"tileid":274,"duration":120},{"tileid":0,"duration":2280},{"tileid":275,"duration":120}]},{"id":288,"animation":[{"tileid":288,"duration":120},{"tileid":278,"duration":120},{"tileid":279,"duration":120},{"tileid":280,"duration":120},{"tileid":0,"duration":2280},{"tileid":281,"duration":120},{"tileid":282,"duration":120},{"tileid":283,"duration":120},{"tileid":284,"duration":120},{"tileid":285,"duration":120},{"tileid":286,"duration":120},{"tileid":287,"duration":120}]},{"id":303,"animation":[{"tileid":303,"duration":120},{"tileid":0,"duration":1920},{"tileid":290,"duration":120},{"tileid":291,"duration":120},{"tileid":292,"duration":120},{"tileid":293,"duration":120},{"tileid":294,"duration":120},{"tileid":295,"duration":120},{"tileid":296,"duration":120},{"tileid":297,"duration":120},{"tileid":298,"duration":120},{"tileid":299,"duration":120},{"tileid":300,"duration":120},{"tileid":301,"duration":120},{"tileid":302,"duration":120}]},{"id":312,"animation":[{"tileid":312,"duration":2040},{"tileid":304,"duration":120},{"tileid":305,"duration":120},{"tileid":306,"duration":120},{"tileid":307,"duration":120},{"tileid":308,"duration":120},{"tileid":309,"duration":120},{"tileid":310,"duration":120},{"tileid":311,"duration":120},{"tileid":0,"duration":600}]},{"id":325,"animation":[{"tileid":325,"duration":840},{"tileid":313,"duration":120},{"tileid":314,"duration":120},{"tileid":315,"duration":120},{"tileid":316,"duration":120},{"tileid":317,"duration":120},{"tileid":318,"duration":120},{"tileid":319,"duration":120},{"tileid":320,"duration":120},{"tileid":321,"duration":120},{"tileid":322,"duration":120},{"tileid":323,"duration":120},{"tileid":324,"duration":120},{"tileid":0,"duration":1320}]},{"id":341,"animation":[{"tileid":341,"duration":120},{"tileid":326,"duration":120},{"tileid":327,"duration":120},{"tileid":328,"duration":120},{"tileid":329,"duration":120},{"tileid":330,"duration":120},{"tileid":331,"duration":120},{"tileid":332,"duration":120},{"tileid":333,"duration":120},{"tileid":334,"duration":120},{"tileid":335,"duration":120},{"tileid":336,"duration":120},{"tileid":337,"duration":120},{"tileid":0,"duration":1680},{"tileid":338,"duration":120},{"tileid":339,"duration":120},{"tileid":340,"duration":120}]},{"id":353,"animation":[{"tileid":353,"duration":120},{"tileid":343,"duration":120},{"tileid":344,"duration":120},{"tileid":345,"duration":120},{"tileid":346,"duration":120},{"tileid":347,"duration":120},{"tileid":0,"duration":2280},{"tileid":348,"duration":120},{"tileid":349,"duration":120},{"tileid":350,"duration":120},{"tileid":351,"duration":120},{"tileid":352,"duration":120}]},{"id":364,"animation":[{"tileid":364,"duration":2280},{"tileid":354,"duration":120},{"tileid":355,"duration":120},{"tileid":356,"duration":120},{"tileid":148,"duration":120},{"tileid":357,"duration":120},{"tileid":358,"duration":120},{"tileid":359,"duration":120},{"tileid":360,"duration":120},{"tileid":361,"duration":120},{"tileid":362,"duration":120},{"tileid":363,"duration":120}]},{"id":375,"animation":[{"tileid":375,"duration":1560},{"tileid":365,"duration":120},{"tileid":366,"duration":120},{"tileid":367,"duration":120},{"tileid":368,"duration":120},{"tileid":369,"duration":120},{"tileid":370,"duration":120},{"tileid":371,"duration":120},{"tileid":372,"duration":120},{"tileid":8,"duration":120},{"tileid":167,"duration":120},{"tileid":373,"duration":120},{"tileid":374,"duration":120},{"tileid":0,"duration":600}]},{"id":382,"animation":[{"tileid":382,"duration":1680},{"tileid":376,"duration":120},{"tileid":377,"duration":120},{"tileid":378,"duration":120},{"tileid":379,"duration":120},{"tileid":380,"duration":120},{"tileid":0,"duration":120},{"tileid":381,"duration":120},{"tileid":0,"duration":1080}]},{"id":392,"animation":[{"tileid":392,"duration":240},{"tileid":383,"duration":120},{"tileid":384,"duration":120},{"tileid":385,"duration":120},{"tileid":386,"duration":120},{"tileid":387,"duration":120},{"tileid":388,"duration":120},{"tileid":389,"duration":120},{"tileid":390,"duration":120},{"tileid":391,"duration":120},{"tileid":0,"duration":2280}]},{"id":414,"animation":[{"tileid":414,"duration":120},{"tileid":394,"duration":120},{"tileid":395,"duration":120},{"tileid":396,"duration":120},{"tileid":397,"duration":120},{"tileid":398,"duration":120},{"tileid":399,"duration":120},{"tileid":400,"duration":120},{"tileid":401,"duration":120},{"tileid":402,"duration":120},{"tileid":0,"duration":1080},{"tileid":403,"duration":120},{"tileid":404,"duration":120},{"tileid":405,"duration":120},{"tileid":406,"duration":120},{"tileid":407,"duration":120},{"tileid":408,"duration":120},{"tileid":409,"duration":120},{"tileid":410,"duration":120},{"tileid":411,"duration":120},{"tileid":412,"duration":120},{"tileid":413,"duration":120}]},{"id":427,"animation":[{"tileid":427,"duration":120},{"tileid":416,"duration":120},{"tileid":417,"duration":120},{"tileid":0,"duration":2160},{"tileid":418,"duration":120},{"tileid":419,"duration":120},{"tileid":420,"duration":120},{"tileid":421,"duration":120},{"tileid":422,"duration":120},{"tileid":423,"duration":120},{"tileid":424,"duration":120},{"tileid":425,"duration":120},{"tileid":426,"duration":120}]},{"id":439,"animation":[{"tileid":439,"duration":1800},{"tileid":428,"duration":120},{"tileid":429,"duration":120},{"tileid":430,"duration":120},{"tileid":368,"duration":120},{"tileid":431,"duration":120},{"tileid":432,"duration":120},{"tileid":433,"duration":120},{"tileid":434,"duration":120},{"tileid":435,"duration":120},{"tileid":436,"duration":120},{"tileid":437,"duration":120},{"tileid":438,"duration":120},{"tileid":0,"duration":360}]},{"id":450,"animation":[{"tileid":450,"duration":1200},{"tileid":440,"duration":120},{"tileid":441,"duration":120},{"tileid":442,"duration":120},{"tileid":443,"duration":120},{"tileid":444,"duration":120},{"tileid":445,"duration":120},{"tileid":446,"duration":120},{"tileid":447,"duration":120},{"tileid":378,"duration":120},{"tileid":448,"duration":120},{"tileid":449,"duration":120},{"tileid":0,"duration":1080}]},{"id":458,"animation":[{"tileid":458,"duration":1200},{"tileid":451,"duration":120},{"tileid":452,"duration":120},{"tileid":453,"duration":120},{"tileid":454,"duration":120},{"tileid":455,"duration":120},{"tileid":0,"duration":1560},{"tileid":456,"duration":120},{"tileid":457,"duration":120}]},{"id":464,"animation":[{"tileid":464,"duration":120},{"tileid":460,"duration":120},{"tileid":461,"duration":120},{"tileid":462,"duration":120},{"tileid":463,"duration":120},{"tileid":0,"duration":3000}]},{"id":476,"animation":[{"tileid":476,"duration":120},{"tileid":465,"duration":120},{"tileid":466,"duration":120},{"tileid":467,"duration":120},{"tileid":468,"duration":120},{"tileid":469,"duration":120},{"tileid":0,"duration":1440},{"tileid":470,"duration":120},{"tileid":471,"duration":120},{"tileid":0,"duration":600},{"tileid":472,"duration":120},{"tileid":473,"duration":120},{"tileid":474,"duration":120},{"tileid":475,"duration":120},{"tileid":0,"duration":120}]},{"id":488,"animation":[{"tileid":488,"duration":2280},{"tileid":477,"duration":120},{"tileid":478,"duration":120},{"tileid":479,"duration":120},{"tileid":480,"duration":120},{"tileid":481,"duration":120},{"tileid":482,"duration":120},{"tileid":483,"duration":120},{"tileid":484,"duration":120},{"tileid":485,"duration":120},{"tileid":486,"duration":120},{"tileid":487,"duration":120}]},{"id":499,"animation":[{"tileid":499,"duration":1560},{"tileid":489,"duration":120},{"tileid":490,"duration":120},{"tileid":491,"duration":120},{"tileid":492,"duration":120},{"tileid":493,"duration":120},{"tileid":494,"duration":120},{"tileid":495,"duration":120},{"tileid":496,"duration":120},{"tileid":497,"duration":120},{"tileid":498,"duration":120},{"tileid":0,"duration":840}]},{"id":509,"animation":[{"tileid":509,"duration":960},{"tileid":500,"duration":120},{"tileid":501,"duration":120},{"tileid":502,"duration":120},{"tileid":503,"duration":120},{"tileid":504,"duration":120},{"tileid":505,"duration":120},{"tileid":506,"duration":120},{"tileid":507,"duration":120},{"tileid":508,"duration":120},{"tileid":0,"duration":1560}]},{"id":515,"animation":[{"tileid":515,"duration":960},{"tileid":510,"duration":120},{"tileid":511,"duration":120},{"tileid":512,"duration":120},{"tileid":0,"duration":1800},{"tileid":513,"duration":120},{"tileid":514,"duration":120},{"tileid":0,"duration":240}]},{"id":517,"animation":[{"tileid":517,"duration":120},{"tileid":516,"duration":120},{"tileid":0,"duration":3360}]},{"id":519,"animation":[{"tileid":519,"duration":3000},{"tileid":518,"duration":120},{"tileid":0,"duration":480}]},{"id":523,"animation":[{"tileid":523,"duration":1680},{"tileid":520,"duration":120},{"tileid":0,"duration":480},{"tileid":521,"duration":120},{"tileid":522,"duration":120},{"tileid":0,"duration":1080}]},{"id":525,"animation":[{"tileid":525,"duration":960},{"tileid":524,"duration":120},{"tileid":0,"duration":2520}]},{"id":533,"animation":[{"tileid":533,"duration":120},{"tileid":526,"duration":120},{"tileid":527,"duration":120},{"tileid":0,"duration":840},{"tileid":528,"duration":120},{"tileid":529,"duration":120},{"tileid":0,"duration":840},{"tileid":530,"duration":120},{"tileid":531,"duration":120},{"tileid":532,"duration":120},{"tileid":0,"duration":720}]},{"id":541,"animation":[{"tileid":541,"duration":120},{"tileid":534,"duration":120},{"tileid":535,"duration":120},{"tileid":0,"duration":840},{"tileid":536,"duration":120},{"tileid":537,"duration":120},{"tileid":0,"duration":840},{"tileid":538,"duration":120},{"tileid":539,"duration":120},{"tileid":540,"duration":120},{"tileid":0,"duration":720}]},{"id":569,"animation":[{"tileid":569,"duration":120},{"tileid":543,"duration":120},{"tileid":544,"duration":120},{"tileid":545,"duration":120},{"tileid":546,"duration":120},{"tileid":547,"duration":120},{"tileid":548,"duration":120},{"tileid":549,"duration":120},{"tileid":550,"duration":120},{"tileid":551,"duration":120},{"tileid":552,"duration":120},{"tileid":553,"duration":120},{"tileid":554,"duration":120},{"tileid":555,"duration":120},{"tileid":556,"duration":120},{"tileid":548,"duration":120},{"tileid":557,"duration":120},{"tileid":558,"duration":120},{"tileid":559,"duration":120},{"tileid":560,"duration":120},{"tileid":561,"duration":120},{"tileid":562,"duration":120},{"tileid":563,"duration":120},{"tileid":564,"duration":120},{"tileid":565,"duration":120},{"tileid":566,"duration":120},{"tileid":567,"duration":120},{"tileid":568,"duration":120}]},{"id":598,"animation":[{"tileid":598,"duration":120},{"tileid":571,"duration":120},{"tileid":572,"duration":120},{"tileid":573,"duration":120},{"tileid":574,"duration":120},{"tileid":575,"duration":120},{"tileid":576,"duration":120},{"tileid":577,"duration":120},{"tileid":578,"duration":120},{"tileid":579,"duration":120},{"tileid":580,"duration":120},{"tileid":581,"duration":120},{"tileid":582,"duration":120},{"tileid":583,"duration":120},{"tileid":584,"duration":120},{"tileid":585,"duration":120},{"tileid":586,"duration":120},{"tileid":587,"duration":120},{"tileid":588,"duration":120},{"tileid":589,"duration":120},{"tileid":590,"duration":120},{"tileid":591,"duration":120},{"tileid":592,"duration":120},{"tileid":593,"duration":120},{"tileid":594,"duration":120},{"tileid":595,"duration":120},{"tileid":596,"duration":120},{"tileid":597,"duration":120}]},{"id":627,"animation":[{"tileid":627,"duration":120},{"tileid":600,"duration":120},{"tileid":601,"duration":120},{"tileid":602,"duration":120},{"tileid":603,"duration":120},{"tileid":604,"duration":120},{"tileid":605,"duration":120},{"tileid":606,"duration":120},{"tileid":607,"duration":120},{"tileid":608,"duration":120},{"tileid":609,"duration":120},{"tileid":610,"duration":120},{"tileid":611,"duration":120},{"tileid":612,"duration":120},{"tileid":613,"duration":120},{"tileid":614,"duration":120},{"tileid":615,"duration":120},{"tileid":616,"duration":120},{"tileid":617,"duration":120},{"tileid":618,"duration":120},{"tileid":619,"duration":120},{"tileid":620,"duration":120},{"tileid":621,"duration":120},{"tileid":622,"duration":120},{"tileid":623,"duration":120},{"tileid":624,"duration":120},{"tileid":625,"duration":120},{"tileid":626,"duration":120}]},{"id":650,"animation":[{"tileid":650,"duration":120},{"tileid":629,"duration":120},{"tileid":630,"duration":120},{"tileid":631,"duration":120},{"tileid":0,"duration":240},{"tileid":632,"duration":120},{"tileid":633,"duration":120},{"tileid":634,"duration":120},{"tileid":635,"duration":120},{"tileid":636,"duration":120},{"tileid":637,"duration":120},{"tileid":638,"duration":120},{"tileid":639,"duration":120},{"tileid":0,"duration":120},{"tileid":632,"duration":120},{"tileid":640,"duration":120},{"tileid":641,"duration":120},{"tileid":642,"duration":120},{"tileid":643,"duration":120},{"tileid":644,"duration":120},{"tileid":645,"duration":120},{"tileid":646,"duration":120},{"tileid":0,"duration":240},{"tileid":647,"duration":120},{"tileid":648,"duration":120},{"tileid":649,"duration":120}]},{"id":678,"animation":[{"tileid":678,"duration":120},{"tileid":651,"duration":120},{"tileid":652,"duration":120},{"tileid":653,"duration":120},{"tileid":654,"duration":120},{"tileid":655,"duration":120},{"tileid":656,"duration":120},{"tileid":657,"duration":120},{"tileid":658,"duration":120},{"tileid":659,"duration":120},{"tileid":660,"duration":120},{"tileid":661,"duration":120},{"tileid":662,"duration":120},{"tileid":663,"duration":120},{"tileid":664,"duration":120},{"tileid":665,"duration":120},{"tileid":666,"duration":120},{"tileid":667,"duration":120},{"tileid":668,"duration":120},{"tileid":669,"duration":120},{"tileid":670,"duration":120},{"tileid":671,"duration":120},{"tileid":672,"duration":120},{"tileid":673,"duration":120},{"tileid":674,"duration":120},{"tileid":675,"duration":120},{"tileid":676,"duration":120},{"tileid":677,"duration":120}]},{"id":707,"animation":[{"tileid":707,"duration":120},{"tileid":680,"duration":120},{"tileid":681,"duration":120},{"tileid":682,"duration":120},{"tileid":683,"duration":120},{"tileid":684,"duration":120},{"tileid":685,"duration":120},{"tileid":686,"duration":120},{"tileid":687,"duration":120},{"tileid":688,"duration":120},{"tileid":689,"duration":120},{"tileid":690,"duration":120},{"tileid":691,"duration":120},{"tileid":692,"duration":120},{"tileid":693,"duration":120},{"tileid":694,"duration":120},{"tileid":695,"duration":120},{"tileid":696,"duration":120},{"tileid":697,"duration":120},{"tileid":698,"duration":120},{"tileid":699,"duration":120},{"tileid":700,"duration":120},{"tileid":701,"duration":120},{"tileid":702,"duration":120},{"tileid":703,"duration":120},{"tileid":704,"duration":120},{"tileid":705,"duration":120},{"tileid":706,"duration":120}]},{"id":736,"animation":[{"tileid":736,"duration":120},{"tileid":709,"duration":120},{"tileid":710,"duration":120},{"tileid":711,"duration":120},{"tileid":712,"duration":120},{"tileid":713,"duration":120},{"tileid":714,"duration":120},{"tileid":715,"duration":120},{"tileid":716,"duration":120},{"tileid":717,"duration":120},{"tileid":718,"duration":120},{"tileid":719,"duration":120},{"tileid":720,"duration":120},{"tileid":721,"duration":120},{"tileid":722,"duration":120},{"tileid":723,"duration":120},{"tileid":724,"duration":120},{"tileid":725,"duration":120},{"tileid":726,"duration":120},{"tileid":727,"duration":120},{"tileid":728,"duration":120},{"tileid":729,"duration":120},{"tileid":730,"duration":120},{"tileid":731,"duration":120},{"tileid":732,"duration":120},{"tileid":733,"duration":120},{"tileid":734,"duration":120},{"tileid":735,"duration":120}]},{"id":765,"animation":[{"tileid":765,"duration":120},{"tileid":738,"duration":120},{"tileid":739,"duration":120},{"tileid":740,"duration":120},{"tileid":741,"duration":120},{"tileid":742,"duration":120},{"tileid":743,"duration":120},{"tileid":744,"duration":120},{"tileid":745,"duration":120},{"tileid":746,"duration":120},{"tileid":747,"duration":120},{"tileid":748,"duration":120},{"tileid":749,"duration":120},{"tileid":750,"duration":120},{"tileid":751,"duration":120},{"tileid":752,"duration":120},{"tileid":753,"duration":120},{"tileid":754,"duration":120},{"tileid":755,"duration":120},{"tileid":756,"duration":120},{"tileid":757,"duration":120},{"tileid":758,"duration":120},{"tileid":759,"duration":120},{"tileid":760,"duration":120},{"tileid":761,"duration":120},{"tileid":762,"duration":120},{"tileid":763,"duration":120},{"tileid":764,"duration":120}]},{"id":794,"animation":[{"tileid":794,"duration":120},{"tileid":767,"duration":120},{"tileid":768,"duration":120},{"tileid":769,"duration":120},{"tileid":770,"duration":120},{"tileid":771,"duration":120},{"tileid":772,"duration":120},{"tileid":773,"duration":120},{"tileid":774,"duration":120},{"tileid":775,"duration":120},{"tileid":776,"duration":120},{"tileid":777,"duration":120},{"tileid":778,"duration":120},{"tileid":779,"duration":120},{"tileid":780,"duration":120},{"tileid":781,"duration":120},{"tileid":782,"duration":120},{"tileid":783,"duration":120},{"tileid":784,"duration":120},{"tileid":785,"duration":120},{"tileid":786,"duration":120},{"tileid":787,"duration":120},{"tileid":788,"duration":120},{"tileid":789,"duration":120},{"tileid":790,"duration":120},{"tileid":791,"duration":120},{"tileid":792,"duration":120},{"tileid":793,"duration":120}]},{"id":816,"animation":[{"tileid":816,"duration":120},{"tileid":796,"duration":120},{"tileid":797,"duration":120},{"tileid":798,"duration":120},{"tileid":799,"duration":120},{"tileid":800,"duration":120},{"tileid":801,"duration":120},{"tileid":0,"duration":360},{"tileid":802,"duration":120},{"tileid":803,"duration":120},{"tileid":804,"duration":120},{"tileid":805,"duration":120},{"tileid":806,"duration":120},{"tileid":807,"duration":120},{"tileid":808,"duration":120},{"tileid":0,"duration":240},{"tileid":809,"duration":120},{"tileid":810,"duration":120},{"tileid":811,"duration":120},{"tileid":812,"duration":120},{"tileid":813,"duration":120},{"tileid":814,"duration":120},{"tileid":815,"duration":120},{"tileid":0,"duration":240}]},{"id":822,"animation":[{"tileid":822,"duration":720},{"tileid":817,"duration":120},{"tileid":818,"duration":120},{"tileid":0,"duration":840},{"tileid":819,"duration":120},{"tileid":820,"duration":120},{"tileid":0,"duration":960},{"tileid":821,"duration":120},{"tileid":0,"duration":240}]},{"id":829,"animation":[{"tileid":829,"duration":600},{"tileid":823,"duration":120},{"tileid":824,"duration":120},{"tileid":0,"duration":840},{"tileid":825,"duration":120},{"tileid":826,"duration":120},{"tileid":0,"duration":960},{"tileid":827,"duration":120},{"tileid":828,"duration":120},{"tileid":0,"duration":240}]},{"id":834,"animation":[{"tileid":834,"duration":600},{"tileid":830,"duration":120},{"tileid":0,"duration":960},{"tileid":831,"duration":120},{"tileid":0,"duration":960},{"tileid":832,"duration":120},{"tileid":833,"duration":120},{"tileid":0,"duration":360}]},{"id":839,"animation":[{"tileid":839,"duration":600},{"tileid":835,"duration":120},{"tileid":0,"duration":960},{"tileid":836,"duration":120},{"tileid":0,"duration":960},{"tileid":837,"duration":120},{"tileid":838,"duration":120},{"tileid":0,"duration":360}]},{"id":846,"animation":[{"tileid":846,"duration":600},{"tileid":840,"duration":120},{"tileid":841,"duration":120},{"tileid":0,"duration":840},{"tileid":842,"duration":120},{"tileid":843,"duration":120},{"tileid":0,"duration":960},{"tileid":844,"duration":120},{"tileid":845,"duration":120},{"tileid":0,"duration":240}]},{"id":853,"animation":[{"tileid":853,"duration":720},{"tileid":847,"duration":120},{"tileid":848,"duration":120},{"tileid":0,"duration":840},{"tileid":849,"duration":120},{"tileid":850,"duration":120},{"tileid":0,"duration":960},{"tileid":851,"duration":120},{"tileid":852,"duration":120},{"tileid":0,"duration":120}]},{"id":862,"animation":[{"tileid":862,"duration":300},{"tileid":855,"duration":300},{"tileid":856,"duration":300},{"tileid":857,"duration":300},{"tileid":856,"duration":300},{"tileid":855,"duration":300},{"tileid":854,"duration":300},{"tileid":858,"duration":300},{"tileid":859,"duration":300},{"tileid":860,"duration":300},{"tileid":859,"duration":300},{"tileid":861,"duration":300}]},{"id":869,"animation":[{"tileid":869,"duration":300},{"tileid":864,"duration":300},{"tileid":865,"duration":300},{"tileid":866,"duration":300},{"tileid":865,"duration":300},{"tileid":864,"duration":300},{"tileid":863,"duration":300},{"tileid":867,"duration":300},{"tileid":868,"duration":900},{"tileid":867,"duration":300}]},{"id":874,"animation":[{"tileid":874,"duration":300},{"tileid":871,"duration":900},{"tileid":870,"duration":300},{"tileid":872,"duration":600},{"tileid":873,"duration":900},{"tileid":872,"duration":300},{"tileid":870,"duration":300}]},{"id":885,"animation":[{"tileid":885,"duration":300},{"tileid":876,"duration":600},{"tileid":877,"duration":300},{"tileid":878,"duration":300},{"tileid":879,"duration":300},{"tileid":880,"duration":300},{"tileid":881,"duration":600},{"tileid":882,"duration":300},{"tileid":883,"duration":300},{"tileid":884,"duration":300}]},{"id":889,"animation":[{"tileid":889,"duration":300},{"tileid":887,"duration":300},{"tileid":888,"duration":900},{"tileid":887,"duration":300},{"tileid":886,"duration":300},{"tileid":0,"duration":1500}]},{"id":893,"animation":[{"tileid":893,"duration":1200},{"tileid":891,"duration":300},{"tileid":0,"duration":1800},{"tileid":892,"duration":300}]},{"id":904,"animation":[{"tileid":904,"duration":600},{"tileid":895,"duration":300},{"tileid":896,"duration":300},{"tileid":897,"duration":300},{"tileid":898,"duration":300},{"tileid":899,"duration":600},{"tileid":900,"duration":300},{"tileid":901,"duration":300},{"tileid":902,"duration":300},{"tileid":903,"duration":300}]},{"id":911,"animation":[{"tileid":911,"duration":600},{"tileid":906,"duration":300},{"tileid":907,"duration":300},{"tileid":908,"duration":300},{"tileid":909,"duration":900},{"tileid":908,"duration":600},{"tileid":906,"duration":300},{"tileid":910,"duration":300}]},{"id":918,"animation":[{"tileid":918,"duration":300},{"tileid":913,"duration":300},{"tileid":914,"duration":300},{"tileid":915,"duration":300},{"tileid":916,"duration":900},{"tileid":915,"duration":300},{"tileid":914,"duration":300},{"tileid":913,"duration":300},{"tileid":912,"duration":300},{"tileid":917,"duration":300}]},{"id":928,"animation":[{"tileid":928,"duration":300},{"tileid":920,"duration":300},{"tileid":921,"duration":300},{"tileid":922,"duration":300},{"tileid":923,"duration":300},{"tileid":924,"duration":300},{"tileid":923,"duration":300},{"tileid":925,"duration":300},{"tileid":921,"duration":300},{"tileid":926,"duration":300},{"tileid":919,"duration":300},{"tileid":927,"duration":300}]},{"id":939,"animation":[{"tileid":939,"duration":600},{"tileid":930,"duration":300},{"tileid":931,"duration":300},{"tileid":932,"duration":300},{"tileid":933,"duration":300},{"tileid":934,"duration":600},{"tileid":935,"duration":300},{"tileid":936,"duration":300},{"tileid":937,"duration":300},{"tileid":938,"duration":300}]},{"id":946,"animation":[{"tileid":946,"duration":600},{"tileid":941,"duration":300},{"tileid":942,"duration":300},{"tileid":943,"duration":300},{"tileid":944,"duration":900},{"tileid":943,"duration":600},{"tileid":941,"duration":300},{"tileid":945,"duration":300}]},{"id":953,"animation":[{"tileid":953,"duration":300},{"tileid":948,"duration":300},{"tileid":949,"duration":300},{"tileid":950,"duration":300},{"tileid":951,"duration":900},{"tileid":950,"duration":300},{"tileid":949,"duration":300},{"tileid":948,"duration":300},{"tileid":947,"duration":300},{"tileid":952,"duration":300}]},{"id":963,"animation":[{"tileid":963,"duration":300},{"tileid":955,"duration":300},{"tileid":956,"duration":300},{"tileid":957,"duration":300},{"tileid":958,"duration":300},{"tileid":959,"duration":300},{"tileid":958,"duration":300},{"tileid":960,"duration":300},{"tileid":956,"duration":300},{"tileid":961,"duration":300},{"tileid":954,"duration":300},{"tileid":962,"duration":300}]}]},{"firstgid":13473,"name":"gate-stage-controls","image":"../../v6/gate/map/tilesets/gate-stage-controls.png","imagewidth":160,"imageheight":32,"tilewidth":32,"tileheight":32,"columns":5,"tilecount":5,"margin":0,"spacing":0},{"firstgid":13478,"name":"gate-waterfalls-01","image":"../../v6/gate/map/tilesets/gate-waterfalls-01.png","imagewidth":1024,"imageheight":1024,"tilewidth":32,"tileheight":32,"columns":32,"tilecount":1024,"margin":0,"spacing":0,"tiles":[{"id":0,"animation":[{"tileid":0,"duration":100},{"tileid":1,"duration":100},{"tileid":2,"duration":100},{"tileid":3,"duration":100},{"tileid":4,"duration":100},{"tileid":5,"duration":100},{"tileid":6,"duration":100},{"tileid":7,"duration":100},{"tileid":8,"duration":100},{"tileid":9,"duration":100},{"tileid":10,"duration":100},{"tileid":11,"duration":100},{"tileid":12,"duration":100},{"tileid":13,"duration":100},{"tileid":14,"duration":100},{"tileid":15,"duration":100},{"tileid":16,"duration":100},{"tileid":17,"duration":100},{"tileid":18,"duration":100},{"tileid":19,"duration":100},{"tileid":20,"duration":100},{"tileid":21,"duration":100},{"tileid":22,"duration":100},{"tileid":23,"duration":100}]},{"id":24,"animation":[{"tileid":24,"duration":100},{"tileid":25,"duration":100},{"tileid":26,"duration":100},{"tileid":27,"duration":100},{"tileid":28,"duration":100},{"tileid":29,"duration":100},{"tileid":30,"duration":100},{"tileid":31,"duration":100},{"tileid":32,"duration":100},{"tileid":33,"duration":100},{"tileid":34,"duration":100},{"tileid":35,"duration":100},{"tileid":36,"duration":100},{"tileid":37,"duration":100},{"tileid":38,"duration":100},{"tileid":39,"duration":100},{"tileid":40,"duration":100},{"tileid":41,"duration":100},{"tileid":42,"duration":100},{"tileid":43,"duration":100},{"tileid":44,"duration":100},{"tileid":45,"duration":100},{"tileid":46,"duration":100},{"tileid":47,"duration":100}]},{"id":48,"animation":[{"tileid":48,"duration":100},{"tileid":49,"duration":100},{"tileid":50,"duration":100},{"tileid":51,"duration":100},{"tileid":52,"duration":100},{"tileid":53,"duration":100},{"tileid":54,"duration":100},{"tileid":55,"duration":100},{"tileid":56,"duration":100},{"tileid":57,"duration":100},{"tileid":58,"duration":100},{"tileid":59,"duration":100},{"tileid":60,"duration":100},{"tileid":61,"duration":100},{"tileid":62,"duration":100},{"tileid":63,"duration":100},{"tileid":64,"duration":100},{"tileid":65,"duration":100},{"tileid":66,"duration":100},{"tileid":67,"duration":100},{"tileid":68,"duration":100},{"tileid":69,"duration":100},{"tileid":70,"duration":100},{"tileid":71,"duration":100}]},{"id":72,"animation":[{"tileid":72,"duration":100},{"tileid":73,"duration":100},{"tileid":74,"duration":100},{"tileid":75,"duration":100},{"tileid":76,"duration":100},{"tileid":77,"duration":100},{"tileid":78,"duration":100},{"tileid":79,"duration":100},{"tileid":80,"duration":100},{"tileid":81,"duration":100},{"tileid":82,"duration":100},{"tileid":83,"duration":100},{"tileid":84,"duration":100},{"tileid":85,"duration":100},{"tileid":86,"duration":100},{"tileid":87,"duration":100},{"tileid":88,"duration":100},{"tileid":89,"duration":100},{"tileid":90,"duration":100},{"tileid":91,"duration":100},{"tileid":92,"duration":100},{"tileid":93,"duration":100},{"tileid":94,"duration":100},{"tileid":95,"duration":100}]},{"id":96,"animation":[{"tileid":96,"duration":100},{"tileid":97,"duration":100},{"tileid":98,"duration":100},{"tileid":99,"duration":100},{"tileid":100,"duration":100},{"tileid":101,"duration":100},{"tileid":102,"duration":100},{"tileid":103,"duration":100},{"tileid":104,"duration":100},{"tileid":105,"duration":100},{"tileid":106,"duration":100},{"tileid":107,"duration":100},{"tileid":108,"duration":100},{"tileid":109,"duration":100},{"tileid":110,"duration":100},{"tileid":111,"duration":100},{"tileid":112,"duration":100},{"tileid":113,"duration":100},{"tileid":114,"duration":100},{"tileid":115,"duration":100},{"tileid":116,"duration":100},{"tileid":117,"duration":100},{"tileid":118,"duration":100},{"tileid":119,"duration":100}]},{"id":120,"animation":[{"tileid":120,"duration":100},{"tileid":121,"duration":100},{"tileid":122,"duration":100},{"tileid":123,"duration":100},{"tileid":124,"duration":100},{"tileid":125,"duration":100},{"tileid":126,"duration":100},{"tileid":127,"duration":100},{"tileid":128,"duration":100},{"tileid":129,"duration":100},{"tileid":130,"duration":100},{"tileid":131,"duration":100},{"tileid":132,"duration":100},{"tileid":133,"duration":100},{"tileid":134,"duration":100},{"tileid":135,"duration":100},{"tileid":136,"duration":100},{"tileid":137,"duration":100},{"tileid":138,"duration":100},{"tileid":139,"duration":100},{"tileid":140,"duration":100},{"tileid":141,"duration":100},{"tileid":142,"duration":100},{"tileid":143,"duration":100}]},{"id":144,"animation":[{"tileid":144,"duration":100},{"tileid":145,"duration":100},{"tileid":146,"duration":100},{"tileid":147,"duration":100},{"tileid":148,"duration":100},{"tileid":149,"duration":100},{"tileid":150,"duration":100},{"tileid":151,"duration":100},{"tileid":152,"duration":100},{"tileid":153,"duration":100},{"tileid":154,"duration":100},{"tileid":155,"duration":100},{"tileid":156,"duration":100},{"tileid":157,"duration":100},{"tileid":158,"duration":100},{"tileid":159,"duration":100},{"tileid":160,"duration":100},{"tileid":161,"duration":100},{"tileid":162,"duration":100},{"tileid":163,"duration":100},{"tileid":164,"duration":100},{"tileid":165,"duration":100},{"tileid":166,"duration":100},{"tileid":167,"duration":100}]},{"id":168,"animation":[{"tileid":168,"duration":100},{"tileid":169,"duration":100},{"tileid":170,"duration":100},{"tileid":171,"duration":100},{"tileid":172,"duration":100},{"tileid":173,"duration":100},{"tileid":174,"duration":100},{"tileid":175,"duration":100},{"tileid":176,"duration":100},{"tileid":177,"duration":100},{"tileid":178,"duration":100},{"tileid":179,"duration":100},{"tileid":180,"duration":100},{"tileid":181,"duration":100},{"tileid":182,"duration":100},{"tileid":183,"duration":100},{"tileid":184,"duration":100},{"tileid":185,"duration":100},{"tileid":186,"duration":100},{"tileid":187,"duration":100},{"tileid":188,"duration":100},{"tileid":189,"duration":100},{"tileid":190,"duration":100},{"tileid":191,"duration":100}]},{"id":192,"animation":[{"tileid":192,"duration":100},{"tileid":193,"duration":100},{"tileid":194,"duration":100},{"tileid":195,"duration":100},{"tileid":196,"duration":100},{"tileid":197,"duration":100},{"tileid":198,"duration":100},{"tileid":199,"duration":100},{"tileid":200,"duration":100},{"tileid":201,"duration":100},{"tileid":202,"duration":100},{"tileid":203,"duration":100},{"tileid":204,"duration":100},{"tileid":205,"duration":100},{"tileid":206,"duration":100},{"tileid":207,"duration":100},{"tileid":208,"duration":100},{"tileid":209,"duration":100},{"tileid":210,"duration":100},{"tileid":211,"duration":100},{"tileid":212,"duration":100},{"tileid":213,"duration":100},{"tileid":214,"duration":100},{"tileid":215,"duration":100}]},{"id":216,"animation":[{"tileid":216,"duration":100},{"tileid":217,"duration":100},{"tileid":218,"duration":100},{"tileid":219,"duration":100},{"tileid":220,"duration":100},{"tileid":221,"duration":100},{"tileid":222,"duration":100},{"tileid":223,"duration":100},{"tileid":224,"duration":100},{"tileid":225,"duration":100},{"tileid":226,"duration":100},{"tileid":227,"duration":100},{"tileid":228,"duration":100},{"tileid":229,"duration":100},{"tileid":230,"duration":100},{"tileid":231,"duration":100},{"tileid":232,"duration":100},{"tileid":233,"duration":100},{"tileid":234,"duration":100},{"tileid":235,"duration":100},{"tileid":236,"duration":100},{"tileid":237,"duration":100},{"tileid":238,"duration":100},{"tileid":239,"duration":100}]},{"id":240,"animation":[{"tileid":240,"duration":100},{"tileid":241,"duration":100},{"tileid":242,"duration":100},{"tileid":243,"duration":100},{"tileid":244,"duration":100},{"tileid":245,"duration":100},{"tileid":246,"duration":100},{"tileid":247,"duration":100},{"tileid":248,"duration":100},{"tileid":249,"duration":100},{"tileid":250,"duration":100},{"tileid":251,"duration":100},{"tileid":252,"duration":100},{"tileid":253,"duration":100},{"tileid":254,"duration":100},{"tileid":255,"duration":100},{"tileid":256,"duration":100},{"tileid":257,"duration":100},{"tileid":258,"duration":100},{"tileid":259,"duration":100},{"tileid":260,"duration":100},{"tileid":261,"duration":100},{"tileid":262,"duration":100},{"tileid":263,"duration":100}]},{"id":264,"animation":[{"tileid":264,"duration":100},{"tileid":265,"duration":100},{"tileid":266,"duration":100},{"tileid":267,"duration":100},{"tileid":268,"duration":100},{"tileid":269,"duration":100},{"tileid":270,"duration":100},{"tileid":271,"duration":100},{"tileid":272,"duration":100},{"tileid":273,"duration":100},{"tileid":274,"duration":100},{"tileid":275,"duration":100},{"tileid":276,"duration":100},{"tileid":277,"duration":100},{"tileid":278,"duration":100},{"tileid":279,"duration":100},{"tileid":280,"duration":100},{"tileid":281,"duration":100},{"tileid":282,"duration":100},{"tileid":283,"duration":100},{"tileid":284,"duration":100},{"tileid":285,"duration":100},{"tileid":286,"duration":100},{"tileid":287,"duration":100}]},{"id":288,"animation":[{"tileid":288,"duration":100},{"tileid":289,"duration":100},{"tileid":290,"duration":100},{"tileid":291,"duration":100},{"tileid":292,"duration":100},{"tileid":293,"duration":100},{"tileid":294,"duration":100},{"tileid":295,"duration":100},{"tileid":296,"duration":100},{"tileid":297,"duration":100},{"tileid":298,"duration":100},{"tileid":299,"duration":100},{"tileid":300,"duration":100},{"tileid":301,"duration":100},{"tileid":302,"duration":100},{"tileid":303,"duration":100},{"tileid":304,"duration":100},{"tileid":305,"duration":100},{"tileid":306,"duration":100},{"tileid":307,"duration":100},{"tileid":308,"duration":100},{"tileid":309,"duration":100},{"tileid":310,"duration":100},{"tileid":311,"duration":100}]},{"id":312,"animation":[{"tileid":312,"duration":100},{"tileid":313,"duration":100},{"tileid":314,"duration":100},{"tileid":315,"duration":100},{"tileid":316,"duration":100},{"tileid":317,"duration":100},{"tileid":318,"duration":100},{"tileid":319,"duration":100},{"tileid":320,"duration":100},{"tileid":321,"duration":100},{"tileid":322,"duration":100},{"tileid":323,"duration":100},{"tileid":324,"duration":100},{"tileid":325,"duration":100},{"tileid":326,"duration":100},{"tileid":327,"duration":100},{"tileid":328,"duration":100},{"tileid":329,"duration":100},{"tileid":330,"duration":100},{"tileid":331,"duration":100},{"tileid":332,"duration":100},{"tileid":333,"duration":100},{"tileid":334,"duration":100},{"tileid":335,"duration":100}]},{"id":336,"animation":[{"tileid":336,"duration":100},{"tileid":337,"duration":100},{"tileid":338,"duration":100},{"tileid":339,"duration":100},{"tileid":340,"duration":100},{"tileid":341,"duration":100},{"tileid":342,"duration":100},{"tileid":343,"duration":100},{"tileid":344,"duration":100},{"tileid":345,"duration":100},{"tileid":346,"duration":100},{"tileid":347,"duration":100},{"tileid":348,"duration":100},{"tileid":349,"duration":100},{"tileid":350,"duration":100},{"tileid":351,"duration":100},{"tileid":352,"duration":100},{"tileid":353,"duration":100},{"tileid":354,"duration":100},{"tileid":355,"duration":100},{"tileid":356,"duration":100},{"tileid":357,"duration":100},{"tileid":358,"duration":100},{"tileid":359,"duration":100}]},{"id":360,"animation":[{"tileid":360,"duration":100},{"tileid":361,"duration":100},{"tileid":362,"duration":100},{"tileid":363,"duration":100},{"tileid":364,"duration":100},{"tileid":365,"duration":100},{"tileid":366,"duration":100},{"tileid":367,"duration":100},{"tileid":368,"duration":100},{"tileid":369,"duration":100},{"tileid":370,"duration":100},{"tileid":371,"duration":100},{"tileid":372,"duration":100},{"tileid":373,"duration":100},{"tileid":374,"duration":100},{"tileid":375,"duration":100},{"tileid":376,"duration":100},{"tileid":377,"duration":100},{"tileid":378,"duration":100},{"tileid":379,"duration":100},{"tileid":380,"duration":100},{"tileid":381,"duration":100},{"tileid":382,"duration":100},{"tileid":383,"duration":100}]},{"id":384,"animation":[{"tileid":384,"duration":100},{"tileid":385,"duration":100},{"tileid":386,"duration":100},{"tileid":387,"duration":100},{"tileid":388,"duration":100},{"tileid":389,"duration":100},{"tileid":390,"duration":100},{"tileid":391,"duration":100},{"tileid":392,"duration":100},{"tileid":393,"duration":100},{"tileid":394,"duration":100},{"tileid":395,"duration":100},{"tileid":396,"duration":100},{"tileid":397,"duration":100},{"tileid":398,"duration":100},{"tileid":399,"duration":100},{"tileid":400,"duration":100},{"tileid":401,"duration":100},{"tileid":402,"duration":100},{"tileid":403,"duration":100},{"tileid":404,"duration":100},{"tileid":405,"duration":100},{"tileid":406,"duration":100},{"tileid":407,"duration":100}]},{"id":408,"animation":[{"tileid":408,"duration":100},{"tileid":409,"duration":100},{"tileid":410,"duration":100},{"tileid":411,"duration":100},{"tileid":412,"duration":100},{"tileid":413,"duration":100},{"tileid":414,"duration":100},{"tileid":415,"duration":100},{"tileid":416,"duration":100},{"tileid":417,"duration":100},{"tileid":418,"duration":100},{"tileid":419,"duration":100},{"tileid":420,"duration":100},{"tileid":421,"duration":100},{"tileid":422,"duration":100},{"tileid":423,"duration":100},{"tileid":424,"duration":100},{"tileid":425,"duration":100},{"tileid":426,"duration":100},{"tileid":427,"duration":100},{"tileid":428,"duration":100},{"tileid":429,"duration":100},{"tileid":430,"duration":100},{"tileid":431,"duration":100}]},{"id":432,"animation":[{"tileid":432,"duration":100},{"tileid":433,"duration":100},{"tileid":434,"duration":100},{"tileid":435,"duration":100},{"tileid":436,"duration":100},{"tileid":437,"duration":100},{"tileid":438,"duration":100},{"tileid":439,"duration":100},{"tileid":440,"duration":100},{"tileid":441,"duration":100},{"tileid":442,"duration":100},{"tileid":443,"duration":100},{"tileid":444,"duration":100},{"tileid":445,"duration":100},{"tileid":446,"duration":100},{"tileid":447,"duration":100},{"tileid":448,"duration":100},{"tileid":449,"duration":100},{"tileid":450,"duration":100},{"tileid":451,"duration":100},{"tileid":452,"duration":100},{"tileid":453,"duration":100},{"tileid":454,"duration":100},{"tileid":455,"duration":100}]},{"id":456,"animation":[{"tileid":456,"duration":100},{"tileid":457,"duration":100},{"tileid":458,"duration":100},{"tileid":459,"duration":100},{"tileid":460,"duration":100},{"tileid":461,"duration":100},{"tileid":462,"duration":100},{"tileid":463,"duration":100},{"tileid":464,"duration":100},{"tileid":465,"duration":100},{"tileid":466,"duration":100},{"tileid":467,"duration":100},{"tileid":468,"duration":100},{"tileid":469,"duration":100},{"tileid":470,"duration":100},{"tileid":471,"duration":100},{"tileid":472,"duration":100},{"tileid":473,"duration":100},{"tileid":474,"duration":100},{"tileid":475,"duration":100},{"tileid":476,"duration":100},{"tileid":477,"duration":100},{"tileid":478,"duration":100},{"tileid":479,"duration":100}]},{"id":480,"animation":[{"tileid":480,"duration":100},{"tileid":481,"duration":100},{"tileid":482,"duration":100},{"tileid":483,"duration":100},{"tileid":484,"duration":100},{"tileid":485,"duration":100},{"tileid":486,"duration":100},{"tileid":487,"duration":100},{"tileid":488,"duration":100},{"tileid":489,"duration":100},{"tileid":490,"duration":100},{"tileid":491,"duration":100},{"tileid":492,"duration":100},{"tileid":493,"duration":100},{"tileid":494,"duration":100},{"tileid":495,"duration":100},{"tileid":496,"duration":100},{"tileid":497,"duration":100},{"tileid":498,"duration":100},{"tileid":499,"duration":100},{"tileid":500,"duration":100},{"tileid":501,"duration":100},{"tileid":502,"duration":100},{"tileid":503,"duration":100}]},{"id":504,"animation":[{"tileid":504,"duration":100},{"tileid":505,"duration":100},{"tileid":506,"duration":100},{"tileid":507,"duration":100},{"tileid":508,"duration":100},{"tileid":509,"duration":100},{"tileid":510,"duration":100},{"tileid":511,"duration":100},{"tileid":512,"duration":100},{"tileid":513,"duration":100},{"tileid":514,"duration":100},{"tileid":515,"duration":100},{"tileid":516,"duration":100},{"tileid":517,"duration":100},{"tileid":518,"duration":100},{"tileid":519,"duration":100},{"tileid":520,"duration":100},{"tileid":521,"duration":100},{"tileid":522,"duration":100},{"tileid":523,"duration":100},{"tileid":524,"duration":100},{"tileid":525,"duration":100},{"tileid":526,"duration":100},{"tileid":527,"duration":100}]},{"id":528,"animation":[{"tileid":528,"duration":100},{"tileid":529,"duration":100},{"tileid":530,"duration":100},{"tileid":531,"duration":100},{"tileid":532,"duration":100},{"tileid":533,"duration":100},{"tileid":534,"duration":100},{"tileid":535,"duration":100},{"tileid":536,"duration":100},{"tileid":537,"duration":100},{"tileid":538,"duration":100},{"tileid":539,"duration":100},{"tileid":540,"duration":100},{"tileid":541,"duration":100},{"tileid":542,"duration":100},{"tileid":543,"duration":100},{"tileid":544,"duration":100},{"tileid":545,"duration":100},{"tileid":546,"duration":100},{"tileid":547,"duration":100},{"tileid":548,"duration":100},{"tileid":549,"duration":100},{"tileid":550,"duration":100},{"tileid":551,"duration":100}]},{"id":552,"animation":[{"tileid":552,"duration":100},{"tileid":553,"duration":100},{"tileid":554,"duration":100},{"tileid":555,"duration":100},{"tileid":556,"duration":100},{"tileid":557,"duration":100},{"tileid":558,"duration":100},{"tileid":559,"duration":100},{"tileid":560,"duration":100},{"tileid":561,"duration":100},{"tileid":562,"duration":100},{"tileid":563,"duration":100},{"tileid":564,"duration":100},{"tileid":565,"duration":100},{"tileid":566,"duration":100},{"tileid":567,"duration":100},{"tileid":568,"duration":100},{"tileid":569,"duration":100},{"tileid":570,"duration":100},{"tileid":571,"duration":100},{"tileid":572,"duration":100},{"tileid":573,"duration":100},{"tileid":574,"duration":100},{"tileid":575,"duration":100}]},{"id":576,"animation":[{"tileid":576,"duration":100},{"tileid":577,"duration":100},{"tileid":578,"duration":100},{"tileid":579,"duration":100},{"tileid":580,"duration":100},{"tileid":581,"duration":100},{"tileid":582,"duration":100},{"tileid":583,"duration":100},{"tileid":584,"duration":100},{"tileid":585,"duration":100},{"tileid":586,"duration":100},{"tileid":587,"duration":100},{"tileid":588,"duration":100},{"tileid":589,"duration":100},{"tileid":590,"duration":100},{"tileid":591,"duration":100},{"tileid":592,"duration":100},{"tileid":593,"duration":100},{"tileid":594,"duration":100},{"tileid":595,"duration":100},{"tileid":596,"duration":100},{"tileid":597,"duration":100},{"tileid":598,"duration":100},{"tileid":599,"duration":100}]},{"id":600,"animation":[{"tileid":600,"duration":100},{"tileid":601,"duration":100},{"tileid":602,"duration":100},{"tileid":603,"duration":100},{"tileid":604,"duration":100},{"tileid":605,"duration":100},{"tileid":606,"duration":100},{"tileid":607,"duration":100},{"tileid":608,"duration":100},{"tileid":609,"duration":100},{"tileid":610,"duration":100},{"tileid":611,"duration":100},{"tileid":612,"duration":100},{"tileid":613,"duration":100},{"tileid":614,"duration":100},{"tileid":615,"duration":100},{"tileid":616,"duration":100},{"tileid":617,"duration":100},{"tileid":618,"duration":100},{"tileid":619,"duration":100},{"tileid":620,"duration":100},{"tileid":621,"duration":100},{"tileid":622,"duration":100},{"tileid":623,"duration":100}]},{"id":624,"animation":[{"tileid":624,"duration":100},{"tileid":625,"duration":100},{"tileid":626,"duration":100},{"tileid":627,"duration":100},{"tileid":628,"duration":100},{"tileid":629,"duration":100},{"tileid":630,"duration":100},{"tileid":631,"duration":100},{"tileid":632,"duration":100},{"tileid":633,"duration":100},{"tileid":634,"duration":100},{"tileid":635,"duration":100},{"tileid":636,"duration":100},{"tileid":637,"duration":100},{"tileid":638,"duration":100},{"tileid":639,"duration":100},{"tileid":640,"duration":100},{"tileid":641,"duration":100},{"tileid":642,"duration":100},{"tileid":643,"duration":100},{"tileid":644,"duration":100},{"tileid":645,"duration":100},{"tileid":646,"duration":100},{"tileid":647,"duration":100}]},{"id":648,"animation":[{"tileid":648,"duration":100},{"tileid":649,"duration":100},{"tileid":650,"duration":100},{"tileid":651,"duration":100},{"tileid":652,"duration":100},{"tileid":653,"duration":100},{"tileid":654,"duration":100},{"tileid":655,"duration":100},{"tileid":656,"duration":100},{"tileid":657,"duration":100},{"tileid":658,"duration":100},{"tileid":659,"duration":100},{"tileid":660,"duration":100},{"tileid":661,"duration":100},{"tileid":662,"duration":100},{"tileid":663,"duration":100},{"tileid":664,"duration":100},{"tileid":665,"duration":100},{"tileid":666,"duration":100},{"tileid":667,"duration":100},{"tileid":668,"duration":100},{"tileid":669,"duration":100},{"tileid":670,"duration":100},{"tileid":671,"duration":100}]},{"id":672,"animation":[{"tileid":672,"duration":100},{"tileid":673,"duration":100},{"tileid":674,"duration":100},{"tileid":675,"duration":100},{"tileid":676,"duration":100},{"tileid":677,"duration":100},{"tileid":678,"duration":100},{"tileid":679,"duration":100},{"tileid":680,"duration":100},{"tileid":681,"duration":100},{"tileid":682,"duration":100},{"tileid":683,"duration":100},{"tileid":684,"duration":100},{"tileid":685,"duration":100},{"tileid":686,"duration":100},{"tileid":687,"duration":100},{"tileid":688,"duration":100},{"tileid":689,"duration":100},{"tileid":690,"duration":100},{"tileid":691,"duration":100},{"tileid":692,"duration":100},{"tileid":693,"duration":100},{"tileid":694,"duration":100},{"tileid":695,"duration":100}]},{"id":696,"animation":[{"tileid":696,"duration":100},{"tileid":697,"duration":100},{"tileid":698,"duration":100},{"tileid":699,"duration":100},{"tileid":700,"duration":100},{"tileid":701,"duration":100},{"tileid":702,"duration":100},{"tileid":703,"duration":100},{"tileid":704,"duration":100},{"tileid":705,"duration":100},{"tileid":706,"duration":100},{"tileid":707,"duration":100},{"tileid":708,"duration":100},{"tileid":709,"duration":100},{"tileid":710,"duration":100},{"tileid":711,"duration":100},{"tileid":712,"duration":100},{"tileid":713,"duration":100},{"tileid":714,"duration":100},{"tileid":715,"duration":100},{"tileid":716,"duration":100},{"tileid":717,"duration":100},{"tileid":718,"duration":100},{"tileid":719,"duration":100}]},{"id":720,"animation":[{"tileid":720,"duration":100},{"tileid":721,"duration":100},{"tileid":722,"duration":100},{"tileid":723,"duration":100},{"tileid":724,"duration":100},{"tileid":725,"duration":100},{"tileid":726,"duration":100},{"tileid":727,"duration":100},{"tileid":728,"duration":100},{"tileid":729,"duration":100},{"tileid":730,"duration":100},{"tileid":731,"duration":100},{"tileid":732,"duration":100},{"tileid":733,"duration":100},{"tileid":734,"duration":100},{"tileid":735,"duration":100},{"tileid":736,"duration":100},{"tileid":737,"duration":100},{"tileid":738,"duration":100},{"tileid":739,"duration":100},{"tileid":740,"duration":100},{"tileid":741,"duration":100},{"tileid":742,"duration":100},{"tileid":743,"duration":100}]},{"id":744,"animation":[{"tileid":744,"duration":100},{"tileid":745,"duration":100},{"tileid":746,"duration":100},{"tileid":747,"duration":100},{"tileid":748,"duration":100},{"tileid":749,"duration":100},{"tileid":750,"duration":100},{"tileid":751,"duration":100},{"tileid":752,"duration":100},{"tileid":753,"duration":100},{"tileid":754,"duration":100},{"tileid":755,"duration":100},{"tileid":756,"duration":100},{"tileid":757,"duration":100},{"tileid":758,"duration":100},{"tileid":759,"duration":100},{"tileid":760,"duration":100},{"tileid":761,"duration":100},{"tileid":762,"duration":100},{"tileid":763,"duration":100},{"tileid":764,"duration":100},{"tileid":765,"duration":100},{"tileid":766,"duration":100},{"tileid":767,"duration":100}]},{"id":768,"animation":[{"tileid":768,"duration":100},{"tileid":769,"duration":100},{"tileid":770,"duration":100},{"tileid":771,"duration":100},{"tileid":772,"duration":100},{"tileid":773,"duration":100},{"tileid":774,"duration":100},{"tileid":775,"duration":100},{"tileid":776,"duration":100},{"tileid":777,"duration":100},{"tileid":778,"duration":100},{"tileid":779,"duration":100},{"tileid":780,"duration":100},{"tileid":781,"duration":100},{"tileid":782,"duration":100},{"tileid":783,"duration":100},{"tileid":784,"duration":100},{"tileid":785,"duration":100},{"tileid":786,"duration":100},{"tileid":787,"duration":100},{"tileid":788,"duration":100},{"tileid":789,"duration":100},{"tileid":790,"duration":100},{"tileid":791,"duration":100}]},{"id":792,"animation":[{"tileid":792,"duration":100},{"tileid":793,"duration":100},{"tileid":794,"duration":100},{"tileid":795,"duration":100},{"tileid":796,"duration":100},{"tileid":797,"duration":100},{"tileid":798,"duration":100},{"tileid":799,"duration":100},{"tileid":800,"duration":100},{"tileid":801,"duration":100},{"tileid":802,"duration":100},{"tileid":803,"duration":100},{"tileid":804,"duration":100},{"tileid":805,"duration":100},{"tileid":806,"duration":100},{"tileid":807,"duration":100},{"tileid":808,"duration":100},{"tileid":809,"duration":100},{"tileid":810,"duration":100},{"tileid":811,"duration":100},{"tileid":812,"duration":100},{"tileid":813,"duration":100},{"tileid":814,"duration":100},{"tileid":815,"duration":100}]},{"id":816,"animation":[{"tileid":816,"duration":100},{"tileid":817,"duration":100},{"tileid":818,"duration":100},{"tileid":819,"duration":100},{"tileid":820,"duration":100},{"tileid":821,"duration":100},{"tileid":822,"duration":100},{"tileid":823,"duration":100},{"tileid":824,"duration":100},{"tileid":825,"duration":100},{"tileid":826,"duration":100},{"tileid":827,"duration":100},{"tileid":828,"duration":100},{"tileid":829,"duration":100},{"tileid":830,"duration":100},{"tileid":831,"duration":100},{"tileid":832,"duration":100},{"tileid":833,"duration":100},{"tileid":834,"duration":100},{"tileid":835,"duration":100},{"tileid":836,"duration":100},{"tileid":837,"duration":100},{"tileid":838,"duration":100},{"tileid":839,"duration":100}]},{"id":840,"animation":[{"tileid":840,"duration":100},{"tileid":841,"duration":100},{"tileid":842,"duration":100},{"tileid":843,"duration":100},{"tileid":844,"duration":100},{"tileid":845,"duration":100},{"tileid":846,"duration":100},{"tileid":847,"duration":100},{"tileid":848,"duration":100},{"tileid":849,"duration":100},{"tileid":850,"duration":100},{"tileid":851,"duration":100},{"tileid":852,"duration":100},{"tileid":853,"duration":100},{"tileid":854,"duration":100},{"tileid":855,"duration":100},{"tileid":856,"duration":100},{"tileid":857,"duration":100},{"tileid":858,"duration":100},{"tileid":859,"duration":100},{"tileid":860,"duration":100},{"tileid":861,"duration":100},{"tileid":862,"duration":100},{"tileid":863,"duration":100}]},{"id":864,"animation":[{"tileid":864,"duration":100},{"tileid":865,"duration":100},{"tileid":866,"duration":100},{"tileid":867,"duration":100},{"tileid":868,"duration":100},{"tileid":869,"duration":100},{"tileid":870,"duration":100},{"tileid":871,"duration":100},{"tileid":872,"duration":100},{"tileid":873,"duration":100},{"tileid":874,"duration":100},{"tileid":875,"duration":100},{"tileid":876,"duration":100},{"tileid":877,"duration":100},{"tileid":878,"duration":100},{"tileid":879,"duration":100},{"tileid":880,"duration":100},{"tileid":881,"duration":100},{"tileid":882,"duration":100},{"tileid":883,"duration":100},{"tileid":884,"duration":100},{"tileid":885,"duration":100},{"tileid":886,"duration":100},{"tileid":887,"duration":100}]},{"id":888,"animation":[{"tileid":888,"duration":100},{"tileid":889,"duration":100},{"tileid":890,"duration":100},{"tileid":891,"duration":100},{"tileid":892,"duration":100},{"tileid":893,"duration":100},{"tileid":894,"duration":100},{"tileid":895,"duration":100},{"tileid":896,"duration":100},{"tileid":897,"duration":100},{"tileid":898,"duration":100},{"tileid":899,"duration":100},{"tileid":900,"duration":100},{"tileid":901,"duration":100},{"tileid":902,"duration":100},{"tileid":903,"duration":100},{"tileid":904,"duration":100},{"tileid":905,"duration":100},{"tileid":906,"duration":100},{"tileid":907,"duration":100},{"tileid":908,"duration":100},{"tileid":909,"duration":100},{"tileid":910,"duration":100},{"tileid":911,"duration":100}]},{"id":912,"animation":[{"tileid":912,"duration":100},{"tileid":913,"duration":100},{"tileid":914,"duration":100},{"tileid":915,"duration":100},{"tileid":916,"duration":100},{"tileid":917,"duration":100},{"tileid":918,"duration":100},{"tileid":919,"duration":100},{"tileid":920,"duration":100},{"tileid":921,"duration":100},{"tileid":922,"duration":100},{"tileid":923,"duration":100},{"tileid":924,"duration":100},{"tileid":925,"duration":100},{"tileid":926,"duration":100},{"tileid":927,"duration":100},{"tileid":928,"duration":100},{"tileid":929,"duration":100},{"tileid":930,"duration":100},{"tileid":931,"duration":100},{"tileid":932,"duration":100},{"tileid":933,"duration":100},{"tileid":934,"duration":100},{"tileid":935,"duration":100}]},{"id":936,"animation":[{"tileid":936,"duration":100},{"tileid":937,"duration":100},{"tileid":938,"duration":100},{"tileid":939,"duration":100},{"tileid":940,"duration":100},{"tileid":941,"duration":100},{"tileid":942,"duration":100},{"tileid":943,"duration":100},{"tileid":944,"duration":100},{"tileid":945,"duration":100},{"tileid":946,"duration":100},{"tileid":947,"duration":100},{"tileid":948,"duration":100},{"tileid":949,"duration":100},{"tileid":950,"duration":100},{"tileid":951,"duration":100},{"tileid":952,"duration":100},{"tileid":953,"duration":100},{"tileid":954,"duration":100},{"tileid":955,"duration":100},{"tileid":956,"duration":100},{"tileid":957,"duration":100},{"tileid":958,"duration":100},{"tileid":959,"duration":100}]},{"id":960,"animation":[{"tileid":960,"duration":100},{"tileid":961,"duration":100},{"tileid":962,"duration":100},{"tileid":963,"duration":100},{"tileid":964,"duration":100},{"tileid":965,"duration":100},{"tileid":966,"duration":100},{"tileid":967,"duration":100},{"tileid":968,"duration":100},{"tileid":969,"duration":100},{"tileid":970,"duration":100},{"tileid":971,"duration":100},{"tileid":972,"duration":100},{"tileid":973,"duration":100},{"tileid":974,"duration":100},{"tileid":975,"duration":100},{"tileid":976,"duration":100},{"tileid":977,"duration":100},{"tileid":978,"duration":100},{"tileid":979,"duration":100},{"tileid":980,"duration":100},{"tileid":981,"duration":100},{"tileid":982,"duration":100},{"tileid":983,"duration":100}]},{"id":984,"animation":[{"tileid":984,"duration":100},{"tileid":985,"duration":100},{"tileid":986,"duration":100},{"tileid":987,"duration":100},{"tileid":988,"duration":100},{"tileid":989,"duration":100},{"tileid":990,"duration":100},{"tileid":991,"duration":100},{"tileid":992,"duration":100},{"tileid":993,"duration":100},{"tileid":994,"duration":100},{"tileid":995,"duration":100},{"tileid":996,"duration":100},{"tileid":997,"duration":100},{"tileid":998,"duration":100},{"tileid":999,"duration":100},{"tileid":1000,"duration":100},{"tileid":1001,"duration":100},{"tileid":1002,"duration":100},{"tileid":1003,"duration":100},{"tileid":1004,"duration":100},{"tileid":1005,"duration":100},{"tileid":1006,"duration":100},{"tileid":1007,"duration":100}]}]},{"firstgid":14502,"name":"gate-waterfalls-02","image":"../../v6/gate/map/tilesets/gate-waterfalls-02.png","imagewidth":1024,"imageheight":1024,"tilewidth":32,"tileheight":32,"columns":32,"tilecount":1024,"margin":0,"spacing":0,"tiles":[{"id":0,"animation":[{"tileid":0,"duration":100},{"tileid":1,"duration":100},{"tileid":2,"duration":100},{"tileid":3,"duration":100},{"tileid":4,"duration":100},{"tileid":5,"duration":100},{"tileid":6,"duration":100},{"tileid":7,"duration":100},{"tileid":8,"duration":100},{"tileid":9,"duration":100},{"tileid":10,"duration":100},{"tileid":11,"duration":100},{"tileid":12,"duration":100},{"tileid":13,"duration":100},{"tileid":14,"duration":100},{"tileid":15,"duration":100},{"tileid":16,"duration":100},{"tileid":17,"duration":100},{"tileid":18,"duration":100},{"tileid":19,"duration":100},{"tileid":20,"duration":100},{"tileid":21,"duration":100},{"tileid":22,"duration":100},{"tileid":23,"duration":100}]},{"id":24,"animation":[{"tileid":24,"duration":100},{"tileid":25,"duration":100},{"tileid":26,"duration":100},{"tileid":27,"duration":100},{"tileid":28,"duration":100},{"tileid":29,"duration":100},{"tileid":30,"duration":100},{"tileid":31,"duration":100},{"tileid":32,"duration":100},{"tileid":33,"duration":100},{"tileid":34,"duration":100},{"tileid":35,"duration":100},{"tileid":36,"duration":100},{"tileid":37,"duration":100},{"tileid":38,"duration":100},{"tileid":39,"duration":100},{"tileid":40,"duration":100},{"tileid":41,"duration":100},{"tileid":42,"duration":100},{"tileid":43,"duration":100},{"tileid":44,"duration":100},{"tileid":45,"duration":100},{"tileid":46,"duration":100},{"tileid":47,"duration":100}]},{"id":48,"animation":[{"tileid":48,"duration":100},{"tileid":49,"duration":100},{"tileid":50,"duration":100},{"tileid":51,"duration":100},{"tileid":52,"duration":100},{"tileid":53,"duration":100},{"tileid":54,"duration":100},{"tileid":55,"duration":100},{"tileid":56,"duration":100},{"tileid":57,"duration":100},{"tileid":58,"duration":100},{"tileid":59,"duration":100},{"tileid":60,"duration":100},{"tileid":61,"duration":100},{"tileid":62,"duration":100},{"tileid":63,"duration":100},{"tileid":64,"duration":100},{"tileid":65,"duration":100},{"tileid":66,"duration":100},{"tileid":67,"duration":100},{"tileid":68,"duration":100},{"tileid":69,"duration":100},{"tileid":70,"duration":100},{"tileid":71,"duration":100}]},{"id":72,"animation":[{"tileid":72,"duration":100},{"tileid":73,"duration":100},{"tileid":74,"duration":100},{"tileid":75,"duration":100},{"tileid":76,"duration":100},{"tileid":77,"duration":100},{"tileid":78,"duration":100},{"tileid":79,"duration":100},{"tileid":80,"duration":100},{"tileid":81,"duration":100},{"tileid":82,"duration":100},{"tileid":83,"duration":100},{"tileid":84,"duration":100},{"tileid":85,"duration":100},{"tileid":86,"duration":100},{"tileid":87,"duration":100},{"tileid":88,"duration":100},{"tileid":89,"duration":100},{"tileid":90,"duration":100},{"tileid":91,"duration":100},{"tileid":92,"duration":100},{"tileid":93,"duration":100},{"tileid":94,"duration":100},{"tileid":95,"duration":100}]},{"id":96,"animation":[{"tileid":96,"duration":100},{"tileid":97,"duration":100},{"tileid":98,"duration":100},{"tileid":99,"duration":100},{"tileid":100,"duration":100},{"tileid":101,"duration":100},{"tileid":102,"duration":100},{"tileid":103,"duration":100},{"tileid":104,"duration":100},{"tileid":105,"duration":100},{"tileid":106,"duration":100},{"tileid":107,"duration":100},{"tileid":108,"duration":100},{"tileid":109,"duration":100},{"tileid":110,"duration":100},{"tileid":111,"duration":100},{"tileid":112,"duration":100},{"tileid":113,"duration":100},{"tileid":114,"duration":100},{"tileid":115,"duration":100},{"tileid":116,"duration":100},{"tileid":117,"duration":100},{"tileid":118,"duration":100},{"tileid":119,"duration":100}]},{"id":120,"animation":[{"tileid":120,"duration":100},{"tileid":121,"duration":100},{"tileid":122,"duration":100},{"tileid":123,"duration":100},{"tileid":124,"duration":100},{"tileid":125,"duration":100},{"tileid":126,"duration":100},{"tileid":127,"duration":100},{"tileid":128,"duration":100},{"tileid":129,"duration":100},{"tileid":130,"duration":100},{"tileid":131,"duration":100},{"tileid":132,"duration":100},{"tileid":133,"duration":100},{"tileid":134,"duration":100},{"tileid":135,"duration":100},{"tileid":136,"duration":100},{"tileid":137,"duration":100},{"tileid":138,"duration":100},{"tileid":139,"duration":100},{"tileid":140,"duration":100},{"tileid":141,"duration":100},{"tileid":142,"duration":100},{"tileid":143,"duration":100}]},{"id":144,"animation":[{"tileid":144,"duration":100},{"tileid":145,"duration":100},{"tileid":146,"duration":100},{"tileid":147,"duration":100},{"tileid":148,"duration":100},{"tileid":149,"duration":100},{"tileid":150,"duration":100},{"tileid":151,"duration":100},{"tileid":152,"duration":100},{"tileid":153,"duration":100},{"tileid":154,"duration":100},{"tileid":155,"duration":100},{"tileid":156,"duration":100},{"tileid":157,"duration":100},{"tileid":158,"duration":100},{"tileid":159,"duration":100},{"tileid":160,"duration":100},{"tileid":161,"duration":100},{"tileid":162,"duration":100},{"tileid":163,"duration":100},{"tileid":164,"duration":100},{"tileid":165,"duration":100},{"tileid":166,"duration":100},{"tileid":167,"duration":100}]},{"id":168,"animation":[{"tileid":168,"duration":100},{"tileid":169,"duration":100},{"tileid":170,"duration":100},{"tileid":171,"duration":100},{"tileid":172,"duration":100},{"tileid":173,"duration":100},{"tileid":174,"duration":100},{"tileid":175,"duration":100},{"tileid":176,"duration":100},{"tileid":177,"duration":100},{"tileid":178,"duration":100},{"tileid":179,"duration":100},{"tileid":180,"duration":100},{"tileid":181,"duration":100},{"tileid":182,"duration":100},{"tileid":183,"duration":100},{"tileid":184,"duration":100},{"tileid":185,"duration":100},{"tileid":186,"duration":100},{"tileid":187,"duration":100},{"tileid":188,"duration":100},{"tileid":189,"duration":100},{"tileid":190,"duration":100},{"tileid":191,"duration":100}]},{"id":192,"animation":[{"tileid":192,"duration":100},{"tileid":193,"duration":100},{"tileid":194,"duration":100},{"tileid":195,"duration":100},{"tileid":196,"duration":100},{"tileid":197,"duration":100},{"tileid":198,"duration":100},{"tileid":199,"duration":100},{"tileid":200,"duration":100},{"tileid":201,"duration":100},{"tileid":202,"duration":100},{"tileid":203,"duration":100},{"tileid":204,"duration":100},{"tileid":205,"duration":100},{"tileid":206,"duration":100},{"tileid":207,"duration":100},{"tileid":208,"duration":100},{"tileid":209,"duration":100},{"tileid":210,"duration":100},{"tileid":211,"duration":100},{"tileid":212,"duration":100},{"tileid":213,"duration":100},{"tileid":214,"duration":100},{"tileid":215,"duration":100}]},{"id":216,"animation":[{"tileid":216,"duration":100},{"tileid":217,"duration":100},{"tileid":218,"duration":100},{"tileid":219,"duration":100},{"tileid":220,"duration":100},{"tileid":221,"duration":100},{"tileid":222,"duration":100},{"tileid":223,"duration":100},{"tileid":224,"duration":100},{"tileid":225,"duration":100},{"tileid":226,"duration":100},{"tileid":227,"duration":100},{"tileid":228,"duration":100},{"tileid":229,"duration":100},{"tileid":230,"duration":100},{"tileid":231,"duration":100},{"tileid":232,"duration":100},{"tileid":233,"duration":100},{"tileid":234,"duration":100},{"tileid":235,"duration":100},{"tileid":236,"duration":100},{"tileid":237,"duration":100},{"tileid":238,"duration":100},{"tileid":239,"duration":100}]},{"id":240,"animation":[{"tileid":240,"duration":100},{"tileid":241,"duration":100},{"tileid":242,"duration":100},{"tileid":243,"duration":100},{"tileid":244,"duration":100},{"tileid":245,"duration":100},{"tileid":246,"duration":100},{"tileid":247,"duration":100},{"tileid":248,"duration":100},{"tileid":249,"duration":100},{"tileid":250,"duration":100},{"tileid":251,"duration":100},{"tileid":252,"duration":100},{"tileid":253,"duration":100},{"tileid":254,"duration":100},{"tileid":255,"duration":100},{"tileid":256,"duration":100},{"tileid":257,"duration":100},{"tileid":258,"duration":100},{"tileid":259,"duration":100},{"tileid":260,"duration":100},{"tileid":261,"duration":100},{"tileid":262,"duration":100},{"tileid":263,"duration":100}]},{"id":264,"animation":[{"tileid":264,"duration":100},{"tileid":265,"duration":100},{"tileid":266,"duration":100},{"tileid":267,"duration":100},{"tileid":268,"duration":100},{"tileid":269,"duration":100},{"tileid":270,"duration":100},{"tileid":271,"duration":100},{"tileid":272,"duration":100},{"tileid":273,"duration":100},{"tileid":274,"duration":100},{"tileid":275,"duration":100},{"tileid":276,"duration":100},{"tileid":277,"duration":100},{"tileid":278,"duration":100},{"tileid":279,"duration":100},{"tileid":280,"duration":100},{"tileid":281,"duration":100},{"tileid":282,"duration":100},{"tileid":283,"duration":100},{"tileid":284,"duration":100},{"tileid":285,"duration":100},{"tileid":286,"duration":100},{"tileid":287,"duration":100}]},{"id":288,"animation":[{"tileid":288,"duration":100},{"tileid":289,"duration":100},{"tileid":290,"duration":100},{"tileid":291,"duration":100},{"tileid":292,"duration":100},{"tileid":293,"duration":100},{"tileid":294,"duration":100},{"tileid":295,"duration":100},{"tileid":296,"duration":100},{"tileid":297,"duration":100},{"tileid":298,"duration":100},{"tileid":299,"duration":100},{"tileid":300,"duration":100},{"tileid":301,"duration":100},{"tileid":302,"duration":100},{"tileid":303,"duration":100},{"tileid":304,"duration":100},{"tileid":305,"duration":100},{"tileid":306,"duration":100},{"tileid":307,"duration":100},{"tileid":308,"duration":100},{"tileid":309,"duration":100},{"tileid":310,"duration":100},{"tileid":311,"duration":100}]},{"id":312,"animation":[{"tileid":312,"duration":100},{"tileid":313,"duration":100},{"tileid":314,"duration":100},{"tileid":315,"duration":100},{"tileid":316,"duration":100},{"tileid":317,"duration":100},{"tileid":318,"duration":100},{"tileid":319,"duration":100},{"tileid":320,"duration":100},{"tileid":321,"duration":100},{"tileid":322,"duration":100},{"tileid":323,"duration":100},{"tileid":324,"duration":100},{"tileid":325,"duration":100},{"tileid":326,"duration":100},{"tileid":327,"duration":100},{"tileid":328,"duration":100},{"tileid":329,"duration":100},{"tileid":330,"duration":100},{"tileid":331,"duration":100},{"tileid":332,"duration":100},{"tileid":333,"duration":100},{"tileid":334,"duration":100},{"tileid":335,"duration":100}]},{"id":336,"animation":[{"tileid":336,"duration":100},{"tileid":337,"duration":100},{"tileid":338,"duration":100},{"tileid":339,"duration":100},{"tileid":340,"duration":100},{"tileid":341,"duration":100},{"tileid":342,"duration":100},{"tileid":343,"duration":100},{"tileid":344,"duration":100},{"tileid":345,"duration":100},{"tileid":346,"duration":100},{"tileid":347,"duration":100},{"tileid":348,"duration":100},{"tileid":349,"duration":100},{"tileid":350,"duration":100},{"tileid":351,"duration":100},{"tileid":352,"duration":100},{"tileid":353,"duration":100},{"tileid":354,"duration":100},{"tileid":355,"duration":100},{"tileid":356,"duration":100},{"tileid":357,"duration":100},{"tileid":358,"duration":100},{"tileid":359,"duration":100}]},{"id":360,"animation":[{"tileid":360,"duration":100},{"tileid":361,"duration":100},{"tileid":362,"duration":100},{"tileid":363,"duration":100},{"tileid":364,"duration":100},{"tileid":365,"duration":100},{"tileid":366,"duration":100},{"tileid":367,"duration":100},{"tileid":368,"duration":100},{"tileid":369,"duration":100},{"tileid":370,"duration":100},{"tileid":371,"duration":100},{"tileid":372,"duration":100},{"tileid":373,"duration":100},{"tileid":374,"duration":100},{"tileid":375,"duration":100},{"tileid":376,"duration":100},{"tileid":377,"duration":100},{"tileid":378,"duration":100},{"tileid":379,"duration":100},{"tileid":380,"duration":100},{"tileid":381,"duration":100},{"tileid":382,"duration":100},{"tileid":383,"duration":100}]},{"id":384,"animation":[{"tileid":384,"duration":100},{"tileid":385,"duration":100},{"tileid":386,"duration":100},{"tileid":387,"duration":100},{"tileid":388,"duration":100},{"tileid":389,"duration":100},{"tileid":390,"duration":100},{"tileid":391,"duration":100},{"tileid":392,"duration":100},{"tileid":393,"duration":100},{"tileid":394,"duration":100},{"tileid":395,"duration":100},{"tileid":396,"duration":100},{"tileid":397,"duration":100},{"tileid":398,"duration":100},{"tileid":399,"duration":100},{"tileid":400,"duration":100},{"tileid":401,"duration":100},{"tileid":402,"duration":100},{"tileid":403,"duration":100},{"tileid":404,"duration":100},{"tileid":405,"duration":100},{"tileid":406,"duration":100},{"tileid":407,"duration":100}]},{"id":408,"animation":[{"tileid":408,"duration":100},{"tileid":409,"duration":100},{"tileid":410,"duration":100},{"tileid":411,"duration":100},{"tileid":412,"duration":100},{"tileid":413,"duration":100},{"tileid":414,"duration":100},{"tileid":415,"duration":100},{"tileid":416,"duration":100},{"tileid":417,"duration":100},{"tileid":418,"duration":100},{"tileid":419,"duration":100},{"tileid":420,"duration":100},{"tileid":421,"duration":100},{"tileid":422,"duration":100},{"tileid":423,"duration":100},{"tileid":424,"duration":100},{"tileid":425,"duration":100},{"tileid":426,"duration":100},{"tileid":427,"duration":100},{"tileid":428,"duration":100},{"tileid":429,"duration":100},{"tileid":430,"duration":100},{"tileid":431,"duration":100}]},{"id":432,"animation":[{"tileid":432,"duration":100},{"tileid":433,"duration":100},{"tileid":434,"duration":100},{"tileid":435,"duration":100},{"tileid":436,"duration":100},{"tileid":437,"duration":100},{"tileid":438,"duration":100},{"tileid":439,"duration":100},{"tileid":440,"duration":100},{"tileid":441,"duration":100},{"tileid":442,"duration":100},{"tileid":443,"duration":100},{"tileid":444,"duration":100},{"tileid":445,"duration":100},{"tileid":446,"duration":100},{"tileid":447,"duration":100},{"tileid":448,"duration":100},{"tileid":449,"duration":100},{"tileid":450,"duration":100},{"tileid":451,"duration":100},{"tileid":452,"duration":100},{"tileid":453,"duration":100},{"tileid":454,"duration":100},{"tileid":455,"duration":100}]},{"id":456,"animation":[{"tileid":456,"duration":100},{"tileid":457,"duration":100},{"tileid":458,"duration":100},{"tileid":459,"duration":100},{"tileid":460,"duration":100},{"tileid":461,"duration":100},{"tileid":462,"duration":100},{"tileid":463,"duration":100},{"tileid":464,"duration":100},{"tileid":465,"duration":100},{"tileid":466,"duration":100},{"tileid":467,"duration":100},{"tileid":468,"duration":100},{"tileid":469,"duration":100},{"tileid":470,"duration":100},{"tileid":471,"duration":100},{"tileid":472,"duration":100},{"tileid":473,"duration":100},{"tileid":474,"duration":100},{"tileid":475,"duration":100},{"tileid":476,"duration":100},{"tileid":477,"duration":100},{"tileid":478,"duration":100},{"tileid":479,"duration":100}]},{"id":480,"animation":[{"tileid":480,"duration":100},{"tileid":481,"duration":100},{"tileid":482,"duration":100},{"tileid":483,"duration":100},{"tileid":484,"duration":100},{"tileid":485,"duration":100},{"tileid":486,"duration":100},{"tileid":487,"duration":100},{"tileid":488,"duration":100},{"tileid":489,"duration":100},{"tileid":490,"duration":100},{"tileid":491,"duration":100},{"tileid":492,"duration":100},{"tileid":493,"duration":100},{"tileid":494,"duration":100},{"tileid":495,"duration":100},{"tileid":496,"duration":100},{"tileid":497,"duration":100},{"tileid":498,"duration":100},{"tileid":499,"duration":100},{"tileid":500,"duration":100},{"tileid":501,"duration":100},{"tileid":502,"duration":100},{"tileid":503,"duration":100}]},{"id":504,"animation":[{"tileid":504,"duration":100},{"tileid":505,"duration":100},{"tileid":506,"duration":100},{"tileid":507,"duration":100},{"tileid":508,"duration":100},{"tileid":509,"duration":100},{"tileid":510,"duration":100},{"tileid":511,"duration":100},{"tileid":512,"duration":100},{"tileid":513,"duration":100},{"tileid":514,"duration":100},{"tileid":515,"duration":100},{"tileid":516,"duration":100},{"tileid":517,"duration":100},{"tileid":518,"duration":100},{"tileid":519,"duration":100},{"tileid":520,"duration":100},{"tileid":521,"duration":100},{"tileid":522,"duration":100},{"tileid":523,"duration":100},{"tileid":524,"duration":100},{"tileid":525,"duration":100},{"tileid":526,"duration":100},{"tileid":527,"duration":100}]},{"id":528,"animation":[{"tileid":528,"duration":100},{"tileid":529,"duration":100},{"tileid":530,"duration":100},{"tileid":531,"duration":100},{"tileid":532,"duration":100},{"tileid":533,"duration":100},{"tileid":534,"duration":100},{"tileid":535,"duration":100},{"tileid":536,"duration":100},{"tileid":537,"duration":100},{"tileid":538,"duration":100},{"tileid":539,"duration":100},{"tileid":540,"duration":100},{"tileid":541,"duration":100},{"tileid":542,"duration":100},{"tileid":543,"duration":100},{"tileid":544,"duration":100},{"tileid":545,"duration":100},{"tileid":546,"duration":100},{"tileid":547,"duration":100},{"tileid":548,"duration":100},{"tileid":549,"duration":100},{"tileid":550,"duration":100},{"tileid":551,"duration":100}]},{"id":552,"animation":[{"tileid":552,"duration":100},{"tileid":553,"duration":100},{"tileid":554,"duration":100},{"tileid":555,"duration":100},{"tileid":556,"duration":100},{"tileid":557,"duration":100},{"tileid":558,"duration":100},{"tileid":559,"duration":100},{"tileid":560,"duration":100},{"tileid":561,"duration":100},{"tileid":562,"duration":100},{"tileid":563,"duration":100},{"tileid":564,"duration":100},{"tileid":565,"duration":100},{"tileid":566,"duration":100},{"tileid":567,"duration":100},{"tileid":568,"duration":100},{"tileid":569,"duration":100},{"tileid":570,"duration":100},{"tileid":571,"duration":100},{"tileid":572,"duration":100},{"tileid":573,"duration":100},{"tileid":574,"duration":100},{"tileid":575,"duration":100}]},{"id":576,"animation":[{"tileid":576,"duration":100},{"tileid":577,"duration":100},{"tileid":578,"duration":100},{"tileid":579,"duration":100},{"tileid":580,"duration":100},{"tileid":581,"duration":100},{"tileid":582,"duration":100},{"tileid":583,"duration":100},{"tileid":584,"duration":100},{"tileid":585,"duration":100},{"tileid":586,"duration":100},{"tileid":587,"duration":100},{"tileid":588,"duration":100},{"tileid":589,"duration":100},{"tileid":590,"duration":100},{"tileid":591,"duration":100},{"tileid":592,"duration":100},{"tileid":593,"duration":100},{"tileid":594,"duration":100},{"tileid":595,"duration":100},{"tileid":596,"duration":100},{"tileid":597,"duration":100},{"tileid":598,"duration":100},{"tileid":599,"duration":100}]},{"id":600,"animation":[{"tileid":600,"duration":100},{"tileid":601,"duration":100},{"tileid":602,"duration":100},{"tileid":603,"duration":100},{"tileid":604,"duration":100},{"tileid":605,"duration":100},{"tileid":606,"duration":100},{"tileid":607,"duration":100},{"tileid":608,"duration":100},{"tileid":609,"duration":100},{"tileid":610,"duration":100},{"tileid":611,"duration":100},{"tileid":612,"duration":100},{"tileid":613,"duration":100},{"tileid":614,"duration":100},{"tileid":615,"duration":100},{"tileid":616,"duration":100},{"tileid":617,"duration":100},{"tileid":618,"duration":100},{"tileid":619,"duration":100},{"tileid":620,"duration":100},{"tileid":621,"duration":100},{"tileid":622,"duration":100},{"tileid":623,"duration":100}]},{"id":624,"animation":[{"tileid":624,"duration":100},{"tileid":625,"duration":100},{"tileid":626,"duration":100},{"tileid":627,"duration":100},{"tileid":628,"duration":100},{"tileid":629,"duration":100},{"tileid":630,"duration":100},{"tileid":631,"duration":100},{"tileid":632,"duration":100},{"tileid":633,"duration":100},{"tileid":634,"duration":100},{"tileid":635,"duration":100},{"tileid":636,"duration":100},{"tileid":637,"duration":100},{"tileid":638,"duration":100},{"tileid":639,"duration":100},{"tileid":640,"duration":100},{"tileid":641,"duration":100},{"tileid":642,"duration":100},{"tileid":643,"duration":100},{"tileid":644,"duration":100},{"tileid":645,"duration":100},{"tileid":646,"duration":100},{"tileid":647,"duration":100}]},{"id":648,"animation":[{"tileid":648,"duration":100},{"tileid":649,"duration":100},{"tileid":650,"duration":100},{"tileid":651,"duration":100},{"tileid":652,"duration":100},{"tileid":653,"duration":100},{"tileid":654,"duration":100},{"tileid":655,"duration":100},{"tileid":656,"duration":100},{"tileid":657,"duration":100},{"tileid":658,"duration":100},{"tileid":659,"duration":100},{"tileid":660,"duration":100},{"tileid":661,"duration":100},{"tileid":662,"duration":100},{"tileid":663,"duration":100},{"tileid":664,"duration":100},{"tileid":665,"duration":100},{"tileid":666,"duration":100},{"tileid":667,"duration":100},{"tileid":668,"duration":100},{"tileid":669,"duration":100},{"tileid":670,"duration":100},{"tileid":671,"duration":100}]},{"id":672,"animation":[{"tileid":672,"duration":100},{"tileid":673,"duration":100},{"tileid":674,"duration":100},{"tileid":675,"duration":100},{"tileid":676,"duration":100},{"tileid":677,"duration":100},{"tileid":678,"duration":100},{"tileid":679,"duration":100},{"tileid":680,"duration":100},{"tileid":681,"duration":100},{"tileid":682,"duration":100},{"tileid":683,"duration":100},{"tileid":684,"duration":100},{"tileid":685,"duration":100},{"tileid":686,"duration":100},{"tileid":687,"duration":100},{"tileid":688,"duration":100},{"tileid":689,"duration":100},{"tileid":690,"duration":100},{"tileid":691,"duration":100},{"tileid":692,"duration":100},{"tileid":693,"duration":100},{"tileid":694,"duration":100},{"tileid":695,"duration":100}]},{"id":696,"animation":[{"tileid":696,"duration":100},{"tileid":697,"duration":100},{"tileid":698,"duration":100},{"tileid":699,"duration":100},{"tileid":700,"duration":100},{"tileid":701,"duration":100},{"tileid":702,"duration":100},{"tileid":703,"duration":100},{"tileid":704,"duration":100},{"tileid":705,"duration":100},{"tileid":706,"duration":100},{"tileid":707,"duration":100},{"tileid":708,"duration":100},{"tileid":709,"duration":100},{"tileid":710,"duration":100},{"tileid":711,"duration":100},{"tileid":712,"duration":100},{"tileid":713,"duration":100},{"tileid":714,"duration":100},{"tileid":715,"duration":100},{"tileid":716,"duration":100},{"tileid":717,"duration":100},{"tileid":718,"duration":100},{"tileid":719,"duration":100}]},{"id":720,"animation":[{"tileid":720,"duration":100},{"tileid":721,"duration":100},{"tileid":722,"duration":100},{"tileid":723,"duration":100},{"tileid":724,"duration":100},{"tileid":725,"duration":100},{"tileid":726,"duration":100},{"tileid":727,"duration":100},{"tileid":728,"duration":100},{"tileid":729,"duration":100},{"tileid":730,"duration":100},{"tileid":731,"duration":100},{"tileid":732,"duration":100},{"tileid":733,"duration":100},{"tileid":734,"duration":100},{"tileid":735,"duration":100},{"tileid":736,"duration":100},{"tileid":737,"duration":100},{"tileid":738,"duration":100},{"tileid":739,"duration":100},{"tileid":740,"duration":100},{"tileid":741,"duration":100},{"tileid":742,"duration":100},{"tileid":743,"duration":100}]},{"id":744,"animation":[{"tileid":744,"duration":100},{"tileid":745,"duration":100},{"tileid":746,"duration":100},{"tileid":747,"duration":100},{"tileid":748,"duration":100},{"tileid":749,"duration":100},{"tileid":750,"duration":100},{"tileid":751,"duration":100},{"tileid":752,"duration":100},{"tileid":753,"duration":100},{"tileid":754,"duration":100},{"tileid":755,"duration":100},{"tileid":756,"duration":100},{"tileid":757,"duration":100},{"tileid":758,"duration":100},{"tileid":759,"duration":100},{"tileid":760,"duration":100},{"tileid":761,"duration":100},{"tileid":762,"duration":100},{"tileid":763,"duration":100},{"tileid":764,"duration":100},{"tileid":765,"duration":100},{"tileid":766,"duration":100},{"tileid":767,"duration":100}]},{"id":768,"animation":[{"tileid":768,"duration":100},{"tileid":769,"duration":100},{"tileid":770,"duration":100},{"tileid":771,"duration":100},{"tileid":772,"duration":100},{"tileid":773,"duration":100},{"tileid":774,"duration":100},{"tileid":775,"duration":100},{"tileid":776,"duration":100},{"tileid":777,"duration":100},{"tileid":778,"duration":100},{"tileid":779,"duration":100},{"tileid":780,"duration":100},{"tileid":781,"duration":100},{"tileid":782,"duration":100},{"tileid":783,"duration":100},{"tileid":784,"duration":100},{"tileid":785,"duration":100},{"tileid":786,"duration":100},{"tileid":787,"duration":100},{"tileid":788,"duration":100},{"tileid":789,"duration":100},{"tileid":790,"duration":100},{"tileid":791,"duration":100}]},{"id":792,"animation":[{"tileid":792,"duration":100},{"tileid":793,"duration":100},{"tileid":794,"duration":100},{"tileid":795,"duration":100},{"tileid":796,"duration":100},{"tileid":797,"duration":100},{"tileid":798,"duration":100},{"tileid":799,"duration":100},{"tileid":800,"duration":100},{"tileid":801,"duration":100},{"tileid":802,"duration":100},{"tileid":803,"duration":100},{"tileid":804,"duration":100},{"tileid":805,"duration":100},{"tileid":806,"duration":100},{"tileid":807,"duration":100},{"tileid":808,"duration":100},{"tileid":809,"duration":100},{"tileid":810,"duration":100},{"tileid":811,"duration":100},{"tileid":812,"duration":100},{"tileid":813,"duration":100},{"tileid":814,"duration":100},{"tileid":815,"duration":100}]},{"id":816,"animation":[{"tileid":816,"duration":100},{"tileid":817,"duration":100},{"tileid":818,"duration":100},{"tileid":819,"duration":100},{"tileid":820,"duration":100},{"tileid":821,"duration":100},{"tileid":822,"duration":100},{"tileid":823,"duration":100},{"tileid":824,"duration":100},{"tileid":825,"duration":100},{"tileid":826,"duration":100},{"tileid":827,"duration":100},{"tileid":828,"duration":100},{"tileid":829,"duration":100},{"tileid":830,"duration":100},{"tileid":831,"duration":100},{"tileid":832,"duration":100},{"tileid":833,"duration":100},{"tileid":834,"duration":100},{"tileid":835,"duration":100},{"tileid":836,"duration":100},{"tileid":837,"duration":100},{"tileid":838,"duration":100},{"tileid":839,"duration":100}]},{"id":840,"animation":[{"tileid":840,"duration":100},{"tileid":841,"duration":100},{"tileid":842,"duration":100},{"tileid":843,"duration":100},{"tileid":844,"duration":100},{"tileid":845,"duration":100},{"tileid":846,"duration":100},{"tileid":847,"duration":100},{"tileid":848,"duration":100},{"tileid":849,"duration":100},{"tileid":850,"duration":100},{"tileid":851,"duration":100},{"tileid":852,"duration":100},{"tileid":853,"duration":100},{"tileid":854,"duration":100},{"tileid":855,"duration":100},{"tileid":856,"duration":100},{"tileid":857,"duration":100},{"tileid":858,"duration":100},{"tileid":859,"duration":100},{"tileid":860,"duration":100},{"tileid":861,"duration":100},{"tileid":862,"duration":100},{"tileid":863,"duration":100}]},{"id":864,"animation":[{"tileid":864,"duration":100},{"tileid":865,"duration":100},{"tileid":866,"duration":100},{"tileid":867,"duration":100},{"tileid":868,"duration":100},{"tileid":869,"duration":100},{"tileid":870,"duration":100},{"tileid":871,"duration":100},{"tileid":872,"duration":100},{"tileid":873,"duration":100},{"tileid":874,"duration":100},{"tileid":875,"duration":100},{"tileid":876,"duration":100},{"tileid":877,"duration":100},{"tileid":878,"duration":100},{"tileid":879,"duration":100},{"tileid":880,"duration":100},{"tileid":881,"duration":100},{"tileid":882,"duration":100},{"tileid":883,"duration":100},{"tileid":884,"duration":100},{"tileid":885,"duration":100},{"tileid":886,"duration":100},{"tileid":887,"duration":100}]},{"id":888,"animation":[{"tileid":888,"duration":100},{"tileid":889,"duration":100},{"tileid":890,"duration":100},{"tileid":891,"duration":100},{"tileid":892,"duration":100},{"tileid":893,"duration":100},{"tileid":894,"duration":100},{"tileid":895,"duration":100},{"tileid":896,"duration":100},{"tileid":897,"duration":100},{"tileid":898,"duration":100},{"tileid":899,"duration":100},{"tileid":900,"duration":100},{"tileid":901,"duration":100},{"tileid":902,"duration":100},{"tileid":903,"duration":100},{"tileid":904,"duration":100},{"tileid":905,"duration":100},{"tileid":906,"duration":100},{"tileid":907,"duration":100},{"tileid":908,"duration":100},{"tileid":909,"duration":100},{"tileid":910,"duration":100},{"tileid":911,"duration":100}]},{"id":912,"animation":[{"tileid":912,"duration":100},{"tileid":913,"duration":100},{"tileid":914,"duration":100},{"tileid":915,"duration":100},{"tileid":916,"duration":100},{"tileid":917,"duration":100},{"tileid":918,"duration":100},{"tileid":919,"duration":100},{"tileid":920,"duration":100},{"tileid":921,"duration":100},{"tileid":922,"duration":100},{"tileid":923,"duration":100},{"tileid":924,"duration":100},{"tileid":925,"duration":100},{"tileid":926,"duration":100},{"tileid":927,"duration":100},{"tileid":928,"duration":100},{"tileid":929,"duration":100},{"tileid":930,"duration":100},{"tileid":931,"duration":100},{"tileid":932,"duration":100},{"tileid":933,"duration":100},{"tileid":934,"duration":100},{"tileid":935,"duration":100}]},{"id":936,"animation":[{"tileid":936,"duration":100},{"tileid":937,"duration":100},{"tileid":938,"duration":100},{"tileid":939,"duration":100},{"tileid":940,"duration":100},{"tileid":941,"duration":100},{"tileid":942,"duration":100},{"tileid":943,"duration":100},{"tileid":944,"duration":100},{"tileid":945,"duration":100},{"tileid":946,"duration":100},{"tileid":947,"duration":100},{"tileid":948,"duration":100},{"tileid":949,"duration":100},{"tileid":950,"duration":100},{"tileid":951,"duration":100},{"tileid":952,"duration":100},{"tileid":953,"duration":100},{"tileid":954,"duration":100},{"tileid":955,"duration":100},{"tileid":956,"duration":100},{"tileid":957,"duration":100},{"tileid":958,"duration":100},{"tileid":959,"duration":100}]},{"id":960,"animation":[{"tileid":960,"duration":100},{"tileid":961,"duration":100},{"tileid":962,"duration":100},{"tileid":963,"duration":100},{"tileid":964,"duration":100},{"tileid":965,"duration":100},{"tileid":966,"duration":100},{"tileid":967,"duration":100},{"tileid":968,"duration":100},{"tileid":969,"duration":100},{"tileid":970,"duration":100},{"tileid":971,"duration":100},{"tileid":972,"duration":100},{"tileid":973,"duration":100},{"tileid":974,"duration":100},{"tileid":975,"duration":100},{"tileid":976,"duration":100},{"tileid":977,"duration":100},{"tileid":978,"duration":100},{"tileid":979,"duration":100},{"tileid":980,"duration":100},{"tileid":981,"duration":100},{"tileid":982,"duration":100},{"tileid":983,"duration":100}]},{"id":984,"animation":[{"tileid":984,"duration":100},{"tileid":985,"duration":100},{"tileid":986,"duration":100},{"tileid":987,"duration":100},{"tileid":988,"duration":100},{"tileid":989,"duration":100},{"tileid":990,"duration":100},{"tileid":991,"duration":100},{"tileid":992,"duration":100},{"tileid":993,"duration":100},{"tileid":994,"duration":100},{"tileid":995,"duration":100},{"tileid":996,"duration":100},{"tileid":997,"duration":100},{"tileid":998,"duration":100},{"tileid":999,"duration":100},{"tileid":1000,"duration":100},{"tileid":1001,"duration":100},{"tileid":1002,"duration":100},{"tileid":1003,"duration":100},{"tileid":1004,"duration":100},{"tileid":1005,"duration":100},{"tileid":1006,"duration":100},{"tileid":1007,"duration":100}]}]},{"firstgid":15526,"name":"gate-waterfalls-03","image":"../../v6/gate/map/tilesets/gate-waterfalls-03.png","imagewidth":1024,"imageheight":1024,"tilewidth":32,"tileheight":32,"columns":32,"tilecount":1024,"margin":0,"spacing":0,"tiles":[{"id":0,"animation":[{"tileid":0,"duration":100},{"tileid":1,"duration":100},{"tileid":2,"duration":100},{"tileid":3,"duration":100},{"tileid":4,"duration":100},{"tileid":5,"duration":100},{"tileid":6,"duration":100},{"tileid":7,"duration":100},{"tileid":8,"duration":100},{"tileid":9,"duration":100},{"tileid":10,"duration":100},{"tileid":11,"duration":100},{"tileid":12,"duration":100},{"tileid":13,"duration":100},{"tileid":14,"duration":100},{"tileid":15,"duration":100},{"tileid":16,"duration":100},{"tileid":17,"duration":100},{"tileid":18,"duration":100},{"tileid":19,"duration":100},{"tileid":20,"duration":100},{"tileid":21,"duration":100},{"tileid":22,"duration":100},{"tileid":23,"duration":100}]},{"id":24,"animation":[{"tileid":24,"duration":100},{"tileid":25,"duration":100},{"tileid":26,"duration":100},{"tileid":27,"duration":100},{"tileid":28,"duration":100},{"tileid":29,"duration":100},{"tileid":30,"duration":100},{"tileid":31,"duration":100},{"tileid":32,"duration":100},{"tileid":33,"duration":100},{"tileid":34,"duration":100},{"tileid":35,"duration":100},{"tileid":36,"duration":100},{"tileid":37,"duration":100},{"tileid":38,"duration":100},{"tileid":39,"duration":100},{"tileid":40,"duration":100},{"tileid":41,"duration":100},{"tileid":42,"duration":100},{"tileid":43,"duration":100},{"tileid":44,"duration":100},{"tileid":45,"duration":100},{"tileid":46,"duration":100},{"tileid":47,"duration":100}]},{"id":48,"animation":[{"tileid":48,"duration":100},{"tileid":49,"duration":100},{"tileid":50,"duration":100},{"tileid":51,"duration":100},{"tileid":52,"duration":100},{"tileid":53,"duration":100},{"tileid":54,"duration":100},{"tileid":55,"duration":100},{"tileid":56,"duration":100},{"tileid":57,"duration":100},{"tileid":58,"duration":100},{"tileid":59,"duration":100},{"tileid":60,"duration":100},{"tileid":61,"duration":100},{"tileid":62,"duration":100},{"tileid":63,"duration":100},{"tileid":64,"duration":100},{"tileid":65,"duration":100},{"tileid":66,"duration":100},{"tileid":67,"duration":100},{"tileid":68,"duration":100},{"tileid":69,"duration":100},{"tileid":70,"duration":100},{"tileid":71,"duration":100}]},{"id":72,"animation":[{"tileid":72,"duration":100},{"tileid":73,"duration":100},{"tileid":74,"duration":100},{"tileid":75,"duration":100},{"tileid":76,"duration":100},{"tileid":77,"duration":100},{"tileid":78,"duration":100},{"tileid":79,"duration":100},{"tileid":80,"duration":100},{"tileid":81,"duration":100},{"tileid":82,"duration":100},{"tileid":83,"duration":100},{"tileid":84,"duration":100},{"tileid":85,"duration":100},{"tileid":86,"duration":100},{"tileid":87,"duration":100},{"tileid":88,"duration":100},{"tileid":89,"duration":100},{"tileid":90,"duration":100},{"tileid":91,"duration":100},{"tileid":92,"duration":100},{"tileid":93,"duration":100},{"tileid":94,"duration":100},{"tileid":95,"duration":100}]},{"id":96,"animation":[{"tileid":96,"duration":100},{"tileid":97,"duration":100},{"tileid":98,"duration":100},{"tileid":99,"duration":100},{"tileid":100,"duration":100},{"tileid":101,"duration":100},{"tileid":102,"duration":100},{"tileid":103,"duration":100},{"tileid":104,"duration":100},{"tileid":105,"duration":100},{"tileid":106,"duration":100},{"tileid":107,"duration":100},{"tileid":108,"duration":100},{"tileid":109,"duration":100},{"tileid":110,"duration":100},{"tileid":111,"duration":100},{"tileid":112,"duration":100},{"tileid":113,"duration":100},{"tileid":114,"duration":100},{"tileid":115,"duration":100},{"tileid":116,"duration":100},{"tileid":117,"duration":100},{"tileid":118,"duration":100},{"tileid":119,"duration":100}]},{"id":120,"animation":[{"tileid":120,"duration":100},{"tileid":121,"duration":100},{"tileid":122,"duration":100},{"tileid":123,"duration":100},{"tileid":124,"duration":100},{"tileid":125,"duration":100},{"tileid":126,"duration":100},{"tileid":127,"duration":100},{"tileid":128,"duration":100},{"tileid":129,"duration":100},{"tileid":130,"duration":100},{"tileid":131,"duration":100},{"tileid":132,"duration":100},{"tileid":133,"duration":100},{"tileid":134,"duration":100},{"tileid":135,"duration":100},{"tileid":136,"duration":100},{"tileid":137,"duration":100},{"tileid":138,"duration":100},{"tileid":139,"duration":100},{"tileid":140,"duration":100},{"tileid":141,"duration":100},{"tileid":142,"duration":100},{"tileid":143,"duration":100}]},{"id":144,"animation":[{"tileid":144,"duration":100},{"tileid":145,"duration":100},{"tileid":146,"duration":100},{"tileid":147,"duration":100},{"tileid":148,"duration":100},{"tileid":149,"duration":100},{"tileid":150,"duration":100},{"tileid":151,"duration":100},{"tileid":152,"duration":100},{"tileid":153,"duration":100},{"tileid":154,"duration":100},{"tileid":155,"duration":100},{"tileid":156,"duration":100},{"tileid":157,"duration":100},{"tileid":158,"duration":100},{"tileid":159,"duration":100},{"tileid":160,"duration":100},{"tileid":161,"duration":100},{"tileid":162,"duration":100},{"tileid":163,"duration":100},{"tileid":164,"duration":100},{"tileid":165,"duration":100},{"tileid":166,"duration":100},{"tileid":167,"duration":100}]},{"id":168,"animation":[{"tileid":168,"duration":100},{"tileid":169,"duration":100},{"tileid":170,"duration":100},{"tileid":171,"duration":100},{"tileid":172,"duration":100},{"tileid":173,"duration":100},{"tileid":174,"duration":100},{"tileid":175,"duration":100},{"tileid":176,"duration":100},{"tileid":177,"duration":100},{"tileid":178,"duration":100},{"tileid":179,"duration":100},{"tileid":180,"duration":100},{"tileid":181,"duration":100},{"tileid":182,"duration":100},{"tileid":183,"duration":100},{"tileid":184,"duration":100},{"tileid":185,"duration":100},{"tileid":186,"duration":100},{"tileid":187,"duration":100},{"tileid":188,"duration":100},{"tileid":189,"duration":100},{"tileid":190,"duration":100},{"tileid":191,"duration":100}]},{"id":192,"animation":[{"tileid":192,"duration":100},{"tileid":193,"duration":100},{"tileid":194,"duration":100},{"tileid":195,"duration":100},{"tileid":196,"duration":100},{"tileid":197,"duration":100},{"tileid":198,"duration":100},{"tileid":199,"duration":100},{"tileid":200,"duration":100},{"tileid":201,"duration":100},{"tileid":202,"duration":100},{"tileid":203,"duration":100},{"tileid":204,"duration":100},{"tileid":205,"duration":100},{"tileid":206,"duration":100},{"tileid":207,"duration":100},{"tileid":208,"duration":100},{"tileid":209,"duration":100},{"tileid":210,"duration":100},{"tileid":211,"duration":100},{"tileid":212,"duration":100},{"tileid":213,"duration":100},{"tileid":214,"duration":100},{"tileid":215,"duration":100}]},{"id":216,"animation":[{"tileid":216,"duration":100},{"tileid":217,"duration":100},{"tileid":218,"duration":100},{"tileid":219,"duration":100},{"tileid":220,"duration":100},{"tileid":221,"duration":100},{"tileid":222,"duration":100},{"tileid":223,"duration":100},{"tileid":224,"duration":100},{"tileid":225,"duration":100},{"tileid":226,"duration":100},{"tileid":227,"duration":100},{"tileid":228,"duration":100},{"tileid":229,"duration":100},{"tileid":230,"duration":100},{"tileid":231,"duration":100},{"tileid":232,"duration":100},{"tileid":233,"duration":100},{"tileid":234,"duration":100},{"tileid":235,"duration":100},{"tileid":236,"duration":100},{"tileid":237,"duration":100},{"tileid":238,"duration":100},{"tileid":239,"duration":100}]},{"id":240,"animation":[{"tileid":240,"duration":100},{"tileid":241,"duration":100},{"tileid":242,"duration":100},{"tileid":243,"duration":100},{"tileid":244,"duration":100},{"tileid":245,"duration":100},{"tileid":246,"duration":100},{"tileid":247,"duration":100},{"tileid":248,"duration":100},{"tileid":249,"duration":100},{"tileid":250,"duration":100},{"tileid":251,"duration":100},{"tileid":252,"duration":100},{"tileid":253,"duration":100},{"tileid":254,"duration":100},{"tileid":255,"duration":100},{"tileid":256,"duration":100},{"tileid":257,"duration":100},{"tileid":258,"duration":100},{"tileid":259,"duration":100},{"tileid":260,"duration":100},{"tileid":261,"duration":100},{"tileid":262,"duration":100},{"tileid":263,"duration":100}]},{"id":264,"animation":[{"tileid":264,"duration":100},{"tileid":265,"duration":100},{"tileid":266,"duration":100},{"tileid":267,"duration":100},{"tileid":268,"duration":100},{"tileid":269,"duration":100},{"tileid":270,"duration":100},{"tileid":271,"duration":100},{"tileid":272,"duration":100},{"tileid":273,"duration":100},{"tileid":274,"duration":100},{"tileid":275,"duration":100},{"tileid":276,"duration":100},{"tileid":277,"duration":100},{"tileid":278,"duration":100},{"tileid":279,"duration":100},{"tileid":280,"duration":100},{"tileid":281,"duration":100},{"tileid":282,"duration":100},{"tileid":283,"duration":100},{"tileid":284,"duration":100},{"tileid":285,"duration":100},{"tileid":286,"duration":100},{"tileid":287,"duration":100}]},{"id":288,"animation":[{"tileid":288,"duration":100},{"tileid":289,"duration":100},{"tileid":290,"duration":100},{"tileid":291,"duration":100},{"tileid":292,"duration":100},{"tileid":293,"duration":100},{"tileid":294,"duration":100},{"tileid":295,"duration":100},{"tileid":296,"duration":100},{"tileid":297,"duration":100},{"tileid":298,"duration":100},{"tileid":299,"duration":100},{"tileid":300,"duration":100},{"tileid":301,"duration":100},{"tileid":302,"duration":100},{"tileid":303,"duration":100},{"tileid":304,"duration":100},{"tileid":305,"duration":100},{"tileid":306,"duration":100},{"tileid":307,"duration":100},{"tileid":308,"duration":100},{"tileid":309,"duration":100},{"tileid":310,"duration":100},{"tileid":311,"duration":100}]},{"id":312,"animation":[{"tileid":312,"duration":100},{"tileid":313,"duration":100},{"tileid":314,"duration":100},{"tileid":315,"duration":100},{"tileid":316,"duration":100},{"tileid":317,"duration":100},{"tileid":318,"duration":100},{"tileid":319,"duration":100},{"tileid":320,"duration":100},{"tileid":321,"duration":100},{"tileid":322,"duration":100},{"tileid":323,"duration":100},{"tileid":324,"duration":100},{"tileid":325,"duration":100},{"tileid":326,"duration":100},{"tileid":327,"duration":100},{"tileid":328,"duration":100},{"tileid":329,"duration":100},{"tileid":330,"duration":100},{"tileid":331,"duration":100},{"tileid":332,"duration":100},{"tileid":333,"duration":100},{"tileid":334,"duration":100},{"tileid":335,"duration":100}]},{"id":336,"animation":[{"tileid":336,"duration":100},{"tileid":337,"duration":100},{"tileid":338,"duration":100},{"tileid":339,"duration":100},{"tileid":340,"duration":100},{"tileid":341,"duration":100},{"tileid":342,"duration":100},{"tileid":343,"duration":100},{"tileid":344,"duration":100},{"tileid":345,"duration":100},{"tileid":346,"duration":100},{"tileid":347,"duration":100},{"tileid":348,"duration":100},{"tileid":349,"duration":100},{"tileid":350,"duration":100},{"tileid":351,"duration":100},{"tileid":352,"duration":100},{"tileid":353,"duration":100},{"tileid":354,"duration":100},{"tileid":355,"duration":100},{"tileid":356,"duration":100},{"tileid":357,"duration":100},{"tileid":358,"duration":100},{"tileid":359,"duration":100}]},{"id":360,"animation":[{"tileid":360,"duration":100},{"tileid":361,"duration":100},{"tileid":362,"duration":100},{"tileid":363,"duration":100},{"tileid":364,"duration":100},{"tileid":365,"duration":100},{"tileid":366,"duration":100},{"tileid":367,"duration":100},{"tileid":368,"duration":100},{"tileid":369,"duration":100},{"tileid":370,"duration":100},{"tileid":371,"duration":100},{"tileid":372,"duration":100},{"tileid":373,"duration":100},{"tileid":374,"duration":100},{"tileid":375,"duration":100},{"tileid":376,"duration":100},{"tileid":377,"duration":100},{"tileid":378,"duration":100},{"tileid":379,"duration":100},{"tileid":380,"duration":100},{"tileid":381,"duration":100},{"tileid":382,"duration":100},{"tileid":383,"duration":100}]},{"id":384,"animation":[{"tileid":384,"duration":100},{"tileid":385,"duration":100},{"tileid":386,"duration":100},{"tileid":387,"duration":100},{"tileid":388,"duration":100},{"tileid":389,"duration":100},{"tileid":390,"duration":100},{"tileid":391,"duration":100},{"tileid":392,"duration":100},{"tileid":393,"duration":100},{"tileid":394,"duration":100},{"tileid":395,"duration":100},{"tileid":396,"duration":100},{"tileid":397,"duration":100},{"tileid":398,"duration":100},{"tileid":399,"duration":100},{"tileid":400,"duration":100},{"tileid":401,"duration":100},{"tileid":402,"duration":100},{"tileid":403,"duration":100},{"tileid":404,"duration":100},{"tileid":405,"duration":100},{"tileid":406,"duration":100},{"tileid":407,"duration":100}]},{"id":408,"animation":[{"tileid":408,"duration":100},{"tileid":409,"duration":100},{"tileid":410,"duration":100},{"tileid":411,"duration":100},{"tileid":412,"duration":100},{"tileid":413,"duration":100},{"tileid":414,"duration":100},{"tileid":415,"duration":100},{"tileid":416,"duration":100},{"tileid":417,"duration":100},{"tileid":418,"duration":100},{"tileid":419,"duration":100},{"tileid":420,"duration":100},{"tileid":421,"duration":100},{"tileid":422,"duration":100},{"tileid":423,"duration":100},{"tileid":424,"duration":100},{"tileid":425,"duration":100},{"tileid":426,"duration":100},{"tileid":427,"duration":100},{"tileid":428,"duration":100},{"tileid":429,"duration":100},{"tileid":430,"duration":100},{"tileid":431,"duration":100}]},{"id":432,"animation":[{"tileid":432,"duration":100},{"tileid":433,"duration":100},{"tileid":434,"duration":100},{"tileid":435,"duration":100},{"tileid":436,"duration":100},{"tileid":437,"duration":100},{"tileid":438,"duration":100},{"tileid":439,"duration":100},{"tileid":440,"duration":100},{"tileid":441,"duration":100},{"tileid":442,"duration":100},{"tileid":443,"duration":100},{"tileid":444,"duration":100},{"tileid":445,"duration":100},{"tileid":446,"duration":100},{"tileid":447,"duration":100},{"tileid":448,"duration":100},{"tileid":449,"duration":100},{"tileid":450,"duration":100},{"tileid":451,"duration":100},{"tileid":452,"duration":100},{"tileid":453,"duration":100},{"tileid":454,"duration":100},{"tileid":455,"duration":100}]},{"id":456,"animation":[{"tileid":456,"duration":100},{"tileid":457,"duration":100},{"tileid":458,"duration":100},{"tileid":459,"duration":100},{"tileid":460,"duration":100},{"tileid":461,"duration":100},{"tileid":462,"duration":100},{"tileid":463,"duration":100},{"tileid":464,"duration":100},{"tileid":465,"duration":100},{"tileid":466,"duration":100},{"tileid":467,"duration":100},{"tileid":468,"duration":100},{"tileid":469,"duration":100},{"tileid":470,"duration":100},{"tileid":471,"duration":100},{"tileid":472,"duration":100},{"tileid":473,"duration":100},{"tileid":474,"duration":100},{"tileid":475,"duration":100},{"tileid":476,"duration":100},{"tileid":477,"duration":100},{"tileid":478,"duration":100},{"tileid":479,"duration":100}]},{"id":480,"animation":[{"tileid":480,"duration":100},{"tileid":481,"duration":100},{"tileid":482,"duration":100},{"tileid":483,"duration":100},{"tileid":484,"duration":100},{"tileid":485,"duration":100},{"tileid":486,"duration":100},{"tileid":487,"duration":100},{"tileid":488,"duration":100},{"tileid":489,"duration":100},{"tileid":490,"duration":100},{"tileid":491,"duration":100},{"tileid":492,"duration":100},{"tileid":493,"duration":100},{"tileid":494,"duration":100},{"tileid":495,"duration":100},{"tileid":496,"duration":100},{"tileid":497,"duration":100},{"tileid":498,"duration":100},{"tileid":499,"duration":100},{"tileid":500,"duration":100},{"tileid":501,"duration":100},{"tileid":502,"duration":100},{"tileid":503,"duration":100}]},{"id":504,"animation":[{"tileid":504,"duration":100},{"tileid":505,"duration":100},{"tileid":506,"duration":100},{"tileid":507,"duration":100},{"tileid":508,"duration":100},{"tileid":509,"duration":100},{"tileid":510,"duration":100},{"tileid":511,"duration":100},{"tileid":512,"duration":100},{"tileid":513,"duration":100},{"tileid":514,"duration":100},{"tileid":515,"duration":100},{"tileid":516,"duration":100},{"tileid":517,"duration":100},{"tileid":518,"duration":100},{"tileid":519,"duration":100},{"tileid":520,"duration":100},{"tileid":521,"duration":100},{"tileid":522,"duration":100},{"tileid":523,"duration":100},{"tileid":524,"duration":100},{"tileid":525,"duration":100},{"tileid":526,"duration":100},{"tileid":527,"duration":100}]},{"id":528,"animation":[{"tileid":528,"duration":100},{"tileid":529,"duration":100},{"tileid":530,"duration":100},{"tileid":531,"duration":100},{"tileid":532,"duration":100},{"tileid":533,"duration":100},{"tileid":534,"duration":100},{"tileid":535,"duration":100},{"tileid":536,"duration":100},{"tileid":537,"duration":100},{"tileid":538,"duration":100},{"tileid":539,"duration":100},{"tileid":540,"duration":100},{"tileid":541,"duration":100},{"tileid":542,"duration":100},{"tileid":543,"duration":100},{"tileid":544,"duration":100},{"tileid":545,"duration":100},{"tileid":546,"duration":100},{"tileid":547,"duration":100},{"tileid":548,"duration":100},{"tileid":549,"duration":100},{"tileid":550,"duration":100},{"tileid":551,"duration":100}]},{"id":552,"animation":[{"tileid":552,"duration":100},{"tileid":553,"duration":100},{"tileid":554,"duration":100},{"tileid":555,"duration":100},{"tileid":556,"duration":100},{"tileid":557,"duration":100},{"tileid":558,"duration":100},{"tileid":559,"duration":100},{"tileid":560,"duration":100},{"tileid":561,"duration":100},{"tileid":562,"duration":100},{"tileid":563,"duration":100},{"tileid":564,"duration":100},{"tileid":565,"duration":100},{"tileid":566,"duration":100},{"tileid":567,"duration":100},{"tileid":568,"duration":100},{"tileid":569,"duration":100},{"tileid":570,"duration":100},{"tileid":571,"duration":100},{"tileid":572,"duration":100},{"tileid":573,"duration":100},{"tileid":574,"duration":100},{"tileid":575,"duration":100}]},{"id":576,"animation":[{"tileid":576,"duration":100},{"tileid":577,"duration":100},{"tileid":578,"duration":100},{"tileid":579,"duration":100},{"tileid":580,"duration":100},{"tileid":581,"duration":100},{"tileid":582,"duration":100},{"tileid":583,"duration":100},{"tileid":584,"duration":100},{"tileid":585,"duration":100},{"tileid":586,"duration":100},{"tileid":587,"duration":100},{"tileid":588,"duration":100},{"tileid":589,"duration":100},{"tileid":590,"duration":100},{"tileid":591,"duration":100},{"tileid":592,"duration":100},{"tileid":593,"duration":100},{"tileid":594,"duration":100},{"tileid":595,"duration":100},{"tileid":596,"duration":100},{"tileid":597,"duration":100},{"tileid":598,"duration":100},{"tileid":599,"duration":100}]},{"id":600,"animation":[{"tileid":600,"duration":100},{"tileid":601,"duration":100},{"tileid":602,"duration":100},{"tileid":603,"duration":100},{"tileid":604,"duration":100},{"tileid":605,"duration":100},{"tileid":606,"duration":100},{"tileid":607,"duration":100},{"tileid":608,"duration":100},{"tileid":609,"duration":100},{"tileid":610,"duration":100},{"tileid":611,"duration":100},{"tileid":612,"duration":100},{"tileid":613,"duration":100},{"tileid":614,"duration":100},{"tileid":615,"duration":100},{"tileid":616,"duration":100},{"tileid":617,"duration":100},{"tileid":618,"duration":100},{"tileid":619,"duration":100},{"tileid":620,"duration":100},{"tileid":621,"duration":100},{"tileid":622,"duration":100},{"tileid":623,"duration":100}]},{"id":624,"animation":[{"tileid":624,"duration":100},{"tileid":625,"duration":100},{"tileid":626,"duration":100},{"tileid":627,"duration":100},{"tileid":628,"duration":100},{"tileid":629,"duration":100},{"tileid":630,"duration":100},{"tileid":631,"duration":100},{"tileid":632,"duration":100},{"tileid":633,"duration":100},{"tileid":634,"duration":100},{"tileid":635,"duration":100},{"tileid":636,"duration":100},{"tileid":637,"duration":100},{"tileid":638,"duration":100},{"tileid":639,"duration":100},{"tileid":640,"duration":100},{"tileid":641,"duration":100},{"tileid":642,"duration":100},{"tileid":643,"duration":100},{"tileid":644,"duration":100},{"tileid":645,"duration":100},{"tileid":646,"duration":100},{"tileid":647,"duration":100}]},{"id":648,"animation":[{"tileid":648,"duration":100},{"tileid":649,"duration":100},{"tileid":650,"duration":100},{"tileid":651,"duration":100},{"tileid":652,"duration":100},{"tileid":653,"duration":100},{"tileid":654,"duration":100},{"tileid":655,"duration":100},{"tileid":656,"duration":100},{"tileid":657,"duration":100},{"tileid":658,"duration":100},{"tileid":659,"duration":100},{"tileid":660,"duration":100},{"tileid":661,"duration":100},{"tileid":662,"duration":100},{"tileid":663,"duration":100},{"tileid":664,"duration":100},{"tileid":665,"duration":100},{"tileid":666,"duration":100},{"tileid":667,"duration":100},{"tileid":668,"duration":100},{"tileid":669,"duration":100},{"tileid":670,"duration":100},{"tileid":671,"duration":100}]},{"id":672,"animation":[{"tileid":672,"duration":100},{"tileid":673,"duration":100},{"tileid":674,"duration":100},{"tileid":675,"duration":100},{"tileid":676,"duration":100},{"tileid":677,"duration":100},{"tileid":678,"duration":100},{"tileid":679,"duration":100},{"tileid":680,"duration":100},{"tileid":681,"duration":100},{"tileid":682,"duration":100},{"tileid":683,"duration":100},{"tileid":684,"duration":100},{"tileid":685,"duration":100},{"tileid":686,"duration":100},{"tileid":687,"duration":100},{"tileid":688,"duration":100},{"tileid":689,"duration":100},{"tileid":690,"duration":100},{"tileid":691,"duration":100},{"tileid":692,"duration":100},{"tileid":693,"duration":100},{"tileid":694,"duration":100},{"tileid":695,"duration":100}]},{"id":696,"animation":[{"tileid":696,"duration":100},{"tileid":697,"duration":100},{"tileid":698,"duration":100},{"tileid":699,"duration":100},{"tileid":700,"duration":100},{"tileid":701,"duration":100},{"tileid":702,"duration":100},{"tileid":703,"duration":100},{"tileid":704,"duration":100},{"tileid":705,"duration":100},{"tileid":706,"duration":100},{"tileid":707,"duration":100},{"tileid":708,"duration":100},{"tileid":709,"duration":100},{"tileid":710,"duration":100},{"tileid":711,"duration":100},{"tileid":712,"duration":100},{"tileid":713,"duration":100},{"tileid":714,"duration":100},{"tileid":715,"duration":100},{"tileid":716,"duration":100},{"tileid":717,"duration":100},{"tileid":718,"duration":100},{"tileid":719,"duration":100}]},{"id":720,"animation":[{"tileid":720,"duration":100},{"tileid":721,"duration":100},{"tileid":722,"duration":100},{"tileid":723,"duration":100},{"tileid":724,"duration":100},{"tileid":725,"duration":100},{"tileid":726,"duration":100},{"tileid":727,"duration":100},{"tileid":728,"duration":100},{"tileid":729,"duration":100},{"tileid":730,"duration":100},{"tileid":731,"duration":100},{"tileid":732,"duration":100},{"tileid":733,"duration":100},{"tileid":734,"duration":100},{"tileid":735,"duration":100},{"tileid":736,"duration":100},{"tileid":737,"duration":100},{"tileid":738,"duration":100},{"tileid":739,"duration":100},{"tileid":740,"duration":100},{"tileid":741,"duration":100},{"tileid":742,"duration":100},{"tileid":743,"duration":100}]},{"id":744,"animation":[{"tileid":744,"duration":100},{"tileid":745,"duration":100},{"tileid":746,"duration":100},{"tileid":747,"duration":100},{"tileid":748,"duration":100},{"tileid":749,"duration":100},{"tileid":750,"duration":100},{"tileid":751,"duration":100},{"tileid":752,"duration":100},{"tileid":753,"duration":100},{"tileid":754,"duration":100},{"tileid":755,"duration":100},{"tileid":756,"duration":100},{"tileid":757,"duration":100},{"tileid":758,"duration":100},{"tileid":759,"duration":100},{"tileid":760,"duration":100},{"tileid":761,"duration":100},{"tileid":762,"duration":100},{"tileid":763,"duration":100},{"tileid":764,"duration":100},{"tileid":765,"duration":100},{"tileid":766,"duration":100},{"tileid":767,"duration":100}]},{"id":768,"animation":[{"tileid":768,"duration":100},{"tileid":769,"duration":100},{"tileid":770,"duration":100},{"tileid":771,"duration":100},{"tileid":772,"duration":100},{"tileid":773,"duration":100},{"tileid":774,"duration":100},{"tileid":775,"duration":100},{"tileid":776,"duration":100},{"tileid":777,"duration":100},{"tileid":778,"duration":100},{"tileid":779,"duration":100},{"tileid":780,"duration":100},{"tileid":781,"duration":100},{"tileid":782,"duration":100},{"tileid":783,"duration":100},{"tileid":784,"duration":100},{"tileid":785,"duration":100},{"tileid":786,"duration":100},{"tileid":787,"duration":100},{"tileid":788,"duration":100},{"tileid":789,"duration":100},{"tileid":790,"duration":100},{"tileid":791,"duration":100}]},{"id":792,"animation":[{"tileid":792,"duration":100},{"tileid":793,"duration":100},{"tileid":794,"duration":100},{"tileid":795,"duration":100},{"tileid":796,"duration":100},{"tileid":797,"duration":100},{"tileid":798,"duration":100},{"tileid":799,"duration":100},{"tileid":800,"duration":100},{"tileid":801,"duration":100},{"tileid":802,"duration":100},{"tileid":803,"duration":100},{"tileid":804,"duration":100},{"tileid":805,"duration":100},{"tileid":806,"duration":100},{"tileid":807,"duration":100},{"tileid":808,"duration":100},{"tileid":809,"duration":100},{"tileid":810,"duration":100},{"tileid":811,"duration":100},{"tileid":812,"duration":100},{"tileid":813,"duration":100},{"tileid":814,"duration":100},{"tileid":815,"duration":100}]},{"id":816,"animation":[{"tileid":816,"duration":100},{"tileid":817,"duration":100},{"tileid":818,"duration":100},{"tileid":819,"duration":100},{"tileid":820,"duration":100},{"tileid":821,"duration":100},{"tileid":822,"duration":100},{"tileid":823,"duration":100},{"tileid":824,"duration":100},{"tileid":825,"duration":100},{"tileid":826,"duration":100},{"tileid":827,"duration":100},{"tileid":828,"duration":100},{"tileid":829,"duration":100},{"tileid":830,"duration":100},{"tileid":831,"duration":100},{"tileid":832,"duration":100},{"tileid":833,"duration":100},{"tileid":834,"duration":100},{"tileid":835,"duration":100},{"tileid":836,"duration":100},{"tileid":837,"duration":100},{"tileid":838,"duration":100},{"tileid":839,"duration":100}]},{"id":840,"animation":[{"tileid":840,"duration":100},{"tileid":841,"duration":100},{"tileid":842,"duration":100},{"tileid":843,"duration":100},{"tileid":844,"duration":100},{"tileid":845,"duration":100},{"tileid":846,"duration":100},{"tileid":847,"duration":100},{"tileid":848,"duration":100},{"tileid":849,"duration":100},{"tileid":850,"duration":100},{"tileid":851,"duration":100},{"tileid":852,"duration":100},{"tileid":853,"duration":100},{"tileid":854,"duration":100},{"tileid":855,"duration":100},{"tileid":856,"duration":100},{"tileid":857,"duration":100},{"tileid":858,"duration":100},{"tileid":859,"duration":100},{"tileid":860,"duration":100},{"tileid":861,"duration":100},{"tileid":862,"duration":100},{"tileid":863,"duration":100}]},{"id":864,"animation":[{"tileid":864,"duration":100},{"tileid":865,"duration":100},{"tileid":866,"duration":100},{"tileid":867,"duration":100},{"tileid":868,"duration":100},{"tileid":869,"duration":100},{"tileid":870,"duration":100},{"tileid":871,"duration":100},{"tileid":872,"duration":100},{"tileid":873,"duration":100},{"tileid":874,"duration":100},{"tileid":875,"duration":100},{"tileid":876,"duration":100},{"tileid":877,"duration":100},{"tileid":878,"duration":100},{"tileid":879,"duration":100},{"tileid":880,"duration":100},{"tileid":881,"duration":100},{"tileid":882,"duration":100},{"tileid":883,"duration":100},{"tileid":884,"duration":100},{"tileid":885,"duration":100},{"tileid":886,"duration":100},{"tileid":887,"duration":100}]},{"id":888,"animation":[{"tileid":888,"duration":100},{"tileid":889,"duration":100},{"tileid":890,"duration":100},{"tileid":891,"duration":100},{"tileid":892,"duration":100},{"tileid":893,"duration":100},{"tileid":894,"duration":100},{"tileid":895,"duration":100},{"tileid":896,"duration":100},{"tileid":897,"duration":100},{"tileid":898,"duration":100},{"tileid":899,"duration":100},{"tileid":900,"duration":100},{"tileid":901,"duration":100},{"tileid":902,"duration":100},{"tileid":903,"duration":100},{"tileid":904,"duration":100},{"tileid":905,"duration":100},{"tileid":906,"duration":100},{"tileid":907,"duration":100},{"tileid":908,"duration":100},{"tileid":909,"duration":100},{"tileid":910,"duration":100},{"tileid":911,"duration":100}]},{"id":912,"animation":[{"tileid":912,"duration":100},{"tileid":913,"duration":100},{"tileid":914,"duration":100},{"tileid":915,"duration":100},{"tileid":916,"duration":100},{"tileid":917,"duration":100},{"tileid":918,"duration":100},{"tileid":919,"duration":100},{"tileid":920,"duration":100},{"tileid":921,"duration":100},{"tileid":922,"duration":100},{"tileid":923,"duration":100},{"tileid":924,"duration":100},{"tileid":925,"duration":100},{"tileid":926,"duration":100},{"tileid":927,"duration":100},{"tileid":928,"duration":100},{"tileid":929,"duration":100},{"tileid":930,"duration":100},{"tileid":931,"duration":100},{"tileid":932,"duration":100},{"tileid":933,"duration":100},{"tileid":934,"duration":100},{"tileid":935,"duration":100}]},{"id":936,"animation":[{"tileid":936,"duration":100},{"tileid":937,"duration":100},{"tileid":938,"duration":100},{"tileid":939,"duration":100},{"tileid":940,"duration":100},{"tileid":941,"duration":100},{"tileid":942,"duration":100},{"tileid":943,"duration":100},{"tileid":944,"duration":100},{"tileid":945,"duration":100},{"tileid":946,"duration":100},{"tileid":947,"duration":100},{"tileid":948,"duration":100},{"tileid":949,"duration":100},{"tileid":950,"duration":100},{"tileid":951,"duration":100},{"tileid":952,"duration":100},{"tileid":953,"duration":100},{"tileid":954,"duration":100},{"tileid":955,"duration":100},{"tileid":956,"duration":100},{"tileid":957,"duration":100},{"tileid":958,"duration":100},{"tileid":959,"duration":100}]},{"id":960,"animation":[{"tileid":960,"duration":100},{"tileid":961,"duration":100},{"tileid":962,"duration":100},{"tileid":963,"duration":100},{"tileid":964,"duration":100},{"tileid":965,"duration":100},{"tileid":966,"duration":100},{"tileid":967,"duration":100},{"tileid":968,"duration":100},{"tileid":969,"duration":100},{"tileid":970,"duration":100},{"tileid":971,"duration":100},{"tileid":972,"duration":100},{"tileid":973,"duration":100},{"tileid":974,"duration":100},{"tileid":975,"duration":100},{"tileid":976,"duration":100},{"tileid":977,"duration":100},{"tileid":978,"duration":100},{"tileid":979,"duration":100},{"tileid":980,"duration":100},{"tileid":981,"duration":100},{"tileid":982,"duration":100},{"tileid":983,"duration":100}]},{"id":984,"animation":[{"tileid":984,"duration":100},{"tileid":985,"duration":100},{"tileid":986,"duration":100},{"tileid":987,"duration":100},{"tileid":988,"duration":100},{"tileid":989,"duration":100},{"tileid":990,"duration":100},{"tileid":991,"duration":100},{"tileid":992,"duration":100},{"tileid":993,"duration":100},{"tileid":994,"duration":100},{"tileid":995,"duration":100},{"tileid":996,"duration":100},{"tileid":997,"duration":100},{"tileid":998,"duration":100},{"tileid":999,"duration":100},{"tileid":1000,"duration":100},{"tileid":1001,"duration":100},{"tileid":1002,"duration":100},{"tileid":1003,"duration":100},{"tileid":1004,"duration":100},{"tileid":1005,"duration":100},{"tileid":1006,"duration":100},{"tileid":1007,"duration":100}]}]},{"firstgid":16550,"name":"gate-waterfalls-04","image":"../../v6/gate/map/tilesets/gate-waterfalls-04.png","imagewidth":1024,"imageheight":1024,"tilewidth":32,"tileheight":32,"columns":32,"tilecount":1024,"margin":0,"spacing":0,"tiles":[{"id":0,"animation":[{"tileid":0,"duration":100},{"tileid":1,"duration":100},{"tileid":2,"duration":100},{"tileid":3,"duration":100},{"tileid":4,"duration":100},{"tileid":5,"duration":100},{"tileid":6,"duration":100},{"tileid":7,"duration":100},{"tileid":8,"duration":100},{"tileid":9,"duration":100},{"tileid":10,"duration":100},{"tileid":11,"duration":100},{"tileid":12,"duration":100},{"tileid":13,"duration":100},{"tileid":14,"duration":100},{"tileid":15,"duration":100},{"tileid":16,"duration":100},{"tileid":17,"duration":100},{"tileid":18,"duration":100},{"tileid":19,"duration":100},{"tileid":20,"duration":100},{"tileid":21,"duration":100},{"tileid":22,"duration":100},{"tileid":23,"duration":100}]},{"id":24,"animation":[{"tileid":24,"duration":100},{"tileid":25,"duration":100},{"tileid":26,"duration":100},{"tileid":27,"duration":100},{"tileid":28,"duration":100},{"tileid":29,"duration":100},{"tileid":30,"duration":100},{"tileid":31,"duration":100},{"tileid":32,"duration":100},{"tileid":33,"duration":100},{"tileid":34,"duration":100},{"tileid":35,"duration":100},{"tileid":36,"duration":100},{"tileid":37,"duration":100},{"tileid":38,"duration":100},{"tileid":39,"duration":100},{"tileid":40,"duration":100},{"tileid":41,"duration":100},{"tileid":42,"duration":100},{"tileid":43,"duration":100},{"tileid":44,"duration":100},{"tileid":45,"duration":100},{"tileid":46,"duration":100},{"tileid":47,"duration":100}]},{"id":48,"animation":[{"tileid":48,"duration":100},{"tileid":49,"duration":100},{"tileid":50,"duration":100},{"tileid":51,"duration":100},{"tileid":52,"duration":100},{"tileid":53,"duration":100},{"tileid":54,"duration":100},{"tileid":55,"duration":100},{"tileid":56,"duration":100},{"tileid":57,"duration":100},{"tileid":58,"duration":100},{"tileid":59,"duration":100},{"tileid":60,"duration":100},{"tileid":61,"duration":100},{"tileid":62,"duration":100},{"tileid":63,"duration":100},{"tileid":64,"duration":100},{"tileid":65,"duration":100},{"tileid":66,"duration":100},{"tileid":67,"duration":100},{"tileid":68,"duration":100},{"tileid":69,"duration":100},{"tileid":70,"duration":100},{"tileid":71,"duration":100}]},{"id":72,"animation":[{"tileid":72,"duration":100},{"tileid":73,"duration":100},{"tileid":74,"duration":100},{"tileid":75,"duration":100},{"tileid":76,"duration":100},{"tileid":77,"duration":100},{"tileid":78,"duration":100},{"tileid":79,"duration":100},{"tileid":80,"duration":100},{"tileid":81,"duration":100},{"tileid":82,"duration":100},{"tileid":83,"duration":100},{"tileid":84,"duration":100},{"tileid":85,"duration":100},{"tileid":86,"duration":100},{"tileid":87,"duration":100},{"tileid":88,"duration":100},{"tileid":89,"duration":100},{"tileid":90,"duration":100},{"tileid":91,"duration":100},{"tileid":92,"duration":100},{"tileid":93,"duration":100},{"tileid":94,"duration":100},{"tileid":95,"duration":100}]},{"id":96,"animation":[{"tileid":96,"duration":100},{"tileid":97,"duration":100},{"tileid":98,"duration":100},{"tileid":99,"duration":100},{"tileid":100,"duration":100},{"tileid":101,"duration":100},{"tileid":102,"duration":100},{"tileid":103,"duration":100},{"tileid":104,"duration":100},{"tileid":105,"duration":100},{"tileid":106,"duration":100},{"tileid":107,"duration":100},{"tileid":108,"duration":100},{"tileid":109,"duration":100},{"tileid":110,"duration":100},{"tileid":111,"duration":100},{"tileid":112,"duration":100},{"tileid":113,"duration":100},{"tileid":114,"duration":100},{"tileid":115,"duration":100},{"tileid":116,"duration":100},{"tileid":117,"duration":100},{"tileid":118,"duration":100},{"tileid":119,"duration":100}]},{"id":120,"animation":[{"tileid":120,"duration":100},{"tileid":121,"duration":100},{"tileid":122,"duration":100},{"tileid":123,"duration":100},{"tileid":124,"duration":100},{"tileid":125,"duration":100},{"tileid":126,"duration":100},{"tileid":127,"duration":100},{"tileid":128,"duration":100},{"tileid":129,"duration":100},{"tileid":130,"duration":100},{"tileid":131,"duration":100},{"tileid":132,"duration":100},{"tileid":133,"duration":100},{"tileid":134,"duration":100},{"tileid":135,"duration":100},{"tileid":136,"duration":100},{"tileid":137,"duration":100},{"tileid":138,"duration":100},{"tileid":139,"duration":100},{"tileid":140,"duration":100},{"tileid":141,"duration":100},{"tileid":142,"duration":100},{"tileid":143,"duration":100}]},{"id":144,"animation":[{"tileid":144,"duration":100},{"tileid":145,"duration":100},{"tileid":146,"duration":100},{"tileid":147,"duration":100},{"tileid":148,"duration":100},{"tileid":149,"duration":100},{"tileid":150,"duration":100},{"tileid":151,"duration":100},{"tileid":152,"duration":100},{"tileid":153,"duration":100},{"tileid":154,"duration":100},{"tileid":155,"duration":100},{"tileid":156,"duration":100},{"tileid":157,"duration":100},{"tileid":158,"duration":100},{"tileid":159,"duration":100},{"tileid":160,"duration":100},{"tileid":161,"duration":100},{"tileid":162,"duration":100},{"tileid":163,"duration":100},{"tileid":164,"duration":100},{"tileid":165,"duration":100},{"tileid":166,"duration":100},{"tileid":167,"duration":100}]},{"id":168,"animation":[{"tileid":168,"duration":100},{"tileid":169,"duration":100},{"tileid":170,"duration":100},{"tileid":171,"duration":100},{"tileid":172,"duration":100},{"tileid":173,"duration":100},{"tileid":174,"duration":100},{"tileid":175,"duration":100},{"tileid":176,"duration":100},{"tileid":177,"duration":100},{"tileid":178,"duration":100},{"tileid":179,"duration":100},{"tileid":180,"duration":100},{"tileid":181,"duration":100},{"tileid":182,"duration":100},{"tileid":183,"duration":100},{"tileid":184,"duration":100},{"tileid":185,"duration":100},{"tileid":186,"duration":100},{"tileid":187,"duration":100},{"tileid":188,"duration":100},{"tileid":189,"duration":100},{"tileid":190,"duration":100},{"tileid":191,"duration":100}]},{"id":192,"animation":[{"tileid":192,"duration":100},{"tileid":193,"duration":100},{"tileid":194,"duration":100},{"tileid":195,"duration":100},{"tileid":196,"duration":100},{"tileid":197,"duration":100},{"tileid":198,"duration":100},{"tileid":199,"duration":100},{"tileid":200,"duration":100},{"tileid":201,"duration":100},{"tileid":202,"duration":100},{"tileid":203,"duration":100},{"tileid":204,"duration":100},{"tileid":205,"duration":100},{"tileid":206,"duration":100},{"tileid":207,"duration":100},{"tileid":208,"duration":100},{"tileid":209,"duration":100},{"tileid":210,"duration":100},{"tileid":211,"duration":100},{"tileid":212,"duration":100},{"tileid":213,"duration":100},{"tileid":214,"duration":100},{"tileid":215,"duration":100}]},{"id":216,"animation":[{"tileid":216,"duration":100},{"tileid":217,"duration":100},{"tileid":218,"duration":100},{"tileid":219,"duration":100},{"tileid":220,"duration":100},{"tileid":221,"duration":100},{"tileid":222,"duration":100},{"tileid":223,"duration":100},{"tileid":224,"duration":100},{"tileid":225,"duration":100},{"tileid":226,"duration":100},{"tileid":227,"duration":100},{"tileid":228,"duration":100},{"tileid":229,"duration":100},{"tileid":230,"duration":100},{"tileid":231,"duration":100},{"tileid":232,"duration":100},{"tileid":233,"duration":100},{"tileid":234,"duration":100},{"tileid":235,"duration":100},{"tileid":236,"duration":100},{"tileid":237,"duration":100},{"tileid":238,"duration":100},{"tileid":239,"duration":100}]},{"id":240,"animation":[{"tileid":240,"duration":100},{"tileid":241,"duration":100},{"tileid":242,"duration":100},{"tileid":243,"duration":100},{"tileid":244,"duration":100},{"tileid":245,"duration":100},{"tileid":246,"duration":100},{"tileid":247,"duration":100},{"tileid":248,"duration":100},{"tileid":249,"duration":100},{"tileid":250,"duration":100},{"tileid":251,"duration":100},{"tileid":252,"duration":100},{"tileid":253,"duration":100},{"tileid":254,"duration":100},{"tileid":255,"duration":100},{"tileid":256,"duration":100},{"tileid":257,"duration":100},{"tileid":258,"duration":100},{"tileid":259,"duration":100},{"tileid":260,"duration":100},{"tileid":261,"duration":100},{"tileid":262,"duration":100},{"tileid":263,"duration":100}]},{"id":264,"animation":[{"tileid":264,"duration":100},{"tileid":265,"duration":100},{"tileid":266,"duration":100},{"tileid":267,"duration":100},{"tileid":268,"duration":100},{"tileid":269,"duration":100},{"tileid":270,"duration":100},{"tileid":271,"duration":100},{"tileid":272,"duration":100},{"tileid":273,"duration":100},{"tileid":274,"duration":100},{"tileid":275,"duration":100},{"tileid":276,"duration":100},{"tileid":277,"duration":100},{"tileid":278,"duration":100},{"tileid":279,"duration":100},{"tileid":280,"duration":100},{"tileid":281,"duration":100},{"tileid":282,"duration":100},{"tileid":283,"duration":100},{"tileid":284,"duration":100},{"tileid":285,"duration":100},{"tileid":286,"duration":100},{"tileid":287,"duration":100}]},{"id":288,"animation":[{"tileid":288,"duration":100},{"tileid":289,"duration":100},{"tileid":290,"duration":100},{"tileid":291,"duration":100},{"tileid":292,"duration":100},{"tileid":293,"duration":100},{"tileid":294,"duration":100},{"tileid":295,"duration":100},{"tileid":296,"duration":100},{"tileid":297,"duration":100},{"tileid":298,"duration":100},{"tileid":299,"duration":100},{"tileid":300,"duration":100},{"tileid":301,"duration":100},{"tileid":302,"duration":100},{"tileid":303,"duration":100},{"tileid":304,"duration":100},{"tileid":305,"duration":100},{"tileid":306,"duration":100},{"tileid":307,"duration":100},{"tileid":308,"duration":100},{"tileid":309,"duration":100},{"tileid":310,"duration":100},{"tileid":311,"duration":100}]},{"id":312,"animation":[{"tileid":312,"duration":100},{"tileid":313,"duration":100},{"tileid":314,"duration":100},{"tileid":315,"duration":100},{"tileid":316,"duration":100},{"tileid":317,"duration":100},{"tileid":318,"duration":100},{"tileid":319,"duration":100},{"tileid":320,"duration":100},{"tileid":321,"duration":100},{"tileid":322,"duration":100},{"tileid":323,"duration":100},{"tileid":324,"duration":100},{"tileid":325,"duration":100},{"tileid":326,"duration":100},{"tileid":327,"duration":100},{"tileid":328,"duration":100},{"tileid":329,"duration":100},{"tileid":330,"duration":100},{"tileid":331,"duration":100},{"tileid":332,"duration":100},{"tileid":333,"duration":100},{"tileid":334,"duration":100},{"tileid":335,"duration":100}]},{"id":336,"animation":[{"tileid":336,"duration":100},{"tileid":337,"duration":100},{"tileid":338,"duration":100},{"tileid":339,"duration":100},{"tileid":340,"duration":100},{"tileid":341,"duration":100},{"tileid":342,"duration":100},{"tileid":343,"duration":100},{"tileid":344,"duration":100},{"tileid":345,"duration":100},{"tileid":346,"duration":100},{"tileid":347,"duration":100},{"tileid":348,"duration":100},{"tileid":349,"duration":100},{"tileid":350,"duration":100},{"tileid":351,"duration":100},{"tileid":352,"duration":100},{"tileid":353,"duration":100},{"tileid":354,"duration":100},{"tileid":355,"duration":100},{"tileid":356,"duration":100},{"tileid":357,"duration":100},{"tileid":358,"duration":100},{"tileid":359,"duration":100}]},{"id":360,"animation":[{"tileid":360,"duration":100},{"tileid":361,"duration":100},{"tileid":362,"duration":100},{"tileid":363,"duration":100},{"tileid":364,"duration":100},{"tileid":365,"duration":100},{"tileid":366,"duration":100},{"tileid":367,"duration":100},{"tileid":368,"duration":100},{"tileid":369,"duration":100},{"tileid":370,"duration":100},{"tileid":371,"duration":100},{"tileid":372,"duration":100},{"tileid":373,"duration":100},{"tileid":374,"duration":100},{"tileid":375,"duration":100},{"tileid":376,"duration":100},{"tileid":377,"duration":100},{"tileid":378,"duration":100},{"tileid":379,"duration":100},{"tileid":380,"duration":100},{"tileid":381,"duration":100},{"tileid":382,"duration":100},{"tileid":383,"duration":100}]},{"id":384,"animation":[{"tileid":384,"duration":100},{"tileid":385,"duration":100},{"tileid":386,"duration":100},{"tileid":387,"duration":100},{"tileid":388,"duration":100},{"tileid":389,"duration":100},{"tileid":390,"duration":100},{"tileid":391,"duration":100},{"tileid":392,"duration":100},{"tileid":393,"duration":100},{"tileid":394,"duration":100},{"tileid":395,"duration":100},{"tileid":396,"duration":100},{"tileid":397,"duration":100},{"tileid":398,"duration":100},{"tileid":399,"duration":100},{"tileid":400,"duration":100},{"tileid":401,"duration":100},{"tileid":402,"duration":100},{"tileid":403,"duration":100},{"tileid":404,"duration":100},{"tileid":405,"duration":100},{"tileid":406,"duration":100},{"tileid":407,"duration":100}]},{"id":408,"animation":[{"tileid":408,"duration":100},{"tileid":409,"duration":100},{"tileid":410,"duration":100},{"tileid":411,"duration":100},{"tileid":412,"duration":100},{"tileid":413,"duration":100},{"tileid":414,"duration":100},{"tileid":415,"duration":100},{"tileid":416,"duration":100},{"tileid":417,"duration":100},{"tileid":418,"duration":100},{"tileid":419,"duration":100},{"tileid":420,"duration":100},{"tileid":421,"duration":100},{"tileid":422,"duration":100},{"tileid":423,"duration":100},{"tileid":424,"duration":100},{"tileid":425,"duration":100},{"tileid":426,"duration":100},{"tileid":427,"duration":100},{"tileid":428,"duration":100},{"tileid":429,"duration":100},{"tileid":430,"duration":100},{"tileid":431,"duration":100}]},{"id":432,"animation":[{"tileid":432,"duration":100},{"tileid":433,"duration":100},{"tileid":434,"duration":100},{"tileid":435,"duration":100},{"tileid":436,"duration":100},{"tileid":437,"duration":100},{"tileid":438,"duration":100},{"tileid":439,"duration":100},{"tileid":440,"duration":100},{"tileid":441,"duration":100},{"tileid":442,"duration":100},{"tileid":443,"duration":100},{"tileid":444,"duration":100},{"tileid":445,"duration":100},{"tileid":446,"duration":100},{"tileid":447,"duration":100},{"tileid":448,"duration":100},{"tileid":449,"duration":100},{"tileid":450,"duration":100},{"tileid":451,"duration":100},{"tileid":452,"duration":100},{"tileid":453,"duration":100},{"tileid":454,"duration":100},{"tileid":455,"duration":100}]},{"id":456,"animation":[{"tileid":456,"duration":100},{"tileid":457,"duration":100},{"tileid":458,"duration":100},{"tileid":459,"duration":100},{"tileid":460,"duration":100},{"tileid":461,"duration":100},{"tileid":462,"duration":100},{"tileid":463,"duration":100},{"tileid":464,"duration":100},{"tileid":465,"duration":100},{"tileid":466,"duration":100},{"tileid":467,"duration":100},{"tileid":468,"duration":100},{"tileid":469,"duration":100},{"tileid":470,"duration":100},{"tileid":471,"duration":100},{"tileid":472,"duration":100},{"tileid":473,"duration":100},{"tileid":474,"duration":100},{"tileid":475,"duration":100},{"tileid":476,"duration":100},{"tileid":477,"duration":100},{"tileid":478,"duration":100},{"tileid":479,"duration":100}]},{"id":480,"animation":[{"tileid":480,"duration":100},{"tileid":481,"duration":100},{"tileid":482,"duration":100},{"tileid":483,"duration":100},{"tileid":484,"duration":100},{"tileid":485,"duration":100},{"tileid":486,"duration":100},{"tileid":487,"duration":100},{"tileid":488,"duration":100},{"tileid":489,"duration":100},{"tileid":490,"duration":100},{"tileid":491,"duration":100},{"tileid":492,"duration":100},{"tileid":493,"duration":100},{"tileid":494,"duration":100},{"tileid":495,"duration":100},{"tileid":496,"duration":100},{"tileid":497,"duration":100},{"tileid":498,"duration":100},{"tileid":499,"duration":100},{"tileid":500,"duration":100},{"tileid":501,"duration":100},{"tileid":502,"duration":100},{"tileid":503,"duration":100}]},{"id":504,"animation":[{"tileid":504,"duration":100},{"tileid":505,"duration":100},{"tileid":506,"duration":100},{"tileid":507,"duration":100},{"tileid":508,"duration":100},{"tileid":509,"duration":100},{"tileid":510,"duration":100},{"tileid":511,"duration":100},{"tileid":512,"duration":100},{"tileid":513,"duration":100},{"tileid":514,"duration":100},{"tileid":515,"duration":100},{"tileid":516,"duration":100},{"tileid":517,"duration":100},{"tileid":518,"duration":100},{"tileid":519,"duration":100},{"tileid":520,"duration":100},{"tileid":521,"duration":100},{"tileid":522,"duration":100},{"tileid":523,"duration":100},{"tileid":524,"duration":100},{"tileid":525,"duration":100},{"tileid":526,"duration":100},{"tileid":527,"duration":100}]},{"id":528,"animation":[{"tileid":528,"duration":100},{"tileid":529,"duration":100},{"tileid":530,"duration":100},{"tileid":531,"duration":100},{"tileid":532,"duration":100},{"tileid":533,"duration":100},{"tileid":534,"duration":100},{"tileid":535,"duration":100},{"tileid":536,"duration":100},{"tileid":537,"duration":100},{"tileid":538,"duration":100},{"tileid":539,"duration":100},{"tileid":540,"duration":100},{"tileid":541,"duration":100},{"tileid":542,"duration":100},{"tileid":543,"duration":100},{"tileid":544,"duration":100},{"tileid":545,"duration":100},{"tileid":546,"duration":100},{"tileid":547,"duration":100},{"tileid":548,"duration":100},{"tileid":549,"duration":100},{"tileid":550,"duration":100},{"tileid":551,"duration":100}]},{"id":552,"animation":[{"tileid":552,"duration":100},{"tileid":553,"duration":100},{"tileid":554,"duration":100},{"tileid":555,"duration":100},{"tileid":556,"duration":100},{"tileid":557,"duration":100},{"tileid":558,"duration":100},{"tileid":559,"duration":100},{"tileid":560,"duration":100},{"tileid":561,"duration":100},{"tileid":562,"duration":100},{"tileid":563,"duration":100},{"tileid":564,"duration":100},{"tileid":565,"duration":100},{"tileid":566,"duration":100},{"tileid":567,"duration":100},{"tileid":568,"duration":100},{"tileid":569,"duration":100},{"tileid":570,"duration":100},{"tileid":571,"duration":100},{"tileid":572,"duration":100},{"tileid":573,"duration":100},{"tileid":574,"duration":100},{"tileid":575,"duration":100}]},{"id":576,"animation":[{"tileid":576,"duration":100},{"tileid":577,"duration":100},{"tileid":578,"duration":100},{"tileid":579,"duration":100},{"tileid":580,"duration":100},{"tileid":581,"duration":100},{"tileid":582,"duration":100},{"tileid":583,"duration":100},{"tileid":584,"duration":100},{"tileid":585,"duration":100},{"tileid":586,"duration":100},{"tileid":587,"duration":100},{"tileid":588,"duration":100},{"tileid":589,"duration":100},{"tileid":590,"duration":100},{"tileid":591,"duration":100},{"tileid":592,"duration":100},{"tileid":593,"duration":100},{"tileid":594,"duration":100},{"tileid":595,"duration":100},{"tileid":596,"duration":100},{"tileid":597,"duration":100},{"tileid":598,"duration":100},{"tileid":599,"duration":100}]},{"id":600,"animation":[{"tileid":600,"duration":100},{"tileid":601,"duration":100},{"tileid":602,"duration":100},{"tileid":603,"duration":100},{"tileid":604,"duration":100},{"tileid":605,"duration":100},{"tileid":606,"duration":100},{"tileid":607,"duration":100},{"tileid":608,"duration":100},{"tileid":609,"duration":100},{"tileid":610,"duration":100},{"tileid":611,"duration":100},{"tileid":612,"duration":100},{"tileid":613,"duration":100},{"tileid":614,"duration":100},{"tileid":615,"duration":100},{"tileid":616,"duration":100},{"tileid":617,"duration":100},{"tileid":618,"duration":100},{"tileid":619,"duration":100},{"tileid":620,"duration":100},{"tileid":621,"duration":100},{"tileid":622,"duration":100},{"tileid":623,"duration":100}]},{"id":624,"animation":[{"tileid":624,"duration":100},{"tileid":625,"duration":100},{"tileid":626,"duration":100},{"tileid":627,"duration":100},{"tileid":628,"duration":100},{"tileid":629,"duration":100},{"tileid":630,"duration":100},{"tileid":631,"duration":100},{"tileid":632,"duration":100},{"tileid":633,"duration":100},{"tileid":634,"duration":100},{"tileid":635,"duration":100},{"tileid":636,"duration":100},{"tileid":637,"duration":100},{"tileid":638,"duration":100},{"tileid":639,"duration":100},{"tileid":640,"duration":100},{"tileid":641,"duration":100},{"tileid":642,"duration":100},{"tileid":643,"duration":100},{"tileid":644,"duration":100},{"tileid":645,"duration":100},{"tileid":646,"duration":100},{"tileid":647,"duration":100}]},{"id":648,"animation":[{"tileid":648,"duration":100},{"tileid":649,"duration":100},{"tileid":650,"duration":100},{"tileid":651,"duration":100},{"tileid":652,"duration":100},{"tileid":653,"duration":100},{"tileid":654,"duration":100},{"tileid":655,"duration":100},{"tileid":656,"duration":100},{"tileid":657,"duration":100},{"tileid":658,"duration":100},{"tileid":659,"duration":100},{"tileid":660,"duration":100},{"tileid":661,"duration":100},{"tileid":662,"duration":100},{"tileid":663,"duration":100},{"tileid":664,"duration":100},{"tileid":665,"duration":100},{"tileid":666,"duration":100},{"tileid":667,"duration":100},{"tileid":668,"duration":100},{"tileid":669,"duration":100},{"tileid":670,"duration":100},{"tileid":671,"duration":100}]},{"id":672,"animation":[{"tileid":672,"duration":100},{"tileid":673,"duration":100},{"tileid":674,"duration":100},{"tileid":675,"duration":100},{"tileid":676,"duration":100},{"tileid":677,"duration":100},{"tileid":678,"duration":100},{"tileid":679,"duration":100},{"tileid":680,"duration":100},{"tileid":681,"duration":100},{"tileid":682,"duration":100},{"tileid":683,"duration":100},{"tileid":684,"duration":100},{"tileid":685,"duration":100},{"tileid":686,"duration":100},{"tileid":687,"duration":100},{"tileid":688,"duration":100},{"tileid":689,"duration":100},{"tileid":690,"duration":100},{"tileid":691,"duration":100},{"tileid":692,"duration":100},{"tileid":693,"duration":100},{"tileid":694,"duration":100},{"tileid":695,"duration":100}]},{"id":696,"animation":[{"tileid":696,"duration":100},{"tileid":697,"duration":100},{"tileid":698,"duration":100},{"tileid":699,"duration":100},{"tileid":700,"duration":100},{"tileid":701,"duration":100},{"tileid":702,"duration":100},{"tileid":703,"duration":100},{"tileid":704,"duration":100},{"tileid":705,"duration":100},{"tileid":706,"duration":100},{"tileid":707,"duration":100},{"tileid":708,"duration":100},{"tileid":709,"duration":100},{"tileid":710,"duration":100},{"tileid":711,"duration":100},{"tileid":712,"duration":100},{"tileid":713,"duration":100},{"tileid":714,"duration":100},{"tileid":715,"duration":100},{"tileid":716,"duration":100},{"tileid":717,"duration":100},{"tileid":718,"duration":100},{"tileid":719,"duration":100}]},{"id":720,"animation":[{"tileid":720,"duration":100},{"tileid":721,"duration":100},{"tileid":722,"duration":100},{"tileid":723,"duration":100},{"tileid":724,"duration":100},{"tileid":725,"duration":100},{"tileid":726,"duration":100},{"tileid":727,"duration":100},{"tileid":728,"duration":100},{"tileid":729,"duration":100},{"tileid":730,"duration":100},{"tileid":731,"duration":100},{"tileid":732,"duration":100},{"tileid":733,"duration":100},{"tileid":734,"duration":100},{"tileid":735,"duration":100},{"tileid":736,"duration":100},{"tileid":737,"duration":100},{"tileid":738,"duration":100},{"tileid":739,"duration":100},{"tileid":740,"duration":100},{"tileid":741,"duration":100},{"tileid":742,"duration":100},{"tileid":743,"duration":100}]},{"id":744,"animation":[{"tileid":744,"duration":100},{"tileid":745,"duration":100},{"tileid":746,"duration":100},{"tileid":747,"duration":100},{"tileid":748,"duration":100},{"tileid":749,"duration":100},{"tileid":750,"duration":100},{"tileid":751,"duration":100},{"tileid":752,"duration":100},{"tileid":753,"duration":100},{"tileid":754,"duration":100},{"tileid":755,"duration":100},{"tileid":756,"duration":100},{"tileid":757,"duration":100},{"tileid":758,"duration":100},{"tileid":759,"duration":100},{"tileid":760,"duration":100},{"tileid":761,"duration":100},{"tileid":762,"duration":100},{"tileid":763,"duration":100},{"tileid":764,"duration":100},{"tileid":765,"duration":100},{"tileid":766,"duration":100},{"tileid":767,"duration":100}]},{"id":768,"animation":[{"tileid":768,"duration":100},{"tileid":769,"duration":100},{"tileid":770,"duration":100},{"tileid":771,"duration":100},{"tileid":772,"duration":100},{"tileid":773,"duration":100},{"tileid":774,"duration":100},{"tileid":775,"duration":100},{"tileid":776,"duration":100},{"tileid":777,"duration":100},{"tileid":778,"duration":100},{"tileid":779,"duration":100},{"tileid":780,"duration":100},{"tileid":781,"duration":100},{"tileid":782,"duration":100},{"tileid":783,"duration":100},{"tileid":784,"duration":100},{"tileid":785,"duration":100},{"tileid":786,"duration":100},{"tileid":787,"duration":100},{"tileid":788,"duration":100},{"tileid":789,"duration":100},{"tileid":790,"duration":100},{"tileid":791,"duration":100}]},{"id":792,"animation":[{"tileid":792,"duration":100},{"tileid":793,"duration":100},{"tileid":794,"duration":100},{"tileid":795,"duration":100},{"tileid":796,"duration":100},{"tileid":797,"duration":100},{"tileid":798,"duration":100},{"tileid":799,"duration":100},{"tileid":800,"duration":100},{"tileid":801,"duration":100},{"tileid":802,"duration":100},{"tileid":803,"duration":100},{"tileid":804,"duration":100},{"tileid":805,"duration":100},{"tileid":806,"duration":100},{"tileid":807,"duration":100},{"tileid":808,"duration":100},{"tileid":809,"duration":100},{"tileid":810,"duration":100},{"tileid":811,"duration":100},{"tileid":812,"duration":100},{"tileid":813,"duration":100},{"tileid":814,"duration":100},{"tileid":815,"duration":100}]},{"id":816,"animation":[{"tileid":816,"duration":100},{"tileid":817,"duration":100},{"tileid":818,"duration":100},{"tileid":819,"duration":100},{"tileid":820,"duration":100},{"tileid":821,"duration":100},{"tileid":822,"duration":100},{"tileid":823,"duration":100},{"tileid":824,"duration":100},{"tileid":825,"duration":100},{"tileid":826,"duration":100},{"tileid":827,"duration":100},{"tileid":828,"duration":100},{"tileid":829,"duration":100},{"tileid":830,"duration":100},{"tileid":831,"duration":100},{"tileid":832,"duration":100},{"tileid":833,"duration":100},{"tileid":834,"duration":100},{"tileid":835,"duration":100},{"tileid":836,"duration":100},{"tileid":837,"duration":100},{"tileid":838,"duration":100},{"tileid":839,"duration":100}]},{"id":840,"animation":[{"tileid":840,"duration":100},{"tileid":841,"duration":100},{"tileid":842,"duration":100},{"tileid":843,"duration":100},{"tileid":844,"duration":100},{"tileid":845,"duration":100},{"tileid":846,"duration":100},{"tileid":847,"duration":100},{"tileid":848,"duration":100},{"tileid":849,"duration":100},{"tileid":850,"duration":100},{"tileid":851,"duration":100},{"tileid":852,"duration":100},{"tileid":853,"duration":100},{"tileid":854,"duration":100},{"tileid":855,"duration":100},{"tileid":856,"duration":100},{"tileid":857,"duration":100},{"tileid":858,"duration":100},{"tileid":859,"duration":100},{"tileid":860,"duration":100},{"tileid":861,"duration":100},{"tileid":862,"duration":100},{"tileid":863,"duration":100}]},{"id":864,"animation":[{"tileid":864,"duration":100},{"tileid":865,"duration":100},{"tileid":866,"duration":100},{"tileid":867,"duration":100},{"tileid":868,"duration":100},{"tileid":869,"duration":100},{"tileid":870,"duration":100},{"tileid":871,"duration":100},{"tileid":872,"duration":100},{"tileid":873,"duration":100},{"tileid":874,"duration":100},{"tileid":875,"duration":100},{"tileid":876,"duration":100},{"tileid":877,"duration":100},{"tileid":878,"duration":100},{"tileid":879,"duration":100},{"tileid":880,"duration":100},{"tileid":881,"duration":100},{"tileid":882,"duration":100},{"tileid":883,"duration":100},{"tileid":884,"duration":100},{"tileid":885,"duration":100},{"tileid":886,"duration":100},{"tileid":887,"duration":100}]},{"id":888,"animation":[{"tileid":888,"duration":100},{"tileid":889,"duration":100},{"tileid":890,"duration":100},{"tileid":891,"duration":100},{"tileid":892,"duration":100},{"tileid":893,"duration":100},{"tileid":894,"duration":100},{"tileid":895,"duration":100},{"tileid":896,"duration":100},{"tileid":897,"duration":100},{"tileid":898,"duration":100},{"tileid":899,"duration":100},{"tileid":900,"duration":100},{"tileid":901,"duration":100},{"tileid":902,"duration":100},{"tileid":903,"duration":100},{"tileid":904,"duration":100},{"tileid":905,"duration":100},{"tileid":906,"duration":100},{"tileid":907,"duration":100},{"tileid":908,"duration":100},{"tileid":909,"duration":100},{"tileid":910,"duration":100},{"tileid":911,"duration":100}]},{"id":912,"animation":[{"tileid":912,"duration":100},{"tileid":913,"duration":100},{"tileid":914,"duration":100},{"tileid":915,"duration":100},{"tileid":916,"duration":100},{"tileid":917,"duration":100},{"tileid":918,"duration":100},{"tileid":919,"duration":100},{"tileid":920,"duration":100},{"tileid":921,"duration":100},{"tileid":922,"duration":100},{"tileid":923,"duration":100},{"tileid":924,"duration":100},{"tileid":925,"duration":100},{"tileid":926,"duration":100},{"tileid":927,"duration":100},{"tileid":928,"duration":100},{"tileid":929,"duration":100},{"tileid":930,"duration":100},{"tileid":931,"duration":100},{"tileid":932,"duration":100},{"tileid":933,"duration":100},{"tileid":934,"duration":100},{"tileid":935,"duration":100}]},{"id":936,"animation":[{"tileid":936,"duration":100},{"tileid":937,"duration":100},{"tileid":938,"duration":100},{"tileid":939,"duration":100},{"tileid":940,"duration":100},{"tileid":941,"duration":100},{"tileid":942,"duration":100},{"tileid":943,"duration":100},{"tileid":944,"duration":100},{"tileid":945,"duration":100},{"tileid":946,"duration":100},{"tileid":947,"duration":100},{"tileid":948,"duration":100},{"tileid":949,"duration":100},{"tileid":950,"duration":100},{"tileid":951,"duration":100},{"tileid":952,"duration":100},{"tileid":953,"duration":100},{"tileid":954,"duration":100},{"tileid":955,"duration":100},{"tileid":956,"duration":100},{"tileid":957,"duration":100},{"tileid":958,"duration":100},{"tileid":959,"duration":100}]},{"id":960,"animation":[{"tileid":960,"duration":100},{"tileid":961,"duration":100},{"tileid":962,"duration":100},{"tileid":963,"duration":100},{"tileid":964,"duration":100},{"tileid":965,"duration":100},{"tileid":966,"duration":100},{"tileid":967,"duration":100},{"tileid":968,"duration":100},{"tileid":969,"duration":100},{"tileid":970,"duration":100},{"tileid":971,"duration":100},{"tileid":972,"duration":100},{"tileid":973,"duration":100},{"tileid":974,"duration":100},{"tileid":975,"duration":100},{"tileid":976,"duration":100},{"tileid":977,"duration":100},{"tileid":978,"duration":100},{"tileid":979,"duration":100},{"tileid":980,"duration":100},{"tileid":981,"duration":100},{"tileid":982,"duration":100},{"tileid":983,"duration":100}]},{"id":984,"animation":[{"tileid":984,"duration":100},{"tileid":985,"duration":100},{"tileid":986,"duration":100},{"tileid":987,"duration":100},{"tileid":988,"duration":100},{"tileid":989,"duration":100},{"tileid":990,"duration":100},{"tileid":991,"duration":100},{"tileid":992,"duration":100},{"tileid":993,"duration":100},{"tileid":994,"duration":100},{"tileid":995,"duration":100},{"tileid":996,"duration":100},{"tileid":997,"duration":100},{"tileid":998,"duration":100},{"tileid":999,"duration":100},{"tileid":1000,"duration":100},{"tileid":1001,"duration":100},{"tileid":1002,"duration":100},{"tileid":1003,"duration":100},{"tileid":1004,"duration":100},{"tileid":1005,"duration":100},{"tileid":1006,"duration":100},{"tileid":1007,"duration":100}]}]},{"firstgid":17574,"name":"gate-waterfalls-05","image":"../../v6/gate/map/tilesets/gate-waterfalls-05.png","imagewidth":1024,"imageheight":1024,"tilewidth":32,"tileheight":32,"columns":32,"tilecount":1024,"margin":0,"spacing":0,"tiles":[{"id":0,"animation":[{"tileid":0,"duration":100},{"tileid":1,"duration":100},{"tileid":2,"duration":100},{"tileid":3,"duration":100},{"tileid":4,"duration":100},{"tileid":5,"duration":100},{"tileid":6,"duration":100},{"tileid":7,"duration":100},{"tileid":8,"duration":100},{"tileid":9,"duration":100},{"tileid":10,"duration":100},{"tileid":11,"duration":100},{"tileid":12,"duration":100},{"tileid":13,"duration":100},{"tileid":14,"duration":100},{"tileid":15,"duration":100},{"tileid":16,"duration":100},{"tileid":17,"duration":100},{"tileid":18,"duration":100},{"tileid":19,"duration":100},{"tileid":20,"duration":100},{"tileid":21,"duration":100},{"tileid":22,"duration":100},{"tileid":23,"duration":100}]},{"id":24,"animation":[{"tileid":24,"duration":100},{"tileid":25,"duration":100},{"tileid":26,"duration":100},{"tileid":27,"duration":100},{"tileid":28,"duration":100},{"tileid":29,"duration":100},{"tileid":30,"duration":100},{"tileid":31,"duration":100},{"tileid":32,"duration":100},{"tileid":33,"duration":100},{"tileid":34,"duration":100},{"tileid":35,"duration":100},{"tileid":36,"duration":100},{"tileid":37,"duration":100},{"tileid":38,"duration":100},{"tileid":39,"duration":100},{"tileid":40,"duration":100},{"tileid":41,"duration":100},{"tileid":42,"duration":100},{"tileid":43,"duration":100},{"tileid":44,"duration":100},{"tileid":45,"duration":100},{"tileid":46,"duration":100},{"tileid":47,"duration":100}]},{"id":48,"animation":[{"tileid":48,"duration":100},{"tileid":49,"duration":100},{"tileid":50,"duration":100},{"tileid":51,"duration":100},{"tileid":52,"duration":100},{"tileid":53,"duration":100},{"tileid":54,"duration":100},{"tileid":55,"duration":100},{"tileid":56,"duration":100},{"tileid":57,"duration":100},{"tileid":58,"duration":100},{"tileid":59,"duration":100},{"tileid":60,"duration":100},{"tileid":61,"duration":100},{"tileid":62,"duration":100},{"tileid":63,"duration":100},{"tileid":64,"duration":100},{"tileid":65,"duration":100},{"tileid":66,"duration":100},{"tileid":67,"duration":100},{"tileid":68,"duration":100},{"tileid":69,"duration":100},{"tileid":70,"duration":100},{"tileid":71,"duration":100}]},{"id":72,"animation":[{"tileid":72,"duration":100},{"tileid":73,"duration":100},{"tileid":74,"duration":100},{"tileid":75,"duration":100},{"tileid":76,"duration":100},{"tileid":77,"duration":100},{"tileid":78,"duration":100},{"tileid":79,"duration":100},{"tileid":80,"duration":100},{"tileid":81,"duration":100},{"tileid":82,"duration":100},{"tileid":83,"duration":100},{"tileid":84,"duration":100},{"tileid":85,"duration":100},{"tileid":86,"duration":100},{"tileid":87,"duration":100},{"tileid":88,"duration":100},{"tileid":89,"duration":100},{"tileid":90,"duration":100},{"tileid":91,"duration":100},{"tileid":92,"duration":100},{"tileid":93,"duration":100},{"tileid":94,"duration":100},{"tileid":95,"duration":100}]},{"id":96,"animation":[{"tileid":96,"duration":100},{"tileid":97,"duration":100},{"tileid":98,"duration":100},{"tileid":99,"duration":100},{"tileid":100,"duration":100},{"tileid":101,"duration":100},{"tileid":102,"duration":100},{"tileid":103,"duration":100},{"tileid":104,"duration":100},{"tileid":105,"duration":100},{"tileid":106,"duration":100},{"tileid":107,"duration":100},{"tileid":108,"duration":100},{"tileid":109,"duration":100},{"tileid":110,"duration":100},{"tileid":111,"duration":100},{"tileid":112,"duration":100},{"tileid":113,"duration":100},{"tileid":114,"duration":100},{"tileid":115,"duration":100},{"tileid":116,"duration":100},{"tileid":117,"duration":100},{"tileid":118,"duration":100},{"tileid":119,"duration":100}]},{"id":120,"animation":[{"tileid":120,"duration":100},{"tileid":121,"duration":100},{"tileid":122,"duration":100},{"tileid":123,"duration":100},{"tileid":124,"duration":100},{"tileid":125,"duration":100},{"tileid":126,"duration":100},{"tileid":127,"duration":100},{"tileid":128,"duration":100},{"tileid":129,"duration":100},{"tileid":130,"duration":100},{"tileid":131,"duration":100},{"tileid":132,"duration":100},{"tileid":133,"duration":100},{"tileid":134,"duration":100},{"tileid":135,"duration":100},{"tileid":136,"duration":100},{"tileid":137,"duration":100},{"tileid":138,"duration":100},{"tileid":139,"duration":100},{"tileid":140,"duration":100},{"tileid":141,"duration":100},{"tileid":142,"duration":100},{"tileid":143,"duration":100}]},{"id":144,"animation":[{"tileid":144,"duration":100},{"tileid":145,"duration":100},{"tileid":146,"duration":100},{"tileid":147,"duration":100},{"tileid":148,"duration":100},{"tileid":149,"duration":100},{"tileid":150,"duration":100},{"tileid":151,"duration":100},{"tileid":152,"duration":100},{"tileid":153,"duration":100},{"tileid":154,"duration":100},{"tileid":155,"duration":100},{"tileid":156,"duration":100},{"tileid":157,"duration":100},{"tileid":158,"duration":100},{"tileid":159,"duration":100},{"tileid":160,"duration":100},{"tileid":161,"duration":100},{"tileid":162,"duration":100},{"tileid":163,"duration":100},{"tileid":164,"duration":100},{"tileid":165,"duration":100},{"tileid":166,"duration":100},{"tileid":167,"duration":100}]},{"id":168,"animation":[{"tileid":168,"duration":100},{"tileid":169,"duration":100},{"tileid":170,"duration":100},{"tileid":171,"duration":100},{"tileid":172,"duration":100},{"tileid":173,"duration":100},{"tileid":174,"duration":100},{"tileid":175,"duration":100},{"tileid":176,"duration":100},{"tileid":177,"duration":100},{"tileid":178,"duration":100},{"tileid":179,"duration":100},{"tileid":180,"duration":100},{"tileid":181,"duration":100},{"tileid":182,"duration":100},{"tileid":183,"duration":100},{"tileid":184,"duration":100},{"tileid":185,"duration":100},{"tileid":186,"duration":100},{"tileid":187,"duration":100},{"tileid":188,"duration":100},{"tileid":189,"duration":100},{"tileid":190,"duration":100},{"tileid":191,"duration":100}]},{"id":192,"animation":[{"tileid":192,"duration":100},{"tileid":193,"duration":100},{"tileid":194,"duration":100},{"tileid":195,"duration":100},{"tileid":196,"duration":100},{"tileid":197,"duration":100},{"tileid":198,"duration":100},{"tileid":199,"duration":100},{"tileid":200,"duration":100},{"tileid":201,"duration":100},{"tileid":202,"duration":100},{"tileid":203,"duration":100},{"tileid":204,"duration":100},{"tileid":205,"duration":100},{"tileid":206,"duration":100},{"tileid":207,"duration":100},{"tileid":208,"duration":100},{"tileid":209,"duration":100},{"tileid":210,"duration":100},{"tileid":211,"duration":100},{"tileid":212,"duration":100},{"tileid":213,"duration":100},{"tileid":214,"duration":100},{"tileid":215,"duration":100}]},{"id":216,"animation":[{"tileid":216,"duration":100},{"tileid":217,"duration":100},{"tileid":218,"duration":100},{"tileid":219,"duration":100},{"tileid":220,"duration":100},{"tileid":221,"duration":100},{"tileid":222,"duration":100},{"tileid":223,"duration":100},{"tileid":224,"duration":100},{"tileid":225,"duration":100},{"tileid":226,"duration":100},{"tileid":227,"duration":100},{"tileid":228,"duration":100},{"tileid":229,"duration":100},{"tileid":230,"duration":100},{"tileid":231,"duration":100},{"tileid":232,"duration":100},{"tileid":233,"duration":100},{"tileid":234,"duration":100},{"tileid":235,"duration":100},{"tileid":236,"duration":100},{"tileid":237,"duration":100},{"tileid":238,"duration":100},{"tileid":239,"duration":100}]},{"id":240,"animation":[{"tileid":240,"duration":100},{"tileid":241,"duration":100},{"tileid":242,"duration":100},{"tileid":243,"duration":100},{"tileid":244,"duration":100},{"tileid":245,"duration":100},{"tileid":246,"duration":100},{"tileid":247,"duration":100},{"tileid":248,"duration":100},{"tileid":249,"duration":100},{"tileid":250,"duration":100},{"tileid":251,"duration":100},{"tileid":252,"duration":100},{"tileid":253,"duration":100},{"tileid":254,"duration":100},{"tileid":255,"duration":100},{"tileid":256,"duration":100},{"tileid":257,"duration":100},{"tileid":258,"duration":100},{"tileid":259,"duration":100},{"tileid":260,"duration":100},{"tileid":261,"duration":100},{"tileid":262,"duration":100},{"tileid":263,"duration":100}]},{"id":264,"animation":[{"tileid":264,"duration":100},{"tileid":265,"duration":100},{"tileid":266,"duration":100},{"tileid":267,"duration":100},{"tileid":268,"duration":100},{"tileid":269,"duration":100},{"tileid":270,"duration":100},{"tileid":271,"duration":100},{"tileid":272,"duration":100},{"tileid":273,"duration":100},{"tileid":274,"duration":100},{"tileid":275,"duration":100},{"tileid":276,"duration":100},{"tileid":277,"duration":100},{"tileid":278,"duration":100},{"tileid":279,"duration":100},{"tileid":280,"duration":100},{"tileid":281,"duration":100},{"tileid":282,"duration":100},{"tileid":283,"duration":100},{"tileid":284,"duration":100},{"tileid":285,"duration":100},{"tileid":286,"duration":100},{"tileid":287,"duration":100}]},{"id":288,"animation":[{"tileid":288,"duration":100},{"tileid":289,"duration":100},{"tileid":290,"duration":100},{"tileid":291,"duration":100},{"tileid":292,"duration":100},{"tileid":293,"duration":100},{"tileid":294,"duration":100},{"tileid":295,"duration":100},{"tileid":296,"duration":100},{"tileid":297,"duration":100},{"tileid":298,"duration":100},{"tileid":299,"duration":100},{"tileid":300,"duration":100},{"tileid":301,"duration":100},{"tileid":302,"duration":100},{"tileid":303,"duration":100},{"tileid":304,"duration":100},{"tileid":305,"duration":100},{"tileid":306,"duration":100},{"tileid":307,"duration":100},{"tileid":308,"duration":100},{"tileid":309,"duration":100},{"tileid":310,"duration":100},{"tileid":311,"duration":100}]},{"id":312,"animation":[{"tileid":312,"duration":100},{"tileid":313,"duration":100},{"tileid":314,"duration":100},{"tileid":315,"duration":100},{"tileid":316,"duration":100},{"tileid":317,"duration":100},{"tileid":318,"duration":100},{"tileid":319,"duration":100},{"tileid":320,"duration":100},{"tileid":321,"duration":100},{"tileid":322,"duration":100},{"tileid":323,"duration":100},{"tileid":324,"duration":100},{"tileid":325,"duration":100},{"tileid":326,"duration":100},{"tileid":327,"duration":100},{"tileid":328,"duration":100},{"tileid":329,"duration":100},{"tileid":330,"duration":100},{"tileid":331,"duration":100},{"tileid":332,"duration":100},{"tileid":333,"duration":100},{"tileid":334,"duration":100},{"tileid":335,"duration":100}]},{"id":336,"animation":[{"tileid":336,"duration":100},{"tileid":337,"duration":100},{"tileid":338,"duration":100},{"tileid":339,"duration":100},{"tileid":340,"duration":100},{"tileid":341,"duration":100},{"tileid":342,"duration":100},{"tileid":343,"duration":100},{"tileid":344,"duration":100},{"tileid":345,"duration":100},{"tileid":346,"duration":100},{"tileid":347,"duration":100},{"tileid":348,"duration":100},{"tileid":349,"duration":100},{"tileid":350,"duration":100},{"tileid":351,"duration":100},{"tileid":352,"duration":100},{"tileid":353,"duration":100},{"tileid":354,"duration":100},{"tileid":355,"duration":100},{"tileid":356,"duration":100},{"tileid":357,"duration":100},{"tileid":358,"duration":100},{"tileid":359,"duration":100}]},{"id":360,"animation":[{"tileid":360,"duration":100},{"tileid":361,"duration":100},{"tileid":362,"duration":100},{"tileid":363,"duration":100},{"tileid":364,"duration":100},{"tileid":365,"duration":100},{"tileid":366,"duration":100},{"tileid":367,"duration":100},{"tileid":368,"duration":100},{"tileid":369,"duration":100},{"tileid":370,"duration":100},{"tileid":371,"duration":100},{"tileid":372,"duration":100},{"tileid":373,"duration":100},{"tileid":374,"duration":100},{"tileid":375,"duration":100},{"tileid":376,"duration":100},{"tileid":377,"duration":100},{"tileid":378,"duration":100},{"tileid":379,"duration":100},{"tileid":380,"duration":100},{"tileid":381,"duration":100},{"tileid":382,"duration":100},{"tileid":383,"duration":100}]},{"id":384,"animation":[{"tileid":384,"duration":100},{"tileid":385,"duration":100},{"tileid":386,"duration":100},{"tileid":387,"duration":100},{"tileid":388,"duration":100},{"tileid":389,"duration":100},{"tileid":390,"duration":100},{"tileid":391,"duration":100},{"tileid":392,"duration":100},{"tileid":393,"duration":100},{"tileid":394,"duration":100},{"tileid":395,"duration":100},{"tileid":396,"duration":100},{"tileid":397,"duration":100},{"tileid":398,"duration":100},{"tileid":399,"duration":100},{"tileid":400,"duration":100},{"tileid":401,"duration":100},{"tileid":402,"duration":100},{"tileid":403,"duration":100},{"tileid":404,"duration":100},{"tileid":405,"duration":100},{"tileid":406,"duration":100},{"tileid":407,"duration":100}]},{"id":408,"animation":[{"tileid":408,"duration":100},{"tileid":409,"duration":100},{"tileid":410,"duration":100},{"tileid":411,"duration":100},{"tileid":412,"duration":100},{"tileid":413,"duration":100},{"tileid":414,"duration":100},{"tileid":415,"duration":100},{"tileid":416,"duration":100},{"tileid":417,"duration":100},{"tileid":418,"duration":100},{"tileid":419,"duration":100},{"tileid":420,"duration":100},{"tileid":421,"duration":100},{"tileid":422,"duration":100},{"tileid":423,"duration":100},{"tileid":424,"duration":100},{"tileid":425,"duration":100},{"tileid":426,"duration":100},{"tileid":427,"duration":100},{"tileid":428,"duration":100},{"tileid":429,"duration":100},{"tileid":430,"duration":100},{"tileid":431,"duration":100}]},{"id":432,"animation":[{"tileid":432,"duration":100},{"tileid":433,"duration":100},{"tileid":434,"duration":100},{"tileid":435,"duration":100},{"tileid":436,"duration":100},{"tileid":437,"duration":100},{"tileid":438,"duration":100},{"tileid":439,"duration":100},{"tileid":440,"duration":100},{"tileid":441,"duration":100},{"tileid":442,"duration":100},{"tileid":443,"duration":100},{"tileid":444,"duration":100},{"tileid":445,"duration":100},{"tileid":446,"duration":100},{"tileid":447,"duration":100},{"tileid":448,"duration":100},{"tileid":449,"duration":100},{"tileid":450,"duration":100},{"tileid":451,"duration":100},{"tileid":452,"duration":100},{"tileid":453,"duration":100},{"tileid":454,"duration":100},{"tileid":455,"duration":100}]},{"id":456,"animation":[{"tileid":456,"duration":100},{"tileid":457,"duration":100},{"tileid":458,"duration":100},{"tileid":459,"duration":100},{"tileid":460,"duration":100},{"tileid":461,"duration":100},{"tileid":462,"duration":100},{"tileid":463,"duration":100},{"tileid":464,"duration":100},{"tileid":465,"duration":100},{"tileid":466,"duration":100},{"tileid":467,"duration":100},{"tileid":468,"duration":100},{"tileid":469,"duration":100},{"tileid":470,"duration":100},{"tileid":471,"duration":100},{"tileid":472,"duration":100},{"tileid":473,"duration":100},{"tileid":474,"duration":100},{"tileid":475,"duration":100},{"tileid":476,"duration":100},{"tileid":477,"duration":100},{"tileid":478,"duration":100},{"tileid":479,"duration":100}]},{"id":480,"animation":[{"tileid":480,"duration":100},{"tileid":481,"duration":100},{"tileid":482,"duration":100},{"tileid":483,"duration":100},{"tileid":484,"duration":100},{"tileid":485,"duration":100},{"tileid":486,"duration":100},{"tileid":487,"duration":100},{"tileid":488,"duration":100},{"tileid":489,"duration":100},{"tileid":490,"duration":100},{"tileid":491,"duration":100},{"tileid":492,"duration":100},{"tileid":493,"duration":100},{"tileid":494,"duration":100},{"tileid":495,"duration":100},{"tileid":496,"duration":100},{"tileid":497,"duration":100},{"tileid":498,"duration":100},{"tileid":499,"duration":100},{"tileid":500,"duration":100},{"tileid":501,"duration":100},{"tileid":502,"duration":100},{"tileid":503,"duration":100}]},{"id":504,"animation":[{"tileid":504,"duration":100},{"tileid":505,"duration":100},{"tileid":506,"duration":100},{"tileid":507,"duration":100},{"tileid":508,"duration":100},{"tileid":509,"duration":100},{"tileid":510,"duration":100},{"tileid":511,"duration":100},{"tileid":512,"duration":100},{"tileid":513,"duration":100},{"tileid":514,"duration":100},{"tileid":515,"duration":100},{"tileid":516,"duration":100},{"tileid":517,"duration":100},{"tileid":518,"duration":100},{"tileid":519,"duration":100},{"tileid":520,"duration":100},{"tileid":521,"duration":100},{"tileid":522,"duration":100},{"tileid":523,"duration":100},{"tileid":524,"duration":100},{"tileid":525,"duration":100},{"tileid":526,"duration":100},{"tileid":527,"duration":100}]},{"id":528,"animation":[{"tileid":528,"duration":100},{"tileid":529,"duration":100},{"tileid":530,"duration":100},{"tileid":531,"duration":100},{"tileid":532,"duration":100},{"tileid":533,"duration":100},{"tileid":534,"duration":100},{"tileid":535,"duration":100},{"tileid":536,"duration":100},{"tileid":537,"duration":100},{"tileid":538,"duration":100},{"tileid":539,"duration":100},{"tileid":540,"duration":100},{"tileid":541,"duration":100},{"tileid":542,"duration":100},{"tileid":543,"duration":100},{"tileid":544,"duration":100},{"tileid":545,"duration":100},{"tileid":546,"duration":100},{"tileid":547,"duration":100},{"tileid":548,"duration":100},{"tileid":549,"duration":100},{"tileid":550,"duration":100},{"tileid":551,"duration":100}]},{"id":552,"animation":[{"tileid":552,"duration":100},{"tileid":553,"duration":100},{"tileid":554,"duration":100},{"tileid":555,"duration":100},{"tileid":556,"duration":100},{"tileid":557,"duration":100},{"tileid":558,"duration":100},{"tileid":559,"duration":100},{"tileid":560,"duration":100},{"tileid":561,"duration":100},{"tileid":562,"duration":100},{"tileid":563,"duration":100},{"tileid":564,"duration":100},{"tileid":565,"duration":100},{"tileid":566,"duration":100},{"tileid":567,"duration":100},{"tileid":568,"duration":100},{"tileid":569,"duration":100},{"tileid":570,"duration":100},{"tileid":571,"duration":100},{"tileid":572,"duration":100},{"tileid":573,"duration":100},{"tileid":574,"duration":100},{"tileid":575,"duration":100}]},{"id":576,"animation":[{"tileid":576,"duration":100},{"tileid":577,"duration":100},{"tileid":578,"duration":100},{"tileid":579,"duration":100},{"tileid":580,"duration":100},{"tileid":581,"duration":100},{"tileid":582,"duration":100},{"tileid":583,"duration":100},{"tileid":584,"duration":100},{"tileid":585,"duration":100},{"tileid":586,"duration":100},{"tileid":587,"duration":100},{"tileid":588,"duration":100},{"tileid":589,"duration":100},{"tileid":590,"duration":100},{"tileid":591,"duration":100},{"tileid":592,"duration":100},{"tileid":593,"duration":100},{"tileid":594,"duration":100},{"tileid":595,"duration":100},{"tileid":596,"duration":100},{"tileid":597,"duration":100},{"tileid":598,"duration":100},{"tileid":599,"duration":100}]},{"id":600,"animation":[{"tileid":600,"duration":100},{"tileid":601,"duration":100},{"tileid":602,"duration":100},{"tileid":603,"duration":100},{"tileid":604,"duration":100},{"tileid":605,"duration":100},{"tileid":606,"duration":100},{"tileid":607,"duration":100},{"tileid":608,"duration":100},{"tileid":609,"duration":100},{"tileid":610,"duration":100},{"tileid":611,"duration":100},{"tileid":612,"duration":100},{"tileid":613,"duration":100},{"tileid":614,"duration":100},{"tileid":615,"duration":100},{"tileid":616,"duration":100},{"tileid":617,"duration":100},{"tileid":618,"duration":100},{"tileid":619,"duration":100},{"tileid":620,"duration":100},{"tileid":621,"duration":100},{"tileid":622,"duration":100},{"tileid":623,"duration":100}]},{"id":624,"animation":[{"tileid":624,"duration":100},{"tileid":625,"duration":100},{"tileid":626,"duration":100},{"tileid":627,"duration":100},{"tileid":628,"duration":100},{"tileid":629,"duration":100},{"tileid":630,"duration":100},{"tileid":631,"duration":100},{"tileid":632,"duration":100},{"tileid":633,"duration":100},{"tileid":634,"duration":100},{"tileid":635,"duration":100},{"tileid":636,"duration":100},{"tileid":637,"duration":100},{"tileid":638,"duration":100},{"tileid":639,"duration":100},{"tileid":640,"duration":100},{"tileid":641,"duration":100},{"tileid":642,"duration":100},{"tileid":643,"duration":100},{"tileid":644,"duration":100},{"tileid":645,"duration":100},{"tileid":646,"duration":100},{"tileid":647,"duration":100}]},{"id":648,"animation":[{"tileid":648,"duration":100},{"tileid":649,"duration":100},{"tileid":650,"duration":100},{"tileid":651,"duration":100},{"tileid":652,"duration":100},{"tileid":653,"duration":100},{"tileid":654,"duration":100},{"tileid":655,"duration":100},{"tileid":656,"duration":100},{"tileid":657,"duration":100},{"tileid":658,"duration":100},{"tileid":659,"duration":100},{"tileid":660,"duration":100},{"tileid":661,"duration":100},{"tileid":662,"duration":100},{"tileid":663,"duration":100},{"tileid":664,"duration":100},{"tileid":665,"duration":100},{"tileid":666,"duration":100},{"tileid":667,"duration":100},{"tileid":668,"duration":100},{"tileid":669,"duration":100},{"tileid":670,"duration":100},{"tileid":671,"duration":100}]},{"id":672,"animation":[{"tileid":672,"duration":100},{"tileid":673,"duration":100},{"tileid":674,"duration":100},{"tileid":675,"duration":100},{"tileid":676,"duration":100},{"tileid":677,"duration":100},{"tileid":678,"duration":100},{"tileid":679,"duration":100},{"tileid":680,"duration":100},{"tileid":681,"duration":100},{"tileid":682,"duration":100},{"tileid":683,"duration":100},{"tileid":684,"duration":100},{"tileid":685,"duration":100},{"tileid":686,"duration":100},{"tileid":687,"duration":100},{"tileid":688,"duration":100},{"tileid":689,"duration":100},{"tileid":690,"duration":100},{"tileid":691,"duration":100},{"tileid":692,"duration":100},{"tileid":693,"duration":100},{"tileid":694,"duration":100},{"tileid":695,"duration":100}]},{"id":696,"animation":[{"tileid":696,"duration":100},{"tileid":697,"duration":100},{"tileid":698,"duration":100},{"tileid":699,"duration":100},{"tileid":700,"duration":100},{"tileid":701,"duration":100},{"tileid":702,"duration":100},{"tileid":703,"duration":100},{"tileid":704,"duration":100},{"tileid":705,"duration":100},{"tileid":706,"duration":100},{"tileid":707,"duration":100},{"tileid":708,"duration":100},{"tileid":709,"duration":100},{"tileid":710,"duration":100},{"tileid":711,"duration":100},{"tileid":712,"duration":100},{"tileid":713,"duration":100},{"tileid":714,"duration":100},{"tileid":715,"duration":100},{"tileid":716,"duration":100},{"tileid":717,"duration":100},{"tileid":718,"duration":100},{"tileid":719,"duration":100}]},{"id":720,"animation":[{"tileid":720,"duration":100},{"tileid":721,"duration":100},{"tileid":722,"duration":100},{"tileid":723,"duration":100},{"tileid":724,"duration":100},{"tileid":725,"duration":100},{"tileid":726,"duration":100},{"tileid":727,"duration":100},{"tileid":728,"duration":100},{"tileid":729,"duration":100},{"tileid":730,"duration":100},{"tileid":731,"duration":100},{"tileid":732,"duration":100},{"tileid":733,"duration":100},{"tileid":734,"duration":100},{"tileid":735,"duration":100},{"tileid":736,"duration":100},{"tileid":737,"duration":100},{"tileid":738,"duration":100},{"tileid":739,"duration":100},{"tileid":740,"duration":100},{"tileid":741,"duration":100},{"tileid":742,"duration":100},{"tileid":743,"duration":100}]},{"id":744,"animation":[{"tileid":744,"duration":100},{"tileid":745,"duration":100},{"tileid":746,"duration":100},{"tileid":747,"duration":100},{"tileid":748,"duration":100},{"tileid":749,"duration":100},{"tileid":750,"duration":100},{"tileid":751,"duration":100},{"tileid":752,"duration":100},{"tileid":753,"duration":100},{"tileid":754,"duration":100},{"tileid":755,"duration":100},{"tileid":756,"duration":100},{"tileid":757,"duration":100},{"tileid":758,"duration":100},{"tileid":759,"duration":100},{"tileid":760,"duration":100},{"tileid":761,"duration":100},{"tileid":762,"duration":100},{"tileid":763,"duration":100},{"tileid":764,"duration":100},{"tileid":765,"duration":100},{"tileid":766,"duration":100},{"tileid":767,"duration":100}]},{"id":768,"animation":[{"tileid":768,"duration":100},{"tileid":769,"duration":100},{"tileid":770,"duration":100},{"tileid":771,"duration":100},{"tileid":772,"duration":100},{"tileid":773,"duration":100},{"tileid":774,"duration":100},{"tileid":775,"duration":100},{"tileid":776,"duration":100},{"tileid":777,"duration":100},{"tileid":778,"duration":100},{"tileid":779,"duration":100},{"tileid":780,"duration":100},{"tileid":781,"duration":100},{"tileid":782,"duration":100},{"tileid":783,"duration":100},{"tileid":784,"duration":100},{"tileid":785,"duration":100},{"tileid":786,"duration":100},{"tileid":787,"duration":100},{"tileid":788,"duration":100},{"tileid":789,"duration":100},{"tileid":790,"duration":100},{"tileid":791,"duration":100}]},{"id":792,"animation":[{"tileid":792,"duration":100},{"tileid":793,"duration":100},{"tileid":794,"duration":100},{"tileid":795,"duration":100},{"tileid":796,"duration":100},{"tileid":797,"duration":100},{"tileid":798,"duration":100},{"tileid":799,"duration":100},{"tileid":800,"duration":100},{"tileid":801,"duration":100},{"tileid":802,"duration":100},{"tileid":803,"duration":100},{"tileid":804,"duration":100},{"tileid":805,"duration":100},{"tileid":806,"duration":100},{"tileid":807,"duration":100},{"tileid":808,"duration":100},{"tileid":809,"duration":100},{"tileid":810,"duration":100},{"tileid":811,"duration":100},{"tileid":812,"duration":100},{"tileid":813,"duration":100},{"tileid":814,"duration":100},{"tileid":815,"duration":100}]},{"id":816,"animation":[{"tileid":816,"duration":100},{"tileid":817,"duration":100},{"tileid":818,"duration":100},{"tileid":819,"duration":100},{"tileid":820,"duration":100},{"tileid":821,"duration":100},{"tileid":822,"duration":100},{"tileid":823,"duration":100},{"tileid":824,"duration":100},{"tileid":825,"duration":100},{"tileid":826,"duration":100},{"tileid":827,"duration":100},{"tileid":828,"duration":100},{"tileid":829,"duration":100},{"tileid":830,"duration":100},{"tileid":831,"duration":100},{"tileid":832,"duration":100},{"tileid":833,"duration":100},{"tileid":834,"duration":100},{"tileid":835,"duration":100},{"tileid":836,"duration":100},{"tileid":837,"duration":100},{"tileid":838,"duration":100},{"tileid":839,"duration":100}]},{"id":840,"animation":[{"tileid":840,"duration":100},{"tileid":841,"duration":100},{"tileid":842,"duration":100},{"tileid":843,"duration":100},{"tileid":844,"duration":100},{"tileid":845,"duration":100},{"tileid":846,"duration":100},{"tileid":847,"duration":100},{"tileid":848,"duration":100},{"tileid":849,"duration":100},{"tileid":850,"duration":100},{"tileid":851,"duration":100},{"tileid":852,"duration":100},{"tileid":853,"duration":100},{"tileid":854,"duration":100},{"tileid":855,"duration":100},{"tileid":856,"duration":100},{"tileid":857,"duration":100},{"tileid":858,"duration":100},{"tileid":859,"duration":100},{"tileid":860,"duration":100},{"tileid":861,"duration":100},{"tileid":862,"duration":100},{"tileid":863,"duration":100}]},{"id":864,"animation":[{"tileid":864,"duration":100},{"tileid":865,"duration":100},{"tileid":866,"duration":100},{"tileid":867,"duration":100},{"tileid":868,"duration":100},{"tileid":869,"duration":100},{"tileid":870,"duration":100},{"tileid":871,"duration":100},{"tileid":872,"duration":100},{"tileid":873,"duration":100},{"tileid":874,"duration":100},{"tileid":875,"duration":100},{"tileid":876,"duration":100},{"tileid":877,"duration":100},{"tileid":878,"duration":100},{"tileid":879,"duration":100},{"tileid":880,"duration":100},{"tileid":881,"duration":100},{"tileid":882,"duration":100},{"tileid":883,"duration":100},{"tileid":884,"duration":100},{"tileid":885,"duration":100},{"tileid":886,"duration":100},{"tileid":887,"duration":100}]},{"id":888,"animation":[{"tileid":888,"duration":100},{"tileid":889,"duration":100},{"tileid":890,"duration":100},{"tileid":891,"duration":100},{"tileid":892,"duration":100},{"tileid":893,"duration":100},{"tileid":894,"duration":100},{"tileid":895,"duration":100},{"tileid":896,"duration":100},{"tileid":897,"duration":100},{"tileid":898,"duration":100},{"tileid":899,"duration":100},{"tileid":900,"duration":100},{"tileid":901,"duration":100},{"tileid":902,"duration":100},{"tileid":903,"duration":100},{"tileid":904,"duration":100},{"tileid":905,"duration":100},{"tileid":906,"duration":100},{"tileid":907,"duration":100},{"tileid":908,"duration":100},{"tileid":909,"duration":100},{"tileid":910,"duration":100},{"tileid":911,"duration":100}]},{"id":912,"animation":[{"tileid":912,"duration":100},{"tileid":913,"duration":100},{"tileid":914,"duration":100},{"tileid":915,"duration":100},{"tileid":916,"duration":100},{"tileid":917,"duration":100},{"tileid":918,"duration":100},{"tileid":919,"duration":100},{"tileid":920,"duration":100},{"tileid":921,"duration":100},{"tileid":922,"duration":100},{"tileid":923,"duration":100},{"tileid":924,"duration":100},{"tileid":925,"duration":100},{"tileid":926,"duration":100},{"tileid":927,"duration":100},{"tileid":928,"duration":100},{"tileid":929,"duration":100},{"tileid":930,"duration":100},{"tileid":931,"duration":100},{"tileid":932,"duration":100},{"tileid":933,"duration":100},{"tileid":934,"duration":100},{"tileid":935,"duration":100}]},{"id":936,"animation":[{"tileid":936,"duration":100},{"tileid":937,"duration":100},{"tileid":938,"duration":100},{"tileid":939,"duration":100},{"tileid":940,"duration":100},{"tileid":941,"duration":100},{"tileid":942,"duration":100},{"tileid":943,"duration":100},{"tileid":944,"duration":100},{"tileid":945,"duration":100},{"tileid":946,"duration":100},{"tileid":947,"duration":100},{"tileid":948,"duration":100},{"tileid":949,"duration":100},{"tileid":950,"duration":100},{"tileid":951,"duration":100},{"tileid":952,"duration":100},{"tileid":953,"duration":100},{"tileid":954,"duration":100},{"tileid":955,"duration":100},{"tileid":956,"duration":100},{"tileid":957,"duration":100},{"tileid":958,"duration":100},{"tileid":959,"duration":100}]},{"id":960,"animation":[{"tileid":960,"duration":100},{"tileid":961,"duration":100},{"tileid":962,"duration":100},{"tileid":963,"duration":100},{"tileid":964,"duration":100},{"tileid":965,"duration":100},{"tileid":966,"duration":100},{"tileid":967,"duration":100},{"tileid":968,"duration":100},{"tileid":969,"duration":100},{"tileid":970,"duration":100},{"tileid":971,"duration":100},{"tileid":972,"duration":100},{"tileid":973,"duration":100},{"tileid":974,"duration":100},{"tileid":975,"duration":100},{"tileid":976,"duration":100},{"tileid":977,"duration":100},{"tileid":978,"duration":100},{"tileid":979,"duration":100},{"tileid":980,"duration":100},{"tileid":981,"duration":100},{"tileid":982,"duration":100},{"tileid":983,"duration":100}]},{"id":984,"animation":[{"tileid":984,"duration":100},{"tileid":985,"duration":100},{"tileid":986,"duration":100},{"tileid":987,"duration":100},{"tileid":988,"duration":100},{"tileid":989,"duration":100},{"tileid":990,"duration":100},{"tileid":991,"duration":100},{"tileid":992,"duration":100},{"tileid":993,"duration":100},{"tileid":994,"duration":100},{"tileid":995,"duration":100},{"tileid":996,"duration":100},{"tileid":997,"duration":100},{"tileid":998,"duration":100},{"tileid":999,"duration":100},{"tileid":1000,"duration":100},{"tileid":1001,"duration":100},{"tileid":1002,"duration":100},{"tileid":1003,"duration":100},{"tileid":1004,"duration":100},{"tileid":1005,"duration":100},{"tileid":1006,"duration":100},{"tileid":1007,"duration":100}]}]},{"firstgid":18598,"name":"gate-waterfalls-06","image":"../../v6/gate/map/tilesets/gate-waterfalls-06.png","imagewidth":1024,"imageheight":448,"tilewidth":32,"tileheight":32,"columns":32,"tilecount":448,"margin":0,"spacing":0,"tiles":[{"id":0,"animation":[{"tileid":0,"duration":100},{"tileid":1,"duration":100},{"tileid":2,"duration":100},{"tileid":3,"duration":100},{"tileid":4,"duration":100},{"tileid":5,"duration":100},{"tileid":6,"duration":100},{"tileid":7,"duration":100},{"tileid":8,"duration":100},{"tileid":9,"duration":100},{"tileid":10,"duration":100},{"tileid":11,"duration":100},{"tileid":12,"duration":100},{"tileid":13,"duration":100},{"tileid":14,"duration":100},{"tileid":15,"duration":100},{"tileid":16,"duration":100},{"tileid":17,"duration":100},{"tileid":18,"duration":100},{"tileid":19,"duration":100},{"tileid":20,"duration":100},{"tileid":21,"duration":100},{"tileid":22,"duration":100},{"tileid":23,"duration":100}]},{"id":24,"animation":[{"tileid":24,"duration":100},{"tileid":25,"duration":100},{"tileid":26,"duration":100},{"tileid":27,"duration":100},{"tileid":28,"duration":100},{"tileid":29,"duration":100},{"tileid":30,"duration":100},{"tileid":31,"duration":100},{"tileid":32,"duration":100},{"tileid":33,"duration":100},{"tileid":34,"duration":100},{"tileid":35,"duration":100},{"tileid":36,"duration":100},{"tileid":37,"duration":100},{"tileid":38,"duration":100},{"tileid":39,"duration":100},{"tileid":40,"duration":100},{"tileid":41,"duration":100},{"tileid":42,"duration":100},{"tileid":43,"duration":100},{"tileid":44,"duration":100},{"tileid":45,"duration":100},{"tileid":46,"duration":100},{"tileid":47,"duration":100}]},{"id":48,"animation":[{"tileid":48,"duration":100},{"tileid":49,"duration":100},{"tileid":50,"duration":100},{"tileid":51,"duration":100},{"tileid":52,"duration":100},{"tileid":53,"duration":100},{"tileid":54,"duration":100},{"tileid":55,"duration":100},{"tileid":56,"duration":100},{"tileid":57,"duration":100},{"tileid":58,"duration":100},{"tileid":59,"duration":100},{"tileid":60,"duration":100},{"tileid":61,"duration":100},{"tileid":62,"duration":100},{"tileid":63,"duration":100},{"tileid":64,"duration":100},{"tileid":65,"duration":100},{"tileid":66,"duration":100},{"tileid":67,"duration":100},{"tileid":68,"duration":100},{"tileid":69,"duration":100},{"tileid":70,"duration":100},{"tileid":71,"duration":100}]},{"id":72,"animation":[{"tileid":72,"duration":100},{"tileid":73,"duration":100},{"tileid":74,"duration":100},{"tileid":75,"duration":100},{"tileid":76,"duration":100},{"tileid":77,"duration":100},{"tileid":78,"duration":100},{"tileid":79,"duration":100},{"tileid":80,"duration":100},{"tileid":81,"duration":100},{"tileid":82,"duration":100},{"tileid":83,"duration":100},{"tileid":84,"duration":100},{"tileid":85,"duration":100},{"tileid":86,"duration":100},{"tileid":87,"duration":100},{"tileid":88,"duration":100},{"tileid":89,"duration":100},{"tileid":90,"duration":100},{"tileid":91,"duration":100},{"tileid":92,"duration":100},{"tileid":93,"duration":100},{"tileid":94,"duration":100},{"tileid":95,"duration":100}]},{"id":96,"animation":[{"tileid":96,"duration":100},{"tileid":97,"duration":100},{"tileid":98,"duration":100},{"tileid":99,"duration":100},{"tileid":100,"duration":100},{"tileid":101,"duration":100},{"tileid":102,"duration":100},{"tileid":103,"duration":100},{"tileid":104,"duration":100},{"tileid":105,"duration":100},{"tileid":106,"duration":100},{"tileid":107,"duration":100},{"tileid":108,"duration":100},{"tileid":109,"duration":100},{"tileid":110,"duration":100},{"tileid":111,"duration":100},{"tileid":112,"duration":100},{"tileid":113,"duration":100},{"tileid":114,"duration":100},{"tileid":115,"duration":100},{"tileid":116,"duration":100},{"tileid":117,"duration":100},{"tileid":118,"duration":100},{"tileid":119,"duration":100}]},{"id":120,"animation":[{"tileid":120,"duration":100},{"tileid":121,"duration":100},{"tileid":122,"duration":100},{"tileid":123,"duration":100},{"tileid":124,"duration":100},{"tileid":125,"duration":100},{"tileid":126,"duration":100},{"tileid":127,"duration":100},{"tileid":128,"duration":100},{"tileid":129,"duration":100},{"tileid":130,"duration":100},{"tileid":131,"duration":100},{"tileid":132,"duration":100},{"tileid":133,"duration":100},{"tileid":134,"duration":100},{"tileid":135,"duration":100},{"tileid":136,"duration":100},{"tileid":137,"duration":100},{"tileid":138,"duration":100},{"tileid":139,"duration":100},{"tileid":140,"duration":100},{"tileid":141,"duration":100},{"tileid":142,"duration":100},{"tileid":143,"duration":100}]},{"id":144,"animation":[{"tileid":144,"duration":100},{"tileid":145,"duration":100},{"tileid":146,"duration":100},{"tileid":147,"duration":100},{"tileid":148,"duration":100},{"tileid":149,"duration":100},{"tileid":150,"duration":100},{"tileid":151,"duration":100},{"tileid":152,"duration":100},{"tileid":153,"duration":100},{"tileid":154,"duration":100},{"tileid":155,"duration":100},{"tileid":156,"duration":100},{"tileid":157,"duration":100},{"tileid":158,"duration":100},{"tileid":159,"duration":100},{"tileid":160,"duration":100},{"tileid":161,"duration":100},{"tileid":162,"duration":100},{"tileid":163,"duration":100},{"tileid":164,"duration":100},{"tileid":165,"duration":100},{"tileid":166,"duration":100},{"tileid":167,"duration":100}]},{"id":168,"animation":[{"tileid":168,"duration":100},{"tileid":169,"duration":100},{"tileid":170,"duration":100},{"tileid":171,"duration":100},{"tileid":172,"duration":100},{"tileid":173,"duration":100},{"tileid":174,"duration":100},{"tileid":175,"duration":100},{"tileid":176,"duration":100},{"tileid":177,"duration":100},{"tileid":178,"duration":100},{"tileid":179,"duration":100},{"tileid":180,"duration":100},{"tileid":181,"duration":100},{"tileid":182,"duration":100},{"tileid":183,"duration":100},{"tileid":184,"duration":100},{"tileid":185,"duration":100},{"tileid":186,"duration":100},{"tileid":187,"duration":100},{"tileid":188,"duration":100},{"tileid":189,"duration":100},{"tileid":190,"duration":100},{"tileid":191,"duration":100}]},{"id":192,"animation":[{"tileid":192,"duration":100},{"tileid":193,"duration":100},{"tileid":194,"duration":100},{"tileid":195,"duration":100},{"tileid":196,"duration":100},{"tileid":197,"duration":100},{"tileid":198,"duration":100},{"tileid":199,"duration":100},{"tileid":200,"duration":100},{"tileid":201,"duration":100},{"tileid":202,"duration":100},{"tileid":203,"duration":100},{"tileid":204,"duration":100},{"tileid":205,"duration":100},{"tileid":206,"duration":100},{"tileid":207,"duration":100},{"tileid":208,"duration":100},{"tileid":209,"duration":100},{"tileid":210,"duration":100},{"tileid":211,"duration":100},{"tileid":212,"duration":100},{"tileid":213,"duration":100},{"tileid":214,"duration":100},{"tileid":215,"duration":100}]},{"id":216,"animation":[{"tileid":216,"duration":100},{"tileid":217,"duration":100},{"tileid":218,"duration":100},{"tileid":219,"duration":100},{"tileid":220,"duration":100},{"tileid":221,"duration":100},{"tileid":222,"duration":100},{"tileid":223,"duration":100},{"tileid":224,"duration":100},{"tileid":225,"duration":100},{"tileid":226,"duration":100},{"tileid":227,"duration":100},{"tileid":228,"duration":100},{"tileid":229,"duration":100},{"tileid":230,"duration":100},{"tileid":231,"duration":100},{"tileid":232,"duration":100},{"tileid":233,"duration":100},{"tileid":234,"duration":100},{"tileid":235,"duration":100},{"tileid":236,"duration":100},{"tileid":237,"duration":100},{"tileid":238,"duration":100},{"tileid":239,"duration":100}]},{"id":240,"animation":[{"tileid":240,"duration":100},{"tileid":241,"duration":100},{"tileid":242,"duration":100},{"tileid":243,"duration":100},{"tileid":244,"duration":100},{"tileid":245,"duration":100},{"tileid":246,"duration":100},{"tileid":247,"duration":100},{"tileid":248,"duration":100},{"tileid":249,"duration":100},{"tileid":250,"duration":100},{"tileid":251,"duration":100},{"tileid":252,"duration":100},{"tileid":253,"duration":100},{"tileid":254,"duration":100},{"tileid":255,"duration":100},{"tileid":256,"duration":100},{"tileid":257,"duration":100},{"tileid":258,"duration":100},{"tileid":259,"duration":100},{"tileid":260,"duration":100},{"tileid":261,"duration":100},{"tileid":262,"duration":100},{"tileid":263,"duration":100}]},{"id":264,"animation":[{"tileid":264,"duration":100},{"tileid":265,"duration":100},{"tileid":266,"duration":100},{"tileid":267,"duration":100},{"tileid":268,"duration":100},{"tileid":269,"duration":100},{"tileid":270,"duration":100},{"tileid":271,"duration":100},{"tileid":272,"duration":100},{"tileid":273,"duration":100},{"tileid":274,"duration":100},{"tileid":275,"duration":100},{"tileid":276,"duration":100},{"tileid":277,"duration":100},{"tileid":278,"duration":100},{"tileid":279,"duration":100},{"tileid":280,"duration":100},{"tileid":281,"duration":100},{"tileid":282,"duration":100},{"tileid":283,"duration":100},{"tileid":284,"duration":100},{"tileid":285,"duration":100},{"tileid":286,"duration":100},{"tileid":287,"duration":100}]},{"id":288,"animation":[{"tileid":288,"duration":100},{"tileid":289,"duration":100},{"tileid":290,"duration":100},{"tileid":291,"duration":100},{"tileid":292,"duration":100},{"tileid":293,"duration":100},{"tileid":294,"duration":100},{"tileid":295,"duration":100},{"tileid":296,"duration":100},{"tileid":297,"duration":100},{"tileid":298,"duration":100},{"tileid":299,"duration":100},{"tileid":300,"duration":100},{"tileid":301,"duration":100},{"tileid":302,"duration":100},{"tileid":303,"duration":100},{"tileid":304,"duration":100},{"tileid":305,"duration":100},{"tileid":306,"duration":100},{"tileid":307,"duration":100},{"tileid":308,"duration":100},{"tileid":309,"duration":100},{"tileid":310,"duration":100},{"tileid":311,"duration":100}]},{"id":312,"animation":[{"tileid":312,"duration":100},{"tileid":313,"duration":100},{"tileid":314,"duration":100},{"tileid":315,"duration":100},{"tileid":316,"duration":100},{"tileid":317,"duration":100},{"tileid":318,"duration":100},{"tileid":319,"duration":100},{"tileid":320,"duration":100},{"tileid":321,"duration":100},{"tileid":322,"duration":100},{"tileid":323,"duration":100},{"tileid":324,"duration":100},{"tileid":325,"duration":100},{"tileid":326,"duration":100},{"tileid":327,"duration":100},{"tileid":328,"duration":100},{"tileid":329,"duration":100},{"tileid":330,"duration":100},{"tileid":331,"duration":100},{"tileid":332,"duration":100},{"tileid":333,"duration":100},{"tileid":334,"duration":100},{"tileid":335,"duration":100}]},{"id":336,"animation":[{"tileid":336,"duration":100},{"tileid":337,"duration":100},{"tileid":338,"duration":100},{"tileid":339,"duration":100},{"tileid":340,"duration":100},{"tileid":341,"duration":100},{"tileid":342,"duration":100},{"tileid":343,"duration":100},{"tileid":344,"duration":100},{"tileid":345,"duration":100},{"tileid":346,"duration":100},{"tileid":347,"duration":100},{"tileid":348,"duration":100},{"tileid":349,"duration":100},{"tileid":350,"duration":100},{"tileid":351,"duration":100},{"tileid":352,"duration":100},{"tileid":353,"duration":100},{"tileid":354,"duration":100},{"tileid":355,"duration":100},{"tileid":356,"duration":100},{"tileid":357,"duration":100},{"tileid":358,"duration":100},{"tileid":359,"duration":100}]},{"id":360,"animation":[{"tileid":360,"duration":100},{"tileid":361,"duration":100},{"tileid":362,"duration":100},{"tileid":363,"duration":100},{"tileid":364,"duration":100},{"tileid":365,"duration":100},{"tileid":366,"duration":100},{"tileid":367,"duration":100},{"tileid":368,"duration":100},{"tileid":369,"duration":100},{"tileid":370,"duration":100},{"tileid":371,"duration":100},{"tileid":372,"duration":100},{"tileid":373,"duration":100},{"tileid":374,"duration":100},{"tileid":375,"duration":100},{"tileid":376,"duration":100},{"tileid":377,"duration":100},{"tileid":378,"duration":100},{"tileid":379,"duration":100},{"tileid":380,"duration":100},{"tileid":381,"duration":100},{"tileid":382,"duration":100},{"tileid":383,"duration":100}]},{"id":384,"animation":[{"tileid":384,"duration":100},{"tileid":385,"duration":100},{"tileid":386,"duration":100},{"tileid":387,"duration":100},{"tileid":388,"duration":100},{"tileid":389,"duration":100},{"tileid":390,"duration":100},{"tileid":391,"duration":100},{"tileid":392,"duration":100},{"tileid":393,"duration":100},{"tileid":394,"duration":100},{"tileid":395,"duration":100},{"tileid":396,"duration":100},{"tileid":397,"duration":100},{"tileid":398,"duration":100},{"tileid":399,"duration":100},{"tileid":400,"duration":100},{"tileid":401,"duration":100},{"tileid":402,"duration":100},{"tileid":403,"duration":100},{"tileid":404,"duration":100},{"tileid":405,"duration":100},{"tileid":406,"duration":100},{"tileid":407,"duration":100}]},{"id":408,"animation":[{"tileid":408,"duration":100},{"tileid":409,"duration":100},{"tileid":410,"duration":100},{"tileid":411,"duration":100},{"tileid":412,"duration":100},{"tileid":413,"duration":100},{"tileid":414,"duration":100},{"tileid":415,"duration":100},{"tileid":416,"duration":100},{"tileid":417,"duration":100},{"tileid":418,"duration":100},{"tileid":419,"duration":100},{"tileid":420,"duration":100},{"tileid":421,"duration":100},{"tileid":422,"duration":100},{"tileid":423,"duration":100},{"tileid":424,"duration":100},{"tileid":425,"duration":100},{"tileid":426,"duration":100},{"tileid":427,"duration":100},{"tileid":428,"duration":100},{"tileid":429,"duration":100},{"tileid":430,"duration":100},{"tileid":431,"duration":100}]}]}],"properties":[{"name":"campusVersion","type":"string","value":"gate-b-detail-to-monument"},{"name":"audioEnabled","type":"bool","value":false},{"name":"campusRoomUrl","type":"string","value":""},{"name":"boundedLifecyclePending","type":"bool","value":false},{"name":"liveRoomLinkPending","type":"bool","value":true},{"name":"script","type":"string","value":"native-audio/gate-with-native-audio.js"},{"name":"gateAmbientAudio","type":"string","value":"{\"version\":1,\"auditedCommit\":\"f00b3482f23c51976b4b339d7a891cad683d6498\",\"scene\":\"gate\",\"carrierLayer\":\"campus-audio-control\",\"startPolicy\":\"explicit-per-map\",\"sourceVolume\":1,\"url\":\"native-audio/assets/gate-music-waterfalls-loop.mp3\",\"description\":\"Original gate music plus cascade, fixed gain baked into one 48-second loop\"}"},{"name":"gateCameraVersion","type":"string","value":"B: progressive pullback, hold, native manual opt-out"}],"nextlayerid":55,"nextobjectid":43}
